;FLAVOR:Marlin
;TIME:149
;Filament used: 0.0487624m
;Layer height: 0.16
;MINX:110.005
;MINY:151.958
;MINZ:0.2
;MAXX:124.996
;MAXY:166.952
;MAXZ:2.76
;Generated with Cura_SteamEngine 4.13.0
M140 S75
M105
M190 S75
M104 S245
M105
M109 S245
M82 ;absolute extrusion mode
; Ender 3 Custom Start G-code
G92 E0 ; Reset Extruder
G28 ; Home all axes
G1 Z2.0 F3000 ; Move Z Axis up little to prevent scratching of Heat Bed
G1 X0.1 Y20 Z0.3 F5000.0 ; Move to start position
G1 X0.1 Y200.0 Z0.3 F1500.0 E15 ; Draw the first line
G1 X0.4 Y200.0 Z0.3 F5000.0 ; Move to side a little
G1 X0.4 Y20 Z0.3 F1500.0 E30 ; Draw the second line
G92 E0 ; Reset Extruder
G1 Z2.0 F3000 ; Move Z Axis up little to prevent scratching of Heat Bed
G1 X5 Y20 Z0.3 F5000.0 ; Move over to prevent blob squish
G92 E0
G92 E0
G1 F1200 E-6
;LAYER_COUNT:20
;LAYER:0
M107
M204 S500
M205 X16 Y16
G0 F6000 X112.972 Y153.479 Z0.2
;TYPE:SKIRT
G1 F1200 E0
G1 F900 X113.332 Y153.223 E0.01469
G1 X113.663 Y153.015 E0.02769
G1 X114.001 Y152.826 E0.04057
G1 X114.357 Y152.65 E0.05378
G1 X114.727 Y152.49 E0.06719
G1 X115.096 Y152.354 E0.08027
G1 X115.474 Y152.237 E0.09343
G1 X115.844 Y152.143 E0.10613
G1 X116.25 Y152.063 E0.11989
G1 X116.655 Y152.006 E0.1335
G1 X117.059 Y151.971 E0.14698
G1 X117.45 Y151.958 E0.15999
G1 X117.86 Y151.967 E0.17363
G1 X118.247 Y151.996 E0.18654
G1 X118.647 Y152.047 E0.19995
G1 X119.046 Y152.12 E0.21345
G1 X119.431 Y152.211 E0.2266
G1 X119.803 Y152.32 E0.2395
G1 X120.191 Y152.458 E0.25319
G1 X120.545 Y152.605 E0.26594
G1 X120.913 Y152.781 E0.27951
G1 X121.271 Y152.977 E0.29308
G1 X121.61 Y153.187 E0.30635
G1 X121.939 Y153.415 E0.31966
G1 X122.25 Y153.654 E0.33271
G1 X122.532 Y153.896 E0.34507
G1 X122.838 Y154.19 E0.35918
G1 X123.122 Y154.495 E0.37304
G1 X123.386 Y154.811 E0.38674
G1 X123.622 Y155.127 E0.39985
G1 X123.842 Y155.456 E0.41302
G1 X124.038 Y155.785 E0.42576
G1 X124.226 Y156.144 E0.43923
G1 X124.39 Y156.501 E0.4523
G1 X124.534 Y156.862 E0.46523
G1 X124.661 Y157.235 E0.47833
G1 X124.774 Y157.637 E0.49222
G1 X124.859 Y158.02 E0.50527
G1 X124.926 Y158.423 E0.51886
G1 X124.971 Y158.828 E0.53241
G1 X124.994 Y159.228 E0.54574
G1 X124.996 Y159.61 E0.55844
G1 X124.975 Y160.025 E0.57226
G1 X124.934 Y160.417 E0.58537
G1 X124.875 Y160.796 E0.59813
G1 X124.793 Y161.19 E0.61152
G1 X124.69 Y161.581 E0.62496
G1 X124.577 Y161.932 E0.63723
G1 X124.431 Y162.313 E0.6508
G1 X124.264 Y162.688 E0.66445
G1 X124.075 Y163.057 E0.67824
G1 X123.876 Y163.398 E0.69137
G1 X123.657 Y163.732 E0.70466
G1 X123.422 Y164.052 E0.71786
G1 X123.163 Y164.367 E0.73143
G1 X122.896 Y164.659 E0.74459
G1 X122.609 Y164.942 E0.75799
G1 X122.316 Y165.201 E0.771
G1 X121.996 Y165.455 E0.78459
G1 X121.67 Y165.686 E0.79788
G1 X121.338 Y165.896 E0.81094
G1 X121.006 Y166.083 E0.82362
G1 X120.625 Y166.27 E0.83773
G1 X120.255 Y166.427 E0.8511
G1 X119.897 Y166.558 E0.86378
G1 X119.52 Y166.675 E0.87691
G1 X119.113 Y166.777 E0.89086
G1 X118.729 Y166.851 E0.90387
G1 X118.33 Y166.906 E0.91727
G1 X117.94 Y166.939 E0.93028
G1 X117.535 Y166.952 E0.94376
G1 X117.135 Y166.943 E0.95707
G1 X116.754 Y166.915 E0.96978
G1 X116.374 Y166.868 E0.98251
G1 X115.943 Y166.79 E0.99708
G1 X115.556 Y166.696 E1.01032
G1 X115.192 Y166.588 E1.02295
G1 X114.814 Y166.455 E1.03628
G1 X114.419 Y166.29 E1.05052
G1 X114.068 Y166.12 E1.06349
G1 X113.731 Y165.935 E1.07628
G1 X113.395 Y165.728 E1.0894
G1 X113.064 Y165.5 E1.10277
G1 X112.756 Y165.262 E1.11572
G1 X112.445 Y164.993 E1.12939
G1 X112.154 Y164.713 E1.14283
G1 X111.866 Y164.403 E1.1569
G1 X111.621 Y164.108 E1.16965
G1 X111.39 Y163.799 E1.18248
G1 X111.169 Y163.47 E1.19567
G1 X110.953 Y163.108 E1.20969
G1 X110.77 Y162.757 E1.22285
G1 X110.61 Y162.408 E1.23562
G1 X110.466 Y162.047 E1.24855
G1 X110.337 Y161.663 E1.26202
G1 X110.227 Y161.27 E1.2756
G1 X110.136 Y160.859 E1.2896
G1 X110.075 Y160.486 E1.30217
G1 X110.032 Y160.101 E1.31505
G1 X110.008 Y159.702 E1.32835
G1 X110.005 Y159.299 E1.34175
G1 X110.023 Y158.908 E1.35477
G1 X110.065 Y158.493 E1.36864
G1 X110.128 Y158.092 E1.38214
G1 X110.212 Y157.697 E1.39558
G1 X110.31 Y157.332 E1.40815
G1 X110.432 Y156.957 E1.42126
G1 X110.575 Y156.584 E1.43455
G1 X110.744 Y156.206 E1.44832
G1 X110.924 Y155.856 E1.46141
G1 X111.125 Y155.511 E1.47469
G1 X111.342 Y155.18 E1.48786
G1 X111.581 Y154.855 E1.50127
G1 X111.835 Y154.545 E1.5146
G1 X112.127 Y154.227 E1.52896
G1 X112.405 Y153.957 E1.54185
G1 X112.67 Y153.722 E1.55363
G1 X112.972 Y153.479 E1.56652
G0 F6000 X113.223 Y153.791
G1 F900 X113.545 Y153.561 E1.57969
G1 X113.876 Y153.353 E1.59269
G1 X114.178 Y153.184 E1.6042
G1 X114.534 Y153.008 E1.61741
G1 X114.865 Y152.866 E1.62939
G1 X115.234 Y152.73 E1.64247
G1 X115.573 Y152.625 E1.65427
G1 X115.943 Y152.531 E1.66697
G1 X116.306 Y152.459 E1.67928
G1 X116.711 Y152.402 E1.69288
G1 X117.072 Y152.371 E1.70493
G1 X117.463 Y152.358 E1.71794
G1 X117.83 Y152.366 E1.73015
G1 X118.217 Y152.395 E1.74306
G1 X118.575 Y152.441 E1.75506
G1 X118.974 Y152.514 E1.76855
G1 X119.318 Y152.595 E1.78031
G1 X119.69 Y152.704 E1.7932
G1 X120.038 Y152.827 E1.80548
G1 X120.392 Y152.974 E1.81823
G1 X120.721 Y153.132 E1.83037
G1 X121.079 Y153.328 E1.84394
G1 X121.383 Y153.515 E1.85581
G1 X121.712 Y153.743 E1.86913
G1 X121.989 Y153.958 E1.88079
G1 X122.271 Y154.2 E1.89315
G1 X122.545 Y154.463 E1.90578
G1 X122.829 Y154.768 E1.91964
G1 X123.065 Y155.051 E1.9319
G1 X123.301 Y155.367 E1.94501
G1 X123.498 Y155.661 E1.95679
G1 X123.694 Y155.99 E1.96952
G1 X123.863 Y156.311 E1.98159
G1 X124.027 Y156.668 E1.99466
G1 X124.156 Y156.991 E2.00622
G1 X124.283 Y157.364 E2.01933
G1 X124.383 Y157.723 E2.03172
G1 X124.468 Y158.106 E2.04477
G1 X124.528 Y158.468 E2.05698
G1 X124.573 Y158.873 E2.07053
G1 X124.594 Y159.23 E2.08242
G1 X124.596 Y159.612 E2.09513
G1 X124.578 Y159.984 E2.10752
G1 X124.537 Y160.376 E2.12063
G1 X124.484 Y160.715 E2.13204
G1 X124.402 Y161.109 E2.14542
G1 X124.309 Y161.458 E2.15744
G1 X124.196 Y161.809 E2.1697
G1 X124.066 Y162.15 E2.18184
G1 X123.899 Y162.525 E2.19549
G1 X123.73 Y162.856 E2.20785
G1 X123.531 Y163.197 E2.22099
G1 X123.334 Y163.495 E2.23287
G1 X123.099 Y163.815 E2.24607
G1 X122.868 Y164.097 E2.2582
G1 X122.601 Y164.389 E2.27136
G1 X122.344 Y164.642 E2.28335
G1 X122.051 Y164.901 E2.29636
G1 X121.765 Y165.128 E2.3085
G1 X121.439 Y165.359 E2.32179
G1 X121.142 Y165.547 E2.33348
G1 X120.81 Y165.734 E2.34616
G1 X120.469 Y165.902 E2.3588
G1 X120.099 Y166.059 E2.37217
G1 X119.779 Y166.176 E2.3835
G1 X119.402 Y166.293 E2.39663
G1 X119.037 Y166.385 E2.40915
G1 X118.653 Y166.459 E2.42216
G1 X118.297 Y166.508 E2.43411
G1 X117.907 Y166.541 E2.44713
G1 X117.544 Y166.552 E2.4592
G1 X117.144 Y166.543 E2.47251
G1 X116.803 Y166.518 E2.48388
G1 X116.423 Y166.471 E2.49662
G1 X116.037 Y166.401 E2.50967
G1 X115.65 Y166.307 E2.52291
G1 X115.325 Y166.21 E2.53419
G1 X114.947 Y166.077 E2.54752
G1 X114.593 Y165.93 E2.56027
G1 X114.242 Y165.76 E2.57324
G1 X113.941 Y165.595 E2.58466
G1 X113.605 Y165.388 E2.59778
G1 X113.309 Y165.183 E2.60976
G1 X113.001 Y164.945 E2.62271
G1 X112.723 Y164.705 E2.63492
G1 X112.432 Y164.425 E2.64835
G1 X112.173 Y164.147 E2.66099
G1 X111.928 Y163.852 E2.67374
G1 X111.722 Y163.576 E2.6852
G1 X111.501 Y163.247 E2.69838
G1 X111.308 Y162.923 E2.71093
G1 X111.125 Y162.572 E2.72409
G1 X110.982 Y162.26 E2.73551
G1 X110.838 Y161.899 E2.74843
G1 X110.722 Y161.555 E2.76051
G1 X110.612 Y161.162 E2.77408
G1 X110.531 Y160.795 E2.78658
G1 X110.47 Y160.422 E2.79915
G1 X110.431 Y160.077 E2.8107
G1 X110.407 Y159.678 E2.82399
G1 X110.405 Y159.318 E2.83597
G1 X110.423 Y158.927 E2.84899
G1 X110.46 Y158.555 E2.86142
G1 X110.523 Y158.154 E2.87492
G1 X110.598 Y157.8 E2.88696
G1 X110.696 Y157.435 E2.89953
G1 X110.805 Y157.1 E2.91124
G1 X110.948 Y156.727 E2.92453
G1 X111.099 Y156.389 E2.93684
G1 X111.279 Y156.039 E2.94993
G1 X111.46 Y155.73 E2.96184
G1 X111.677 Y155.399 E2.97501
G1 X111.89 Y155.108 E2.987
G1 X112.144 Y154.798 E3.00033
G1 X112.405 Y154.514 E3.01316
G1 X112.683 Y154.244 E3.02605
G1 X112.921 Y154.034 E3.03661
G1 X113.223 Y153.791 E3.0495
G0 F6000 X113.473 Y154.103
G1 F900 X113.758 Y153.9 E3.06114
G1 X114.089 Y153.692 E3.07414
G1 X114.355 Y153.543 E3.08428
G1 X114.711 Y153.367 E3.09749
G1 X115.004 Y153.241 E3.1081
G1 X115.373 Y153.105 E3.12118
G1 X115.671 Y153.012 E3.13156
G1 X116.041 Y152.918 E3.14426
G1 X116.362 Y152.855 E3.15514
G1 X116.767 Y152.798 E3.16874
G1 X117.085 Y152.771 E3.17936
G1 X117.476 Y152.758 E3.19237
G1 X117.8 Y152.764 E3.20315
G1 X118.187 Y152.793 E3.21605
G1 X118.503 Y152.834 E3.22665
G1 X118.902 Y152.907 E3.24014
G1 X119.206 Y152.979 E3.25053
G1 X119.578 Y153.088 E3.26343
G1 X119.885 Y153.196 E3.27425
G1 X120.239 Y153.343 E3.287
G1 X120.529 Y153.483 E3.29771
G1 X120.887 Y153.679 E3.31129
G1 X121.155 Y153.844 E3.32175
G1 X121.484 Y154.072 E3.33507
G1 X121.729 Y154.261 E3.34536
G1 X122.011 Y154.503 E3.35772
G1 X122.253 Y154.736 E3.36889
G1 X122.537 Y155.041 E3.38275
G1 X122.745 Y155.29 E3.39354
G1 X122.981 Y155.606 E3.40666
G1 X123.154 Y155.866 E3.41705
G1 X123.35 Y156.195 E3.42979
G1 X123.499 Y156.478 E3.44042
G1 X123.663 Y156.835 E3.45349
G1 X123.777 Y157.12 E3.4637
G1 X123.904 Y157.493 E3.4768
G1 X123.993 Y157.81 E3.48776
G1 X124.078 Y158.193 E3.5008
G1 X124.131 Y158.512 E3.51156
G1 X124.176 Y158.917 E3.52511
G1 X124.194 Y159.232 E3.53561
G1 X124.196 Y159.614 E3.54831
G1 X124.18 Y159.942 E3.55923
G1 X124.139 Y160.334 E3.57234
G1 X124.092 Y160.633 E3.58241
G1 X124.01 Y161.027 E3.5958
G1 X123.929 Y161.335 E3.60639
G1 X123.816 Y161.686 E3.61865
G1 X123.701 Y161.987 E3.62937
G1 X123.534 Y162.362 E3.64302
G1 X123.384 Y162.654 E3.65394
G1 X123.185 Y162.995 E3.66707
G1 X123.012 Y163.259 E3.67757
G1 X122.777 Y163.579 E3.69078
G1 X122.573 Y163.827 E3.70146
G1 X122.306 Y164.119 E3.71462
G1 X122.079 Y164.343 E3.72522
G1 X121.786 Y164.602 E3.73823
G1 X121.533 Y164.802 E3.74896
G1 X121.207 Y165.033 E3.76225
G1 X120.945 Y165.199 E3.77256
G1 X120.613 Y165.386 E3.78524
G1 X120.313 Y165.534 E3.79636
G1 X119.943 Y165.691 E3.80973
G1 X119.66 Y165.794 E3.81975
G1 X119.283 Y165.911 E3.83288
G1 X118.962 Y165.992 E3.84389
G1 X118.578 Y166.066 E3.85689
G1 X118.263 Y166.109 E3.86747
G1 X117.873 Y166.142 E3.88049
G1 X117.553 Y166.152 E3.89113
G1 X117.153 Y166.143 E3.90444
G1 X116.852 Y166.121 E3.91448
G1 X116.472 Y166.074 E3.92722
G1 X116.132 Y166.012 E3.93871
G1 X115.745 Y165.918 E3.95196
G1 X115.457 Y165.833 E3.96194
G1 X115.079 Y165.7 E3.97527
G1 X114.767 Y165.57 E3.98651
G1 X114.416 Y165.4 E3.99948
G1 X114.15 Y165.254 E4.00958
G1 X113.814 Y165.047 E4.0227
G1 X113.554 Y164.867 E4.03322
G1 X113.246 Y164.629 E4.04617
G1 X113 Y164.417 E4.05697
G1 X112.709 Y164.137 E4.0704
G1 X112.481 Y163.892 E4.08153
G1 X112.236 Y163.597 E4.09429
G1 X112.054 Y163.353 E4.10441
G1 X111.833 Y163.024 E4.11759
G1 X111.663 Y162.738 E4.12866
G1 X111.48 Y162.387 E4.14182
G1 X111.354 Y162.112 E4.15188
G1 X111.21 Y161.751 E4.16481
G1 X111.107 Y161.448 E4.17546
G1 X110.997 Y161.055 E4.18903
G1 X110.925 Y160.73 E4.2001
G1 X110.864 Y160.357 E4.21267
G1 X110.83 Y160.053 E4.22285
G1 X110.806 Y159.654 E4.23614
G1 X110.804 Y159.336 E4.24672
G1 X110.822 Y158.945 E4.25974
G1 X110.855 Y158.617 E4.2707
G1 X110.918 Y158.216 E4.2842
G1 X110.985 Y157.904 E4.29482
G1 X111.083 Y157.539 E4.30738
G1 X111.179 Y157.243 E4.31773
G1 X111.322 Y156.87 E4.33102
G1 X111.455 Y156.572 E4.34188
G1 X111.635 Y156.222 E4.35497
G1 X111.794 Y155.949 E4.36547
G1 X112.011 Y155.618 E4.37864
G1 X112.199 Y155.362 E4.3892
G1 X112.453 Y155.052 E4.40253
G1 X112.684 Y154.801 E4.41388
G1 X112.962 Y154.531 E4.42677
G1 X113.171 Y154.346 E4.43605
G1 X113.473 Y154.103 E4.44894
G0 F6000 X113.724 Y154.414
G1 F900 X113.971 Y154.239 E4.45901
G1 X114.302 Y154.031 E4.47201
G1 X114.533 Y153.901 E4.48083
G1 X114.889 Y153.725 E4.49404
G1 X115.142 Y153.616 E4.5032
G1 X115.511 Y153.48 E4.51628
G1 X115.77 Y153.4 E4.5253
G1 X116.14 Y153.306 E4.53799
G1 X116.418 Y153.251 E4.54742
G1 X116.823 Y153.194 E4.56102
G1 X117.099 Y153.17 E4.57024
G1 X117.49 Y153.157 E4.58325
G1 X117.77 Y153.163 E4.59256
G1 X118.157 Y153.192 E4.60547
G1 X118.431 Y153.227 E4.61466
G1 X118.83 Y153.3 E4.62815
G1 X119.093 Y153.363 E4.63714
G1 X119.465 Y153.472 E4.65004
G1 X119.731 Y153.566 E4.65942
G1 X120.085 Y153.713 E4.67217
G1 X120.337 Y153.833 E4.68145
G1 X120.695 Y154.029 E4.69503
G1 X120.927 Y154.173 E4.70411
G1 X121.256 Y154.401 E4.71742
G1 X121.468 Y154.565 E4.72634
G1 X121.75 Y154.807 E4.7387
G1 X121.96 Y155.008 E4.74837
G1 X122.244 Y155.313 E4.76223
G1 X122.424 Y155.529 E4.77158
G1 X122.66 Y155.845 E4.7847
G1 X122.811 Y156.07 E4.79371
G1 X123.007 Y156.399 E4.80645
G1 X123.136 Y156.645 E4.81568
G1 X123.3 Y157.002 E4.82875
G1 X123.398 Y157.249 E4.83759
G1 X123.525 Y157.622 E4.8507
G1 X123.602 Y157.897 E4.86019
G1 X123.687 Y158.28 E4.87324
G1 X123.733 Y158.556 E4.88255
G1 X123.778 Y158.961 E4.8961
G1 X123.794 Y159.234 E4.9052
G1 X123.796 Y159.616 E4.9179
G1 X123.782 Y159.9 E4.92736
G1 X123.741 Y160.292 E4.94047
G1 X123.7 Y160.552 E4.94922
G1 X123.618 Y160.946 E4.96261
G1 X123.548 Y161.213 E4.97179
G1 X123.435 Y161.564 E4.98405
G1 X123.335 Y161.825 E4.99335
G1 X123.168 Y162.2 E5.007
G1 X123.039 Y162.452 E5.01642
G1 X122.84 Y162.793 E5.02955
G1 X122.69 Y163.022 E5.03866
G1 X122.455 Y163.342 E5.05186
G1 X122.278 Y163.558 E5.06115
G1 X122.011 Y163.85 E5.07431
G1 X121.814 Y164.043 E5.08348
G1 X121.521 Y164.302 E5.09649
G1 X121.302 Y164.475 E5.10577
G1 X120.976 Y164.706 E5.11906
G1 X120.749 Y164.85 E5.128
G1 X120.417 Y165.037 E5.14067
G1 X120.157 Y165.165 E5.15031
G1 X119.787 Y165.322 E5.16368
G1 X119.542 Y165.412 E5.17236
G1 X119.165 Y165.529 E5.18549
G1 X118.886 Y165.599 E5.19506
G1 X118.502 Y165.673 E5.20807
G1 X118.229 Y165.711 E5.21723
G1 X117.839 Y165.744 E5.23025
G1 X117.562 Y165.752 E5.23947
G1 X117.162 Y165.743 E5.25278
G1 X116.901 Y165.724 E5.26148
G1 X116.521 Y165.677 E5.27421
G1 X116.226 Y165.624 E5.28418
G1 X115.839 Y165.53 E5.29743
G1 X115.59 Y165.456 E5.30607
G1 X115.212 Y165.323 E5.3194
G1 X114.942 Y165.21 E5.32913
G1 X114.591 Y165.04 E5.3421
G1 X114.36 Y164.914 E5.35086
G1 X114.024 Y164.707 E5.36398
G1 X113.798 Y164.55 E5.37313
G1 X113.49 Y164.312 E5.38608
G1 X113.277 Y164.129 E5.39542
G1 X112.986 Y163.849 E5.40885
G1 X112.789 Y163.636 E5.4185
G1 X112.544 Y163.341 E5.43126
G1 X112.386 Y163.13 E5.44002
G1 X112.165 Y162.801 E5.45321
G1 X112.018 Y162.553 E5.46279
G1 X111.835 Y162.202 E5.47596
G1 X111.725 Y161.963 E5.48471
G1 X111.581 Y161.602 E5.49764
G1 X111.492 Y161.34 E5.50684
G1 X111.382 Y160.947 E5.52041
G1 X111.32 Y160.666 E5.52999
G1 X111.259 Y160.293 E5.54256
G1 X111.23 Y160.029 E5.55139
G1 X111.206 Y159.63 E5.56468
G1 X111.204 Y159.354 E5.57386
G1 X111.222 Y158.963 E5.58688
G1 X111.251 Y158.679 E5.59638
G1 X111.314 Y158.278 E5.60988
G1 X111.371 Y158.008 E5.61906
G1 X111.469 Y157.643 E5.63163
G1 X111.552 Y157.386 E5.64061
G1 X111.695 Y157.013 E5.6539
G1 X111.811 Y156.755 E5.6633
G1 X111.991 Y156.405 E5.67639
G1 X112.129 Y156.168 E5.68552
G1 X112.346 Y155.837 E5.69868
G1 X112.509 Y155.615 E5.70784
G1 X112.763 Y155.305 E5.72117
G1 X112.963 Y155.088 E5.73099
G1 X113.241 Y154.818 E5.74388
G1 X113.422 Y154.657 E5.75193
G1 X113.724 Y154.414 E5.76482
G0 F6000 X113.975 Y154.726
G1 F900 X114.183 Y154.577 E5.77333
G1 X114.514 Y154.369 E5.78634
G1 X114.71 Y154.26 E5.7938
G1 X115.066 Y154.084 E5.807
G1 X115.28 Y153.992 E5.81475
G1 X115.649 Y153.856 E5.82783
G1 X115.868 Y153.788 E5.83546
G1 X116.238 Y153.694 E5.84816
G1 X116.473 Y153.647 E5.85613
G1 X116.878 Y153.59 E5.86973
G1 X117.112 Y153.57 E5.87754
G1 X117.503 Y153.557 E5.89055
G1 X117.74 Y153.562 E5.89844
G1 X118.127 Y153.591 E5.91135
G1 X118.359 Y153.621 E5.91913
G1 X118.758 Y153.694 E5.93262
G1 X118.981 Y153.747 E5.94024
G1 X119.353 Y153.856 E5.95313
G1 X119.578 Y153.935 E5.96107
G1 X119.932 Y154.082 E5.97381
G1 X120.144 Y154.184 E5.98164
G1 X120.502 Y154.38 E5.99521
G1 X120.699 Y154.502 E6.00292
G1 X121.028 Y154.73 E6.01623
G1 X121.208 Y154.868 E6.02378
G1 X121.49 Y155.11 E6.03614
G1 X121.667 Y155.281 E6.04432
G1 X121.951 Y155.586 E6.05818
G1 X122.104 Y155.769 E6.06612
G1 X122.34 Y156.085 E6.07924
G1 X122.467 Y156.275 E6.08684
G1 X122.663 Y156.604 E6.09957
G1 X122.772 Y156.812 E6.10739
