;FLAVOR:Marlin
;TIME:849
;Filament used: 0.500085m
;Layer height: 0.16
;MINX:102.944
;MINY:145.835
;MINZ:0.2
;MAXX:132.039
;MAXY:174.866
;MAXZ:4.96
;Generated with Cura_SteamEngine 4.13.0
M140 S75
M105
M190 S75
M104 S245
M105
M109 S245
M82 ;absolute extrusion mode
; Ender 3 Custom Start G-code
G92 E0 ; Reset Extruder
G28 ; Home all axes
G1 Z2.0 F3000 ; Move Z Axis up little to prevent scratching of Heat Bed
G1 X0.1 Y20 Z0.3 F5000.0 ; Move to start position
G1 X0.1 Y200.0 Z0.3 F1500.0 E15 ; Draw the first line
G1 X0.4 Y200.0 Z0.3 F5000.0 ; Move to side a little
G1 X0.4 Y20 Z0.3 F1500.0 E30 ; Draw the second line
G92 E0 ; Reset Extruder
G1 Z2.0 F3000 ; Move Z Axis up little to prevent scratching of Heat Bed
G1 X5 Y20 Z0.3 F5000.0 ; Move over to prevent blob squish
G92 E0
G92 E0
G1 F1200 E-6
;LAYER_COUNT:26
;LAYER:0
M107
M204 S500
M205 X16 Y16
G0 F6000 X108.979 Y148.434 Z0.2
;TYPE:SKIRT
G1 F1200 E0
G1 F900 X109.441 Y148.133 E0.01834
G1 X109.774 Y147.969 E0.03069
G1 X109.994 Y147.874 E0.03866
G1 X110.514 Y147.693 E0.05697
G1 X111.055 Y147.589 E0.07529
G1 X111.605 Y147.564 E0.0936
G1 X111.708 Y147.574 E0.09705
G1 X111.757 Y147.504 E0.09989
G1 X112.282 Y146.975 E0.12468
G1 X112.357 Y146.913 E0.12791
G1 X112.806 Y146.594 E0.14623
G1 X113.296 Y146.343 E0.16454
G1 X113.898 Y146.145 E0.18562
G1 X114.524 Y145.996 E0.20702
G1 X115.068 Y145.908 E0.22535
G1 X115.404 Y145.893 E0.23654
G1 X115.644 Y145.893 E0.24452
G1 X116.194 Y145.933 E0.26286
G1 X116.732 Y146.052 E0.28119
G1 X117.247 Y146.248 E0.29952
G1 X117.39 Y146.302 E0.3046
G1 X118.03 Y146.036 E0.32765
G1 X118.123 Y146.007 E0.33089
G1 X118.659 Y145.882 E0.3492
G1 X119.208 Y145.835 E0.36753
G1 X119.96 Y145.901 E0.39263
G1 X120.595 Y146.021 E0.41413
G1 X121.127 Y146.162 E0.43243
G1 X121.474 Y146.302 E0.44488
G1 X121.694 Y146.403 E0.45293
G1 X122.177 Y146.668 E0.47125
G1 X122.616 Y147.001 E0.48958
G1 X123.003 Y147.393 E0.5079
G1 X123.063 Y147.475 E0.51128
G1 X123.139 Y147.465 E0.51383
G1 X123.841 Y147.494 E0.5372
G1 X123.938 Y147.507 E0.54045
G1 X124.477 Y147.619 E0.55876
G1 X124.995 Y147.809 E0.57711
G1 X125.594 Y148.147 E0.59999
G1 X126.125 Y148.514 E0.62146
G1 X126.554 Y148.859 E0.63977
G1 X126.813 Y149.125 E0.65212
G1 X126.971 Y149.304 E0.66006
G1 X127.305 Y149.743 E0.67841
G1 X127.571 Y150.225 E0.69672
G1 X127.766 Y150.74 E0.71503
G1 X127.788 Y150.843 E0.71853
G1 X127.849 Y150.861 E0.72065
G1 X128.443 Y151.148 E0.74259
G1 X128.527 Y151.198 E0.74584
G1 X128.978 Y151.513 E0.76414
G1 X129.38 Y151.891 E0.78249
G1 X129.829 Y152.487 E0.80731
G1 X130.162 Y153.034 E0.82861
G1 X130.413 Y153.524 E0.84692
G1 X130.539 Y153.864 E0.85898
G1 X130.613 Y154.098 E0.86715
G1 X130.741 Y154.634 E0.88547
G1 X130.79 Y155.183 E0.90381
G1 X130.758 Y155.733 E0.92213
G1 X130.735 Y155.845 E0.92593
G1 X130.807 Y155.908 E0.92912
G1 X131.256 Y156.455 E0.95265
G1 X131.31 Y156.535 E0.95586
G1 X131.584 Y157.013 E0.97419
G1 X131.786 Y157.525 E0.9925
G1 X131.93 Y158.184 E1.01493
G1 X132.01 Y158.816 E1.03612
G1 X132.039 Y159.366 E1.05444
G1 X132.022 Y159.658 E1.06417
G1 X131.998 Y159.907 E1.07249
G1 X131.906 Y160.45 E1.0908
G1 X131.736 Y160.974 E1.10913
G1 X131.492 Y161.468 E1.12745
G1 X131.408 Y161.632 E1.13358
G1 X131.616 Y162.355 E1.1586
G1 X131.634 Y162.453 E1.16192
G1 X131.694 Y163 E1.18022
G1 X131.675 Y163.551 E1.19856
G1 X131.537 Y164.231 E1.22163
G1 X131.351 Y164.851 E1.24316
G1 X131.155 Y165.366 E1.26149
G1 X130.978 Y165.7 E1.27406
G1 X130.855 Y165.907 E1.28207
G1 X130.54 Y166.359 E1.3004
G1 X130.163 Y166.761 E1.31873
G1 X129.731 Y167.104 E1.33707
G1 X129.649 Y167.151 E1.34022
G1 X129.651 Y167.231 E1.34288
G1 X129.53 Y167.997 E1.36867
G1 X129.506 Y168.088 E1.3718
G1 X129.328 Y168.609 E1.39011
G1 X129.075 Y169.099 E1.40846
G1 X128.729 Y169.578 E1.42811
G1 X128.324 Y170.055 E1.44892
G1 X127.938 Y170.449 E1.46727
G1 X127.665 Y170.667 E1.47889
G1 X127.455 Y170.82 E1.48753
G1 X126.987 Y171.112 E1.50587
G1 X126.482 Y171.332 E1.5242
G1 X125.951 Y171.478 E1.54251
G1 X125.775 Y171.499 E1.54841
G1 X125.699 Y171.675 E1.55478
G1 X125.41 Y172.144 E1.57311
G1 X125.056 Y172.566 E1.59143
G1 X124.644 Y172.932 E1.60976
G1 X123.954 Y173.354 E1.63666
G1 X123.381 Y173.625 E1.65774
G1 X122.867 Y173.824 E1.67607
G1 X122.564 Y173.903 E1.68649
G1 X122.316 Y173.957 E1.69493
G1 X121.771 Y174.035 E1.71324
G1 X121.22 Y174.033 E1.73157
G1 X120.675 Y173.952 E1.74989
G1 X120.522 Y173.905 E1.75522
G1 X120.481 Y173.944 E1.7571
G1 X119.911 Y174.33 E1.77999
G1 X119.824 Y174.378 E1.7833
G1 X119.323 Y174.609 E1.80165
G1 X118.795 Y174.764 E1.81995
G1 X118.083 Y174.85 E1.8438
G1 X117.445 Y174.866 E1.86503
G1 X116.895 Y174.84 E1.88334
G1 X116.537 Y174.779 E1.89542
G1 X116.295 Y174.726 E1.90366
G1 X115.767 Y174.569 E1.92198
G1 X115.267 Y174.338 E1.9403
G1 X114.805 Y174.037 E1.95864
G1 X114.715 Y173.958 E1.96263
G1 X114.661 Y173.977 E1.96453
G1 X113.973 Y174.098 E1.98776
G1 X113.876 Y174.106 E1.991
G1 X113.325 Y174.111 E2.00933
G1 X112.779 Y174.037 E2.02765
G1 X112.097 Y173.824 E2.05142
G1 X111.507 Y173.577 E2.07269
G1 X111.015 Y173.328 E2.09103
G1 X110.757 Y173.158 E2.10131
G1 X110.558 Y173.015 E2.10946
G1 X110.135 Y172.662 E2.12778
G1 X109.767 Y172.251 E2.14613
G1 X109.463 Y171.792 E2.16444
G1 X109.394 Y171.645 E2.16984
G1 X109.323 Y171.639 E2.17221
G1 X108.603 Y171.453 E2.19695
G1 X108.513 Y171.42 E2.20014
G1 X108.011 Y171.193 E2.21846
G1 X107.546 Y170.896 E2.23681
G1 X107.061 Y170.463 E2.25844
G1 X106.623 Y170 E2.27963
G1 X106.274 Y169.574 E2.29795
G1 X106.094 Y169.292 E2.30908
G1 X105.969 Y169.076 E2.31738
G1 X105.728 Y168.581 E2.33569
G1 X105.562 Y168.055 E2.35404
G1 X105.473 Y167.512 E2.37234
G1 X105.47 Y167.335 E2.37822
G1 X105.294 Y167.235 E2.38496
G1 X104.859 Y166.896 E2.4033
G1 X104.477 Y166.499 E2.42162
G1 X104.157 Y166.05 E2.43996
G1 X103.818 Y165.333 E2.46634
G1 X103.607 Y164.732 E2.48753
G1 X103.462 Y164.2 E2.50587
G1 X103.412 Y163.866 E2.5171
G1 X103.386 Y163.616 E2.52546
G1 X103.369 Y163.065 E2.54379
G1 X103.432 Y162.518 E2.56211
G1 X103.573 Y161.985 E2.58045
G1 X103.639 Y161.831 E2.58602
G1 X103.515 Y161.662 E2.59299
G1 X103.256 Y161.176 E2.61131
G1 X103.071 Y160.657 E2.62963
G1 X102.962 Y160.117 E2.64795
G1 X102.944 Y159.341 E2.67377
G1 X102.994 Y158.708 E2.69489
G1 X103.077 Y158.163 E2.71323
G1 X103.162 Y157.851 E2.72398
G1 X103.238 Y157.613 E2.73229
G1 X103.443 Y157.102 E2.7506
G1 X103.72 Y156.625 E2.76895
G1 X104.063 Y156.194 E2.78727
G1 X104.172 Y156.055 E2.79315
G1 X104.119 Y155.337 E2.81709
G1 X104.121 Y155.241 E2.82029
G1 X104.172 Y154.692 E2.83862
G1 X104.302 Y154.157 E2.85694
G1 X104.582 Y153.504 E2.88057
G1 X104.892 Y152.934 E2.90215
G1 X105.189 Y152.471 E2.92044
G1 X105.42 Y152.192 E2.93249
G1 X105.583 Y152.013 E2.94054
G1 X105.983 Y151.633 E2.95889
G1 X106.433 Y151.315 E2.97722
G1 X106.925 Y151.066 E2.99556
G1 X107.04 Y151.027 E2.9996
G1 X107.054 Y150.956 E3.00201
G1 X107.288 Y150.316 E3.02467
G1 X107.329 Y150.229 E3.02787
G1 X107.599 Y149.749 E3.04619
G1 X107.936 Y149.313 E3.06452
G1 X108.465 Y148.825 E3.08845
G1 X108.979 Y148.434 E3.10993
G0 F6000 X109.222 Y148.752
G1 F900 X109.659 Y148.469 E3.12725
G1 X109.932 Y148.337 E3.13734
G1 X110.152 Y148.242 E3.14531
G1 X110.645 Y148.072 E3.16265
G1 X111.158 Y147.98 E3.17998
G1 X111.679 Y147.968 E3.19732
G1 X111.899 Y147.997 E3.2047
G1 X112.103 Y147.713 E3.21633
G1 X112.537 Y147.283 E3.23665
G1 X112.612 Y147.221 E3.23989
G1 X113.038 Y146.921 E3.25722
G1 X113.504 Y146.69 E3.27451
G1 X113.991 Y146.534 E3.29152
G1 X114.617 Y146.385 E3.31293
G1 X115.131 Y146.304 E3.33023
G1 X115.404 Y146.293 E3.33932
G1 X115.644 Y146.293 E3.3473
G1 X116.164 Y146.333 E3.36465
G1 X116.671 Y146.452 E3.38197
G1 X117.154 Y146.647 E3.39929
G1 X117.379 Y146.78 E3.40799
G1 X117.627 Y146.63 E3.41763
G1 X118.149 Y146.418 E3.43637
G1 X118.242 Y146.389 E3.43961
G1 X118.75 Y146.273 E3.45694
G1 X119.27 Y146.235 E3.47428
G1 X119.885 Y146.294 E3.49483
G1 X120.52 Y146.414 E3.51632
G1 X121.024 Y146.55 E3.53368
G1 X121.308 Y146.665 E3.54387
G1 X121.528 Y146.766 E3.55193
G1 X121.983 Y147.019 E3.56924
G1 X122.395 Y147.339 E3.58659
G1 X122.752 Y147.718 E3.60391
G1 X122.878 Y147.9 E3.61127
G1 X123.216 Y147.862 E3.62259
G1 X123.788 Y147.89 E3.64163
G1 X123.885 Y147.903 E3.64489
G1 X124.394 Y148.012 E3.6622
G1 X124.881 Y148.197 E3.67953
G1 X125.366 Y148.476 E3.69814
G1 X125.897 Y148.843 E3.71961
G1 X126.302 Y149.171 E3.73694
G1 X126.513 Y149.39 E3.74706
G1 X126.671 Y149.569 E3.755
G1 X126.985 Y149.985 E3.77233
G1 X127.232 Y150.444 E3.78967
G1 X127.405 Y150.935 E3.80698
G1 X127.447 Y151.158 E3.81453
G1 X127.76 Y151.255 E3.82543
G1 X128.238 Y151.491 E3.84316
G1 X128.322 Y151.541 E3.84641
G1 X128.748 Y151.842 E3.86376
G1 X129.123 Y152.203 E3.88107
G1 X129.487 Y152.695 E3.90143
G1 X129.82 Y153.242 E3.92273
G1 X130.056 Y153.707 E3.94007
G1 X130.158 Y153.985 E3.94992
G1 X130.232 Y154.219 E3.95808
G1 X130.35 Y154.726 E3.9754
G1 X130.39 Y155.246 E3.99274
G1 X130.35 Y155.766 E4.01009
G1 X130.297 Y155.992 E4.01781
G1 X130.562 Y156.23 E4.02966
G1 X130.924 Y156.679 E4.04884
G1 X130.978 Y156.759 E4.05205
G1 X131.236 Y157.212 E4.06939
G1 X131.421 Y157.699 E4.08672
G1 X131.533 Y158.234 E4.1049
G1 X131.613 Y158.866 E4.12608
G1 X131.624 Y159.619 E4.15113
G1 X131.6 Y159.868 E4.15945
G1 X131.511 Y160.382 E4.1768
G1 X131.344 Y160.875 E4.19411
G1 X131.103 Y161.338 E4.21148
G1 X130.933 Y161.57 E4.22104
G1 X131.057 Y161.833 E4.23071
G1 X131.223 Y162.427 E4.25123
G1 X131.241 Y162.525 E4.25454
G1 X131.296 Y163.043 E4.27187
G1 X131.27 Y163.564 E4.28922
G1 X131.154 Y164.116 E4.30798
G1 X130.968 Y164.736 E4.32951
G1 X130.78 Y165.222 E4.34684
G1 X130.634 Y165.496 E4.35716
G1 X130.511 Y165.703 E4.36517
G1 X130.211 Y166.129 E4.3825
G1 X129.85 Y166.505 E4.39984
G1 X129.435 Y166.82 E4.41717
G1 X129.245 Y166.923 E4.42436
G1 X129.248 Y167.266 E4.43576
G1 X129.144 Y167.895 E4.45697
G1 X129.12 Y167.986 E4.4601
G1 X128.948 Y168.478 E4.47743
G1 X128.704 Y168.939 E4.49478
G1 X128.424 Y169.32 E4.51051
G1 X128.019 Y169.797 E4.53132
G1 X127.652 Y170.167 E4.54865
G1 X127.429 Y170.344 E4.55812
G1 X127.219 Y170.497 E4.56677
G1 X126.776 Y170.771 E4.58409
G1 X126.296 Y170.973 E4.60141
G1 X125.79 Y171.1 E4.61876
G1 X125.501 Y171.127 E4.62842
G1 X125.331 Y171.515 E4.64251
G1 X125.052 Y171.955 E4.65983
G1 X124.709 Y172.347 E4.67716
G1 X124.31 Y172.682 E4.69449
G1 X123.783 Y172.993 E4.71484
G1 X123.21 Y173.264 E4.73592
G1 X122.479 Y173.512 E4.7616
G1 X122.231 Y173.566 E4.77004
G1 X121.715 Y173.638 E4.78737
G1 X121.194 Y173.629 E4.8047
G1 X120.68 Y173.542 E4.82204
G1 X120.418 Y173.454 E4.83123
G1 X120.184 Y173.67 E4.84182
G1 X119.717 Y173.98 E4.86046
G1 X119.63 Y174.028 E4.86377
G1 X119.156 Y174.244 E4.88109
G1 X118.654 Y174.385 E4.89844
G1 X118.073 Y174.45 E4.91788
G1 X117.435 Y174.466 E4.93911
G1 X116.915 Y174.439 E4.95643
G1 X116.623 Y174.388 E4.96629
G1 X116.381 Y174.335 E4.97453
G1 X115.882 Y174.185 E4.99186
G1 X115.411 Y173.96 E5.00922
G1 X114.981 Y173.666 E5.02654
G1 X114.807 Y173.503 E5.03447
G1 X114.501 Y173.606 E5.04521
G1 X113.94 Y173.699 E5.06412
G1 X113.843 Y173.707 E5.06736
G1 X113.322 Y173.71 E5.08469
G1 X112.807 Y173.634 E5.102
G1 X112.251 Y173.455 E5.12143
G1 X111.661 Y173.208 E5.14271
G1 X110.99 Y172.833 E5.16827
G1 X110.791 Y172.69 E5.17642
G1 X110.392 Y172.354 E5.19377
G1 X110.05 Y171.962 E5.21107
G1 X109.771 Y171.521 E5.22843
G1 X109.66 Y171.266 E5.23768
G1 X109.329 Y171.235 E5.24874
G1 X108.741 Y171.077 E5.26899
G1 X108.651 Y171.044 E5.27218
G1 X108.176 Y170.828 E5.28953
G1 X107.741 Y170.542 E5.30685
G1 X107.351 Y170.189 E5.32434
G1 X106.913 Y169.726 E5.34554
G1 X106.585 Y169.321 E5.36288
G1 X106.44 Y169.092 E5.37189
G1 X106.315 Y168.876 E5.38019
G1 X106.09 Y168.406 E5.39752
G1 X105.938 Y167.908 E5.41484
G1 X105.865 Y167.392 E5.43217
G1 X105.868 Y167.102 E5.44182
G1 X105.492 Y166.886 E5.45624
G1 X105.085 Y166.561 E5.47357
G1 X104.732 Y166.178 E5.49089
G1 X104.442 Y165.745 E5.50822
G1 X104.195 Y165.2 E5.52812
G1 X103.984 Y164.599 E5.54931
G1 X103.85 Y164.096 E5.56662
G1 X103.81 Y163.825 E5.57573
G1 X103.784 Y163.575 E5.58409
G1 X103.77 Y163.054 E5.60143
G1 X103.836 Y162.537 E5.61876
G1 X103.98 Y162.036 E5.6361
G1 X104.098 Y161.781 E5.64545
G1 X103.839 Y161.426 E5.66006
G1 X103.6 Y160.962 E5.67742
G1 X103.434 Y160.468 E5.69476
G1 X103.347 Y159.955 E5.71206
G1 X103.343 Y159.372 E5.73145
G1 X103.393 Y158.739 E5.75257
G1 X103.473 Y158.224 E5.76991
G1 X103.543 Y157.973 E5.77857
G1 X103.619 Y157.735 E5.78688
G1 X103.815 Y157.252 E5.80422
G1 X104.083 Y156.805 E5.82155
G1 X104.416 Y156.404 E5.83889
G1 X104.624 Y156.219 E5.84815
G1 X104.557 Y155.932 E5.85795
G1 X104.519 Y155.345 E5.87752
G1 X104.521 Y155.249 E5.88071
G1 X104.571 Y154.731 E5.89802
G1 X104.701 Y154.226 E5.91536
G1 X104.933 Y153.696 E5.93461
G1 X105.243 Y153.126 E5.95619
G1 X105.527 Y152.688 E5.97355
G1 X105.716 Y152.461 E5.98337
G1 X105.879 Y152.282 E5.99143
G1 X106.258 Y151.925 E6.00874
G1 X106.688 Y151.629 E6.02611
G1 X107.158 Y151.403 E6.04345
G1 X107.388 Y151.333 E6.05145
G1 X107.455 Y151.005 E6.06258
G1 X107.649 Y150.487 E6.08098
G1 X107.69 Y150.4 E6.08418
G1 X107.948 Y149.947 E6.10152
G1 X108.272 Y149.538 E6.11887
G1 X108.708 Y149.143 E6.13844
G1 X109.222 Y148.752 E6.15992
G0 F6000 X109.464 Y149.07
G1 F900 X110.091 Y148.704 E6.18407
G1 X110.311 Y148.609 E6.19204
G1 X110.774 Y148.452 E6.2083
G1 X111.257 Y148.373 E6.22458
G1 X111.747 Y148.373 E6.24087
G1 X112.098 Y148.431 E6.25271
G1 X112.156 Y148.319 E6.2569
G1 X112.448 Y147.926 E6.27319
G1 X112.792 Y147.592 E6.28913
G1 X112.867 Y147.53 E6.29237
G1 X113.268 Y147.25 E6.30864
G1 X113.71 Y147.039 E6.32493
G1 X114.083 Y146.924 E6.33791
G1 X114.709 Y146.775 E6.35931
G1 X115.404 Y146.693 E6.38259
G1 X115.644 Y146.693 E6.39057
G1 X116.132 Y146.733 E6.40685
G1 X116.607 Y146.852 E6.42314
G1 X117.056 Y147.046 E6.43941
G1 X117.381 Y147.255 E6.45226
G1 X117.438 Y147.208 E6.45472
G1 X117.861 Y146.96 E6.47103
G1 X118.268 Y146.8 E6.48557
G1 X118.361 Y146.771 E6.48881
G1 X118.839 Y146.664 E6.5051
G1 X119.327 Y146.636 E6.52136
G1 X119.811 Y146.687 E6.53755
G1 X120.446 Y146.807 E6.55904
G1 X121.141 Y147.029 E6.58331
G1 X121.361 Y147.13 E6.59136
G1 X121.787 Y147.369 E6.60761
G1 X122.169 Y147.675 E6.62389
G1 X122.497 Y148.04 E6.64021
G1 X122.688 Y148.339 E6.65201
G1 X122.803 Y148.308 E6.65597
G1 X123.29 Y148.26 E6.67225
G1 X123.734 Y148.287 E6.68704
G1 X123.831 Y148.3 E6.6903
G1 X124.31 Y148.404 E6.7066
G1 X124.765 Y148.585 E6.72289
G1 X125.139 Y148.805 E6.73732
G1 X125.67 Y149.172 E6.75879
G1 X126.213 Y149.655 E6.78296
G1 X126.371 Y149.834 E6.7909
G1 X126.664 Y150.226 E6.80718
G1 X126.889 Y150.66 E6.82344
G1 X127.041 Y151.126 E6.83974
G1 X127.095 Y151.479 E6.85162
G1 X127.202 Y151.496 E6.85522
G1 X127.667 Y151.65 E6.87151
G1 X128.033 Y151.835 E6.88515
G1 X128.117 Y151.885 E6.8884
G1 X128.516 Y152.169 E6.90469
G1 X128.864 Y152.514 E6.92099
G1 X129.146 Y152.903 E6.93697
G1 X129.479 Y153.45 E6.95827
G1 X129.776 Y154.105 E6.98219
G1 X129.85 Y154.339 E6.99035
G1 X129.959 Y154.817 E7.00666
G1 X129.989 Y155.305 E7.02292
G1 X129.939 Y155.792 E7.0392
G1 X129.843 Y156.145 E7.05137
G1 X129.954 Y156.218 E7.05579
G1 X130.314 Y156.55 E7.07208
G1 X130.593 Y156.903 E7.08704
G1 X130.647 Y156.983 E7.09025
G1 X130.886 Y157.409 E7.1065
G1 X131.054 Y157.869 E7.12279
G1 X131.136 Y158.284 E7.13686
G1 X131.216 Y158.916 E7.15805
G1 X131.226 Y159.581 E7.18017
G1 X131.202 Y159.83 E7.18849
G1 X131.116 Y160.312 E7.20477
G1 X130.952 Y160.773 E7.22105
G1 X130.715 Y161.201 E7.23732
G1 X130.461 Y161.524 E7.25098
G1 X130.502 Y161.585 E7.25343
G1 X130.704 Y162.031 E7.26971
G1 X130.83 Y162.499 E7.28583
G1 X130.848 Y162.597 E7.28915
G1 X130.896 Y163.084 E7.30542
G1 X130.866 Y163.573 E7.32172
G1 X130.77 Y164.001 E7.33631
G1 X130.584 Y164.621 E7.35784
G1 X130.29 Y165.291 E7.38217
G1 X130.167 Y165.498 E7.39018
G1 X129.884 Y165.897 E7.40645
G1 X129.539 Y166.245 E7.42275
G1 X129.142 Y166.532 E7.43904
G1 X128.829 Y166.688 E7.45067
G1 X128.848 Y166.808 E7.45472
G1 X128.844 Y167.298 E7.47101
G1 X128.757 Y167.793 E7.48773
G1 X128.733 Y167.884 E7.49086
G1 X128.57 Y168.346 E7.50715
G1 X128.334 Y168.774 E7.52341
G1 X128.119 Y169.061 E7.53534
G1 X127.714 Y169.538 E7.55615
