;FLAVOR:Marlin
;TIME:1114
;Filament used: 0.967329m
;Layer height: 0.16
;MINX:91.698
;MINY:130.516
;MINZ:0.24
;MAXX:143.304
;MAXY:182.158
;MAXZ:5.91
;Generated with Cura_SteamEngine 4.13.0
M140 S75
M105
M190 S75
M104 S245
M105
M109 S245
M82 ;absolute extrusion mode
; Ender 3 Custom Start G-code
G92 E0 ; Reset Extruder
G28 ; Home all axes
G1 Z2.0 F3000 ; Move Z Axis up little to prevent scratching of Heat Bed
G1 X0.1 Y20 Z0.3 F5000.0 ; Move to start position
G1 X0.1 Y200.0 Z0.3 F1500.0 E15 ; Draw the first line
G1 X0.4 Y200.0 Z0.3 F5000.0 ; Move to side a little
G1 X0.4 Y20 Z0.3 F1500.0 E30 ; Draw the second line
G92 E0 ; Reset Extruder
G1 Z2.0 F3000 ; Move Z Axis up little to prevent scratching of Heat Bed
G1 X5 Y20 Z0.3 F5000.0 ; Move over to prevent blob squish
G92 E0
G92 E0
G1 F1200 E-6
;LAYER_COUNT:26
;LAYER:-6
M107
M204 S500
M205 X16 Y16
G0 F12000 X102.617 Y136.387 Z0.24
;TYPE:SUPPORT-INTERFACE
G1 F1200 E0
G1 F1800 X103.26 Y135.918 E0.06353
G1 X103.843 Y135.519 E0.11992
G1 X103.901 Y135.48 E0.1255
G1 X104.505 Y135.1 E0.18246
G1 X104.643 Y135.019 E0.19524
G1 X105.489 Y134.557 E0.27218
G1 X105.633 Y134.485 E0.28503
G1 X106.472 Y134.102 E0.35865
G1 X106.599 Y134.05 E0.36961
G1 X107.456 Y133.733 E0.44255
G1 X108.076 Y133.531 E0.4946
G1 X108.067 Y133.5 E0.49718
G1 X108.393 Y133.376 E0.52502
G1 X109.146 Y133.009 E0.59189
G1 X109.322 Y132.931 E0.60725
G1 X110.16 Y132.597 E0.67926
G1 X110.326 Y132.538 E0.69333
G1 X111.167 Y132.271 E0.76376
G1 X111.326 Y132.226 E0.77695
G1 X112.096 Y132.037 E0.84024
G1 X112.658 Y131.917 E0.88611
G1 X113.341 Y131.788 E0.9416
G1 X113.672 Y131.738 E0.96832
G1 X114.606 Y131.628 E1.04339
G1 X114.759 Y131.616 E1.05564
G1 X115.668 Y131.576 E1.12827
G1 X115.832 Y131.575 E1.14136
G1 X116.751 Y131.603 E1.21475
G1 X116.983 Y131.621 E1.23333
G1 X117.803 Y131.639 E1.2988
G1 X118.771 Y131.584 E1.37619
G1 X118.954 Y131.581 E1.3908
G1 X119.855 Y131.595 E1.46274
G1 X120.009 Y131.604 E1.47505
G1 X120.919 Y131.685 E1.54798
G1 X121.065 Y131.703 E1.55972
G1 X121.813 Y131.818 E1.62013
G1 X122.32 Y131.912 E1.66129
G1 X122.427 Y131.934 E1.67001
G1 X123.412 Y132.166 E1.75079
G1 X123.701 Y132.233 E1.77447
G1 X123.762 Y132.253 E1.77959
G1 X124.506 Y132.476 E1.84159
G1 X124.66 Y132.528 E1.85457
G1 X125.478 Y132.841 E1.92448
G1 X125.677 Y132.925 E1.94172
G1 X126.462 Y133.293 E2.01093
G1 X126.616 Y133.372 E2.02475
G1 X127.271 Y133.65 E2.08154
G1 X128.13 Y133.949 E2.15415
G1 X128.301 Y134.016 E2.16881
G1 X129.138 Y134.378 E2.2416
G1 X129.253 Y134.433 E2.25178
G1 X130.089 Y134.869 E2.32704
G1 X130.194 Y134.927 E2.33662
G1 X130.833 Y135.314 E2.39625
G1 X131.492 Y135.74 E2.45889
G1 X132.247 Y136.277 E2.53285
G1 X132.324 Y136.336 E2.54059
G1 X133.074 Y136.946 E2.61776
G1 X133.198 Y137.055 E2.63094
G1 X133.858 Y137.678 E2.70339
G1 X133.986 Y137.808 E2.71795
G1 X134.581 Y138.457 E2.78823
G1 X134.707 Y138.604 E2.80369
G1 X135.205 Y139.114 E2.86059
G1 X135.909 Y139.741 E2.93584
G1 X136.015 Y139.842 E2.94753
G1 X136.643 Y140.491 E3.01962
G1 X136.756 Y140.617 E3.03313
G1 X137.336 Y141.309 E3.1052
G1 X137.442 Y141.444 E3.1189
G1 X137.885 Y142.051 E3.17889
G1 X138.175 Y142.47 E3.21956
G1 X138.238 Y142.565 E3.22866
G1 X138.674 Y143.25 E3.29348
G1 X138.823 Y143.492 E3.31616
G1 X139.27 Y144.31 E3.39057
G1 X139.364 Y144.498 E3.40735
G1 X139.713 Y145.264 E3.47455
G1 X139.798 Y145.47 E3.49233
G1 X140.103 Y146.295 E3.56255
G1 X140.311 Y146.929 E3.61581
G1 X140.341 Y146.918 E3.61836
G1 X140.457 Y147.226 E3.64463
G1 X140.826 Y147.981 E3.71171
G1 X140.9 Y148.147 E3.72622
G1 X141.238 Y148.995 E3.79909
G1 X141.297 Y149.161 E3.81315
G1 X141.561 Y149.991 E3.88268
G1 X141.611 Y150.17 E3.89751
G1 X141.782 Y150.869 E3.95495
G1 X141.809 Y150.985 E3.96446
G1 X141.915 Y151.477 E4.00464
G1 X142.091 Y152.463 E4.08459
G1 X142.11 Y152.602 E4.09579
G1 X142.209 Y153.48 E4.16632
G1 X142.223 Y153.66 E4.18073
G1 X142.259 Y154.567 E4.25319
G1 X142.26 Y154.726 E4.26588
G1 X142.229 Y155.638 E4.33872
G1 X142.181 Y156.326 E4.39377
G1 X142.205 Y156.326 E4.39569
G1 X142.196 Y156.65 E4.42156
G1 X142.251 Y157.613 E4.49856
G1 X142.254 Y157.783 E4.51213
G1 X142.24 Y158.69 E4.58454
G1 X142.232 Y158.838 E4.59637
G1 X142.15 Y159.754 E4.66978
G1 X142.132 Y159.9 E4.68152
G1 X142.019 Y160.637 E4.74104
G1 X141.947 Y161.031 E4.77301
G1 X141.889 Y161.277 E4.79319
G1 X141.706 Y162.144 E4.86392
G1 X141.642 Y162.401 E4.88506
G1 X141.378 Y163.291 E4.95917
G1 X141.331 Y163.431 E4.97095
G1 X141.005 Y164.294 E5.04459
G1 X140.955 Y164.414 E5.05497
G1 X140.567 Y165.252 E5.12869
G1 X140.461 Y165.46 E5.14732
G1 X140.181 Y166.114 E5.20411
G1 X139.873 Y166.999 E5.27891
G1 X139.825 Y167.124 E5.2896
G1 X139.463 Y167.959 E5.36225
G1 X139.382 Y168.13 E5.37735
G1 X138.971 Y168.915 E5.44808
G1 X138.898 Y169.046 E5.46005
G1 X138.526 Y169.659 E5.51729
G1 X138.093 Y170.33 E5.58104
G1 X137.682 Y170.909 E5.63771
G1 X137.507 Y171.149 E5.66142
G1 X136.889 Y171.909 E5.73962
G1 X136.78 Y172.033 E5.7528
G1 X136.159 Y172.691 E5.82502
G1 X136.03 Y172.818 E5.83947
G1 X135.378 Y173.416 E5.91009
G1 X135.231 Y173.542 E5.92554
G1 X134.721 Y174.04 E5.98244
G1 X134.103 Y174.734 E6.05662
G1 X133.982 Y174.86 E6.07057
G1 X133.344 Y175.478 E6.14147
G1 X133.218 Y175.591 E6.15498
G1 X132.534 Y176.165 E6.22626
G1 X132.395 Y176.274 E6.24036
G1 X131.84 Y176.68 E6.29525
G1 X131.389 Y176.993 E6.33907
G1 X131.305 Y177.049 E6.34713
G1 X130.511 Y177.558 E6.42242
G1 X130.303 Y177.679 E6.44162
G1 X129.556 Y178.091 E6.50972
G1 X129.413 Y178.163 E6.5225
G1 X128.602 Y178.537 E6.59379
G1 X128.441 Y178.603 E6.60768
G1 X127.58 Y178.925 E6.68106
G1 X126.964 Y179.128 E6.73283
G1 X126.972 Y179.151 E6.73478
G1 X126.614 Y179.29 E6.76543
G1 X125.835 Y179.669 E6.83458
G1 X125.688 Y179.735 E6.84745
G1 X124.841 Y180.073 E6.92024
G1 X124.674 Y180.132 E6.93438
G1 X123.833 Y180.399 E7.00481
G1 X123.674 Y180.444 E7.018
G1 X122.904 Y180.633 E7.08129
G1 X122.342 Y180.753 E7.12717
G1 X121.659 Y180.882 E7.18265
G1 X121.328 Y180.932 E7.20937
G1 X120.394 Y181.042 E7.28444
G1 X120.241 Y181.054 E7.29669
G1 X119.332 Y181.094 E7.36932
G1 X119.168 Y181.095 E7.38242
G1 X118.249 Y181.067 E7.45581
G1 X118.017 Y181.049 E7.47438
G1 X117.197 Y181.031 E7.53985
G1 X116.229 Y181.086 E7.61725
G1 X116.046 Y181.089 E7.63186
G1 X115.145 Y181.075 E7.70379
G1 X114.991 Y181.066 E7.7161
G1 X114.081 Y180.985 E7.78903
G1 X113.935 Y180.967 E7.80077
G1 X113.187 Y180.852 E7.86118
G1 X112.68 Y180.758 E7.90234
G1 X112.573 Y180.736 E7.91106
G1 X111.588 Y180.504 E7.99184
G1 X111.299 Y180.437 E8.01552
G1 X111.238 Y180.417 E8.02065
G1 X110.491 Y180.193 E8.0829
G1 X110.341 Y180.142 E8.09555
G1 X109.521 Y179.829 E8.16561
G1 X109.323 Y179.745 E8.18278
G1 X108.538 Y179.377 E8.25198
G1 X108.384 Y179.298 E8.2658
G1 X107.729 Y179.02 E8.3226
G1 X106.87 Y178.721 E8.3952
G1 X106.699 Y178.654 E8.40986
G1 X105.874 Y178.297 E8.48162
G1 X105.736 Y178.232 E8.4938
G1 X104.923 Y177.808 E8.56699
G1 X104.776 Y177.725 E8.58046
G1 X104.154 Y177.347 E8.63856
G1 X103.519 Y176.937 E8.6989
G1 X102.804 Y176.43 E8.76887
G1 X102.639 Y176.305 E8.78539
G1 X101.917 Y175.715 E8.85982
G1 X101.764 Y175.581 E8.87606
G1 X101.126 Y174.977 E8.94619
G1 X101 Y174.849 E8.96052
G1 X100.413 Y174.208 E9.0299
G1 X100.295 Y174.069 E9.04446
G1 X99.79 Y173.553 E9.10209
G1 X99.092 Y172.93 E9.17677
G1 X98.975 Y172.818 E9.1897
G1 X98.357 Y172.179 E9.26066
G1 X98.237 Y172.045 E9.27502
G1 X97.646 Y171.339 E9.34852
G1 X97.564 Y171.233 E9.35922
G1 X97.08 Y170.57 E9.42474
G1 X96.843 Y170.226 E9.45809
G1 X96.758 Y170.098 E9.47035
G1 X96.249 Y169.298 E9.54604
G1 X96.169 Y169.161 E9.5587
G1 X95.716 Y168.333 E9.63404
G1 X95.652 Y168.204 E9.64554
G1 X95.267 Y167.36 E9.71959
G1 X95.214 Y167.23 E9.7308
G1 X94.9 Y166.381 E9.80305
G1 X94.697 Y165.755 E9.85558
G1 X94.684 Y165.759 E9.85667
G1 X94.54 Y165.439 E9.88468
G1 X94.169 Y164.678 E9.95226
G1 X94.094 Y164.509 E9.96702
G1 X93.762 Y163.675 E10.03868
G1 X93.703 Y163.509 E10.05274
G1 X93.435 Y162.666 E10.12335
G1 X93.39 Y162.503 E10.13685
G1 X93.191 Y161.685 E10.20405
G1 X93.079 Y161.161 E10.24682
G1 X92.903 Y160.169 E10.32724
G1 X92.791 Y159.2 E10.40511
G1 X92.779 Y159.05 E10.41712
G1 X92.74 Y158.127 E10.49086
G1 X92.74 Y157.992 E10.50164
G1 X92.769 Y157.056 E10.57639
G1 X92.785 Y156.821 E10.59519
G1 X92.828 Y156.391 E10.62969
G1 X92.822 Y156.391 E10.63017
G1 X92.747 Y155.004 E10.74105
G1 X92.745 Y154.856 E10.75286
G1 X92.762 Y153.948 E10.82535
G1 X92.771 Y153.774 E10.83926
G1 X92.855 Y152.869 E10.91181
G1 X92.875 Y152.715 E10.92421
G1 X92.992 Y151.973 E10.98417
G1 X93.078 Y151.512 E11.02161
G1 X93.101 Y151.396 E11.03105
G1 X93.271 Y150.675 E11.09018
G1 X93.335 Y150.361 E11.11576
G1 X93.405 Y150.107 E11.13679
G1 X93.43 Y150.029 E11.14333
G1 X93.59 Y149.481 E11.1889
G1 X93.652 Y149.292 E11.20477
G1 X93.967 Y148.445 E11.27691
G1 X94.024 Y148.309 E11.28868
G1 X94.399 Y147.49 E11.36058
G1 X94.706 Y146.881 E11.41502
G1 X94.681 Y146.868 E11.41727
G1 X94.811 Y146.575 E11.44286
G1 X95.129 Y145.666 E11.51973
G1 X95.174 Y145.548 E11.52981
G1 X95.537 Y144.71 E11.60271
G1 X95.613 Y144.551 E11.61678
G1 X96.036 Y143.741 E11.68972
G1 X96.093 Y143.638 E11.69912
G1 X96.487 Y142.989 E11.75973
G1 X96.864 Y142.405 E11.81521
G1 X96.914 Y142.33 E11.82241
G1 X97.444 Y141.587 E11.89526
G1 X97.495 Y141.519 E11.90205
G1 X98.111 Y140.761 E11.98001
G1 X98.22 Y140.637 E11.99319
G1 X98.843 Y139.977 E12.06564
G1 X98.973 Y139.849 E12.0802
G1 X99.622 Y139.254 E12.15049
G1 X99.769 Y139.128 E12.16594
G1 X100.279 Y138.63 E12.22284
G1 X100.897 Y137.936 E12.29702
G1 X101.018 Y137.81 E12.31097
G1 X101.656 Y137.192 E12.38187
G1 X101.782 Y137.079 E12.39538
G1 X102.474 Y136.5 E12.4674
G1 X102.617 Y136.387 E12.48195
G1 X102.4 Y136.561
G1 X102.4 Y176.109 E15.63884
G0 F12000 X104 Y177.247
G1 F1800 X104 Y135.417 E18.97789
G0 F12000 X105.6 Y134.501
G1 F1800 X105.6 Y178.161 E22.46302
G0 F12000 X107.2 Y178.835
G1 F1800 X107.2 Y133.827 E26.05576
G0 F12000 X108.8 Y133.177
G1 F1800 X108.8 Y179.499 E29.75338
G0 F12000 X110.4 Y180.162
G1 F1800 X110.4 Y132.514 E33.55685
G0 F12000 X112 Y132.06
G1 F1800 X112 Y180.601 E37.4316
G0 F12000 X113.6 Y180.915
G1 F1800 X113.6 Y131.748 E41.35632
G0 F12000 X115.2 Y131.596
G1 F1800 X115.2 Y181.075 E45.30595
G0 F12000 X116.8 Y181.054
G1 F1800 X116.8 Y131.607 E49.25303
G0 F12000 X118.4 Y131.605
G1 F1800 X118.4 Y181.071 E53.20162
G0 F12000 X120 Y181.065
G1 F1800 X120 Y131.604 E57.14981
G0 F12000 X121.6 Y131.786
G1 F1800 X121.6 Y180.891 E61.06958
G0 F12000 X123.2 Y180.561
G1 F1800 X123.2 Y132.117 E64.93659
G0 F12000 X124.8 Y132.582
G1 F1800 X124.8 Y180.088 E68.72872
G0 F12000 X126.4 Y179.395
G1 F1800 X126.4 Y133.264 E72.4111
G0 F12000 X128 Y133.904
G1 F1800 X128 Y178.768 E75.99234
G0 F12000 X129.6 Y178.067
G1 F1800 X129.6 Y134.614 E79.46094
G0 F12000 X131.2 Y135.552
G1 F1800 X131.2 Y177.117 E82.77884
G0 F12000 X132.8 Y175.942
G1 F1800 X132.8 Y136.724 E85.90939
G0 F12000 X134.4 Y138.26
G1 F1800 X134.4 Y174.401 E88.79432
G0 F12000 X136 Y172.846
G1 F1800 X136 Y139.828 E91.42996
G0 F12000 X137.6 Y141.661
G1 F1800 X137.6 Y171.022 E93.77369
G0 F12000 X139.2 Y168.478
G1 F1800 X139.2 Y144.182 E95.7131
G0 F12000 X140.8 Y147.928
G1 F1800 X140.8 Y164.749 E97.05582
G1 F1200 E91.05582
G0 F12000 X141.767 Y165.195
G0 X140.336 Y168.6
G0 X139.42 Y170.237
G0 X138.266 Y171.896
G0 X136.923 Y173.432
G0 X133.91 Y176.4
G0 X131.135 Y178.549
G0 X128.823 Y179.597
G0 X125.019 Y181.138
G0 X123.136 Y181.671
G0 X121.469 Y181.987
G0 X119.365 Y182.158
G0 X114.914 Y182.127
G0 X113.016 Y181.902
G0 X110.926 Y181.435
G0 X109.119 Y180.815
G0 X105.264 Y179.186
G0 X103.588 Y178.249
G0 X101.979 Y177.141
G0 X101.078 Y176.348
G0 X100.234 Y175.588
G0 X100.8 Y174.63
G1 F1200 E97.05582
G1 F1800 X100.8 Y138.044 E99.97628
G0 F12000 X99.2 Y139.64
G1 F1800 X99.2 Y173.026 E102.64129
G0 F12000 X97.6 Y171.279
G1 F1800 X97.6 Y141.389 E105.02724
G0 F12000 X96 Y143.809
G1 F1800 X96 Y168.852 E107.02628
G0 F12000 X94.4 Y165.151
G1 F1800 X94.4 Y147.488 E108.43622
G1 F1200 E102.43622
G0 F12000 X93.432 Y147.045
G0 X92.65 Y148.933
G0 X92.237 Y150.49
G0 X92.15 Y150.886
G0 X91.798 Y152.744
G0 X92.8 Y153.461
G1 F1200 E108.43622
G1 F1800 X92.8 Y155.984 E108.63761
G0 F12000 X92.8 Y156.671
G1 F1800 X92.8 Y159.277 E108.84564
G1 F1200 E102.84564
G0 F300 X92.8 Y159.277 Z0.48
G0 F12000 X91.743 Y159.399
G0 X92.039 Y161.395
G0 X92.417 Y162.977
G0 X93.116 Y164.929
G0 X94.776 Y168.833
G0 X95.448 Y169.961
G0 X96.292 Y171.298
G0 X97.564 Y171.232
;TIME_ELAPSED:57.264766
;LAYER:-5
;TYPE:SUPPORT
G1 F1200 E108.84564
G1 F1800 X97.646 Y171.338 E108.85633
G1 X98.236 Y172.044 E108.92978
G1 X98.356 Y172.178 E108.94414
G1 X98.975 Y172.816 E109.01509
G1 X99.091 Y172.929 E109.02802
G1 X99.789 Y173.552 E109.1027
G1 X100.294 Y174.068 E109.16034
G1 X100.413 Y174.207 E109.17494
G1 X100.999 Y174.848 E109.24427
G1 X101.126 Y174.976 E109.25866
G1 X101.763 Y175.58 E109.32874
G1 X101.916 Y175.714 E109.34497
G1 X102.639 Y176.304 E109.41946
G1 X102.698 Y176.351 E109.42548
G1 X102.804 Y176.429 E109.43599
G1 X103.1 Y176.639 E109.46496
G1 X97.214 Y170.753 E110.12942
G1 X97.08 Y170.569 E110.14759
G1 X96.843 Y170.225 E110.18094
G1 X96.757 Y170.097 E110.19325
G1 X96.249 Y169.297 E110.26889
G1 X96.168 Y169.16 E110.2816
G1 X95.716 Y168.331 E110.35697
G1 X95.651 Y168.203 E110.36843
G1 X95.293 Y167.418 E110.4373
G1 X106.397 Y178.522 E111.69081
G1 X106.699 Y178.653 E111.71709
G1 X106.869 Y178.72 E111.73168
G1 X107.729 Y179.019 E111.80436
G1 X108.383 Y179.296 E111.86105
G1 X108.538 Y179.376 E111.87498
G1 X108.777 Y179.487 E111.89601
G1 X94.36 Y165.071 E113.52347
G1 X94.168 Y164.677 E113.55846
G1 X94.093 Y164.507 E113.57329
G1 X93.762 Y163.674 E113.64484
G1 X93.702 Y163.508 E113.65893
G1 X93.465 Y162.761 E113.72149
G1 X111.068 Y180.365 E115.70872
G1 X111.238 Y180.416 E115.72289
G1 X111.299 Y180.435 E115.72799
G1 X111.414 Y180.469 E115.73756
G1 X111.588 Y180.503 E115.75171
G1 X112.572 Y180.735 E115.83242
G1 X112.679 Y180.756 E115.84112
G1 X112.918 Y180.8 E115.86052
G1 X93.035 Y160.917 E118.10508
G1 X92.902 Y160.168 E118.16581
G1 X92.797 Y159.265 E118.23837
G1 X114.558 Y181.026 E120.69494
G1 X114.99 Y181.065 E120.72957
G1 X115.145 Y181.074 E120.74196
G1 X116.034 Y181.087 E120.81293
G1 X92.745 Y157.799 E123.44194
G1 X92.768 Y157.054 E123.50144
G1 X92.785 Y156.82 E123.52017
G1 X92.82 Y156.46 E123.54904
G1 X117.395 Y181.034 E126.32322
G1 X118.016 Y181.048 E126.3728
G1 X118.248 Y181.066 E126.39138
G1 X118.859 Y181.085 E126.44017
G1 X92.746 Y154.971 E129.38809
G1 X92.744 Y154.855 E129.39735
G1 X92.761 Y153.947 E129.46985
G1 X92.77 Y153.773 E129.48375
G1 X92.786 Y153.597 E129.49786
G1 X120.241 Y181.052 E132.59722
G1 X120.394 Y181.041 E132.60946
G1 X121.328 Y180.931 E132.68453
G1 X121.507 Y180.904 E132.69898
G1 X92.935 Y152.332 E135.92444
G1 X92.992 Y151.972 E135.95353
G1 X93.077 Y151.511 E135.99095
G1 X93.101 Y151.395 E136.00041
G1 X93.159 Y151.142 E136.02113
G1 X122.694 Y180.677 E139.35529
G1 X122.904 Y180.632 E139.37244
G1 X123.673 Y180.443 E139.43565
G1 X123.829 Y180.398 E139.44861
G1 X93.436 Y150.004 E142.87969
G1 X93.59 Y149.48 E142.92329
G1 X93.652 Y149.291 E142.93917
G1 X93.783 Y148.937 E142.9693
G1 X124.895 Y180.049 E146.48149
G1 X125.687 Y179.734 E146.54953
G1 X125.834 Y179.668 E146.56239
G1 X125.896 Y179.636 E146.56796
G1 X94.194 Y147.934 E150.14675
G1 X94.398 Y147.489 E150.18583
G1 X94.654 Y146.98 E150.23131
G1 X126.865 Y179.191 E153.86757
G1 X126.971 Y179.15 E153.87664
G1 X126.963 Y179.127 E153.87858
G1 X127.395 Y178.986 E153.91486
G1 X127.416 Y178.977 E153.91668
G1 X127.448 Y178.969 E153.91931
G1 X127.579 Y178.924 E153.93037
G1 X127.894 Y178.806 E153.95722
G1 X95.03 Y145.942 E157.66719
G1 X95.128 Y145.665 E157.69065
G1 X95.174 Y145.547 E157.70076
G1 X95.438 Y144.936 E157.75389
G1 X128.9 Y178.398 E161.53137
G1 X129.413 Y178.162 E161.57644
G1 X129.556 Y178.09 E161.58922
G1 X129.846 Y177.929 E161.6157
G1 X95.905 Y143.988 E165.44725
G1 X96.035 Y143.739 E165.46968
G1 X96.092 Y143.637 E165.479
G1 X96.423 Y143.092 E165.5299
G1 X130.74 Y177.409 E169.4039
G1 X131.305 Y177.048 E169.45742
G1 X131.389 Y176.992 E169.46548
G1 X131.594 Y176.849 E169.48543
G1 X96.981 Y142.235 E173.3929
G1 X97.444 Y141.586 E173.45654
