;FLAVOR:Marlin
;TIME:1245
;Filament used: 0.943507m
;Layer height: 0.16
;MINX:90.6
;MINY:143.199
;MINZ:0.2
;MAXX:144.4
;MAXY:187.993
;MAXZ:7.96
;Generated with Cura_SteamEngine 4.13.0
M140 S75
M105
M190 S75
M104 S245
M105
M109 S245
M82 ;absolute extrusion mode
; Ender 3 Custom Start G-code
G92 E0 ; Reset Extruder
G28 ; Home all axes
G1 Z2.0 F3000 ; Move Z Axis up little to prevent scratching of Heat Bed
G1 X0.1 Y20 Z0.3 F5000.0 ; Move to start position
G1 X0.1 Y200.0 Z0.3 F1500.0 E15 ; Draw the first line
G1 X0.4 Y200.0 Z0.3 F5000.0 ; Move to side a little
G1 X0.4 Y20 Z0.3 F1500.0 E30 ; Draw the second line
G92 E0 ; Reset Extruder
G1 Z2.0 F3000 ; Move Z Axis up little to prevent scratching of Heat Bed
G1 X5 Y20 Z0.3 F5000.0 ; Move over to prevent blob squish
G92 E0
G92 E0
G1 F1200 E-6
;LAYER_COUNT:49
;LAYER:0
M107
M204 S500
M205 X16 Y16
G0 F6000 X96.335 Y147.38 Z0.2
;TYPE:SKIRT
G1 F1200 E0
G1 F900 X96.878 Y147.041 E0.02129
G1 X97.1 Y146.911 E0.02985
G1 X97.929 Y146.472 E0.06105
G1 X98.464 Y146.234 E0.08052
G1 X98.624 Y146.168 E0.08628
G1 X99.506 Y145.848 E0.11749
G1 X100.004 Y145.703 E0.13474
G1 X100.48 Y145.577 E0.15111
G1 X101.019 Y145.449 E0.16954
G1 X103.617 Y144.899 E0.25787
G1 X106.039 Y144.316 E0.34072
G1 X108.296 Y143.7 E0.41854
G1 X108.857 Y143.555 E0.43781
G1 X109.775 Y143.359 E0.46903
G1 X110.705 Y143.242 E0.5002
G1 X111.293 Y143.21 E0.51979
G1 X111.536 Y143.203 E0.52788
G1 X112.014 Y143.199 E0.54378
G1 X112.561 Y143.207 E0.56197
G1 X112.866 Y143.216 E0.57212
G1 X113.624 Y143.248 E0.59735
G1 X116.269 Y143.323 E0.68536
G1 X118.756 Y143.323 E0.76808
G1 X121.325 Y143.25 E0.85356
G1 X121.817 Y143.226 E0.86994
G1 X122.518 Y143.203 E0.89327
G1 X123.015 Y143.199 E0.9098
G1 X123.557 Y143.207 E0.92783
G1 X124.494 Y143.261 E0.95905
G1 X125.081 Y143.336 E0.97873
G1 X126.331 Y143.603 E1.02124
G1 X127.344 Y143.882 E1.05619
G1 X129.83 Y144.528 E1.14162
G1 X133.042 Y145.255 E1.25115
G1 X134.1 Y145.473 E1.28708
G1 X134.595 Y145.587 E1.30398
G1 X134.705 Y145.615 E1.30775
G1 X135.993 Y146.028 E1.35274
G1 X136.39 Y146.183 E1.36691
G1 X137.248 Y146.561 E1.3981
G1 X137.908 Y146.915 E1.42301
G1 X138.309 Y147.156 E1.43857
G1 X138.496 Y147.274 E1.44592
G1 X139.267 Y147.808 E1.47712
G1 X139.771 Y148.213 E1.49862
G1 X139.97 Y148.383 E1.50733
G1 X140.656 Y149.022 E1.53851
G1 X141.125 Y149.528 E1.56146
G1 X141.272 Y149.697 E1.56891
G1 X141.856 Y150.43 E1.60008
G1 X142.216 Y150.954 E1.62122
G1 X142.443 Y151.306 E1.63515
G1 X142.918 Y152.116 E1.66638
G1 X143.377 Y153.096 E1.70238
G1 X143.468 Y153.318 E1.71036
G1 X143.786 Y154.2 E1.74154
G1 X143.957 Y154.805 E1.76245
G1 X144.03 Y155.095 E1.7724
G1 X144.273 Y156.376 E1.81576
G1 X144.286 Y156.477 E1.81915
G1 X144.355 Y157.204 E1.84344
G1 X144.369 Y157.431 E1.851
G1 X144.384 Y157.744 E1.86143
G1 X144.395 Y158.162 E1.87533
G1 X144.4 Y158.635 E1.89107
G1 X144.399 Y172.505 E2.35239
G1 X144.389 Y173.243 E2.37693
G1 X144.374 Y173.701 E2.39217
G1 X144.343 Y174.145 E2.40698
G1 X144.325 Y174.349 E2.41379
G1 X144.173 Y175.446 E2.45062
G1 X144.156 Y175.535 E2.45364
G1 X144.007 Y176.201 E2.47634
G1 X143.955 Y176.404 E2.48331
G1 X143.608 Y177.51 E2.52186
G1 X143.576 Y177.596 E2.52491
G1 X143.383 Y178.08 E2.54224
G1 X143.301 Y178.272 E2.54919
G1 X142.896 Y179.118 E2.58038
G1 X142.617 Y179.611 E2.59922
G1 X142.512 Y179.786 E2.60601
G1 X141.996 Y180.569 E2.6372
G1 X141.605 Y181.078 E2.65855
G1 X141.34 Y181.403 E2.6725
G1 X140.717 Y182.104 E2.70369
G1 X140.223 Y182.583 E2.72658
G1 X139.792 Y182.96 E2.74562
G1 X139.622 Y183.101 E2.75297
G1 X138.876 Y183.668 E2.78413
G1 X138.252 Y184.071 E2.80884
G1 X138.075 Y184.177 E2.8157
G1 X136.849 Y184.81 E2.86159
G1 X136.485 Y184.97 E2.87482
G1 X135.612 Y185.311 E2.90599
G1 X134.953 Y185.512 E2.9289
G1 X134.379 Y185.656 E2.94859
G1 X133.853 Y185.772 E2.9665
G1 X131.631 Y186.236 E3.042
G1 X129.237 Y186.805 E3.12384
G1 X126.819 Y187.462 E3.20718
G1 X126.152 Y187.635 E3.2301
G1 X125.235 Y187.831 E3.26129
G1 X124.304 Y187.949 E3.2925
G1 X123.707 Y187.982 E3.31239
G1 X123.464 Y187.989 E3.32047
G1 X122.986 Y187.993 E3.33637
G1 X122.439 Y187.985 E3.35457
G1 X122.134 Y187.976 E3.36472
G1 X121.376 Y187.944 E3.38995
G1 X118.731 Y187.869 E3.47796
G1 X116.244 Y187.869 E3.56068
G1 X113.675 Y187.942 E3.64616
G1 X113.183 Y187.966 E3.66254
G1 X112.482 Y187.989 E3.68587
G1 X111.984 Y187.993 E3.70243
G1 X111.445 Y187.985 E3.72036
G1 X110.031 Y187.872 E3.76754
G1 X108.666 Y187.588 E3.81391
G1 X107.724 Y187.329 E3.84641
G1 X105.168 Y186.665 E3.93424
G1 X102.735 Y186.104 E4.01729
G1 X102.518 Y186.06 E4.02465
G1 X100.549 Y185.631 E4.09168
G1 X99.642 Y185.392 E4.12287
G1 X98.764 Y185.079 E4.15388
G1 X98.596 Y185.011 E4.1599
G1 X97.742 Y184.623 E4.1911
G1 X97.161 Y184.305 E4.21313
G1 X96.801 Y184.094 E4.22701
G1 X96.013 Y183.586 E4.25819
G1 X95.466 Y183.173 E4.28099
G1 X95.112 Y182.878 E4.29632
G1 X94.953 Y182.74 E4.30332
G1 X94.271 Y182.096 E4.33452
G1 X93.8 Y181.579 E4.35778
G1 X93.665 Y181.421 E4.36469
G1 X93.087 Y180.682 E4.3959
G1 X92.784 Y180.237 E4.4138
G1 X92.557 Y179.885 E4.42773
G1 X92.082 Y179.075 E4.45896
G1 X91.623 Y178.095 E4.49496
G1 X91.532 Y177.873 E4.50294
G1 X91.152 Y176.789 E4.54114
G1 X91.121 Y176.683 E4.54482
G1 X90.959 Y176.061 E4.56619
G1 X90.913 Y175.861 E4.57302
G1 X90.697 Y174.581 E4.61619
G1 X90.688 Y174.498 E4.61897
G1 X90.646 Y174.001 E4.63556
G1 X90.631 Y173.762 E4.64352
G1 X90.616 Y173.463 E4.65348
G1 X90.603 Y173.005 E4.66872
G1 X90.6 Y172.678 E4.6796
G1 X90.601 Y158.648 E5.14624
G1 X90.611 Y157.941 E5.16975
G1 X90.642 Y157.259 E5.19246
G1 X90.664 Y156.971 E5.20207
G1 X90.775 Y156.04 E5.23325
G1 X90.927 Y155.279 E5.25906
G1 X90.996 Y154.987 E5.26904
G1 X91.25 Y154.085 E5.30021
G1 X91.546 Y153.289 E5.32846
G1 X91.663 Y153.008 E5.33858
G1 X92.06 Y152.158 E5.36978
G1 X92.371 Y151.6 E5.39103
G1 X92.476 Y151.424 E5.39785
G1 X92.991 Y150.64 E5.42905
G1 X93.401 Y150.105 E5.45146
G1 X93.663 Y149.784 E5.46525
G1 X94.287 Y149.083 E5.49646
G1 X95.047 Y148.37 E5.53112
G1 X95.251 Y148.196 E5.54004
G1 X96.287 Y147.412 E5.58325
G1 X96.335 Y147.38 E5.58517
G0 F6000 X96.557 Y147.713
G1 F900 X97.081 Y147.386 E5.60571
G1 X97.303 Y147.256 E5.61427
G1 X98.117 Y146.826 E5.64489
G1 X98.617 Y146.604 E5.66308
G1 X98.777 Y146.538 E5.66884
G1 X99.642 Y146.224 E5.69945
G1 X100.107 Y146.09 E5.71554
G1 X100.583 Y145.964 E5.73192
G1 X101.101 Y145.84 E5.74964
G1 X103.73 Y145.284 E5.83901
G1 X106.141 Y144.702 E5.9215
G1 X108.396 Y144.087 E5.99924
G1 X108.957 Y143.942 E6.01852
G1 X109.858 Y143.751 E6.04915
G1 X110.772 Y143.638 E6.07978
G1 X111.305 Y143.609 E6.09753
G1 X111.548 Y143.602 E6.10562
G1 X112.008 Y143.599 E6.12092
G1 X112.555 Y143.607 E6.13912
G1 X112.849 Y143.616 E6.1489
G1 X113.595 Y143.648 E6.17373
G1 X116.258 Y143.723 E6.26234
G1 X118.767 Y143.723 E6.34579
G1 X121.357 Y143.65 E6.43197
G1 X121.837 Y143.626 E6.44795
G1 X122.53 Y143.603 E6.47101
G1 X123.009 Y143.599 E6.48695
G1 X123.551 Y143.607 E6.50498
G1 X124.471 Y143.661 E6.53563
G1 X125.02 Y143.731 E6.55404
G1 X126.224 Y143.989 E6.59499
G1 X127.202 Y144.259 E6.62874
G1 X129.738 Y144.917 E6.71588
G1 X132.96 Y145.647 E6.82576
G1 X134.02 Y145.865 E6.86175
G1 X134.497 Y145.975 E6.87803
G1 X134.607 Y146.003 E6.88181
G1 X135.847 Y146.401 E6.92512
G1 X136.244 Y146.556 E6.9393
G1 X137.086 Y146.928 E6.96991
G1 X137.707 Y147.261 E6.99335
G1 X138.096 Y147.495 E7.00845
G1 X138.283 Y147.613 E7.0158
G1 X139.039 Y148.137 E7.0464
G1 X139.511 Y148.517 E7.06655
G1 X139.71 Y148.687 E7.07526
G1 X140.383 Y149.315 E7.10587
G1 X140.823 Y149.79 E7.12741
G1 X140.97 Y149.959 E7.13486
G1 X141.543 Y150.68 E7.16549
G1 X141.88 Y151.171 E7.1853
G1 X142.107 Y151.523 E7.19923
G1 X142.572 Y152.318 E7.22986
G1 X143.007 Y153.248 E7.26401
G1 X143.098 Y153.47 E7.27199
G1 X143.41 Y154.336 E7.3026
G1 X143.569 Y154.902 E7.32216
G1 X143.642 Y155.192 E7.3321
G1 X143.876 Y156.427 E7.37391
G1 X143.889 Y156.528 E7.3773
G1 X143.956 Y157.228 E7.40069
G1 X143.97 Y157.455 E7.40825
G1 X143.984 Y157.757 E7.41831
G1 X143.995 Y158.166 E7.43191
G1 X144 Y158.635 E7.44751
G1 X143.999 Y172.5 E7.90867
G1 X143.989 Y173.238 E7.93321
G1 X143.974 Y173.682 E7.94799
G1 X143.945 Y174.11 E7.96226
G1 X143.927 Y174.314 E7.96907
G1 X143.78 Y175.371 E8.00456
G1 X143.763 Y175.46 E8.00758
G1 X143.619 Y176.101 E8.02943
G1 X143.567 Y176.304 E8.0364
G1 X143.234 Y177.371 E8.07357
G1 X143.202 Y177.457 E8.07663
G1 X143.015 Y177.923 E8.09333
G1 X142.933 Y178.115 E8.10027
G1 X142.535 Y178.945 E8.13089
G1 X142.274 Y179.406 E8.14851
G1 X142.169 Y179.581 E8.15529
G1 X141.662 Y180.349 E8.1859
G1 X141.295 Y180.826 E8.20592
G1 X141.03 Y181.151 E8.21987
G1 X140.418 Y181.838 E8.25047
G1 X139.954 Y182.287 E8.27194
G1 X139.537 Y182.652 E8.29038
G1 X139.367 Y182.793 E8.29772
G1 X138.634 Y183.349 E8.32832
G1 X138.046 Y183.728 E8.35159
G1 X137.869 Y183.834 E8.35845
G1 X136.688 Y184.444 E8.40266
G1 X136.324 Y184.604 E8.41589
G1 X135.466 Y184.937 E8.4465
G1 X134.848 Y185.126 E8.46799
G1 X134.292 Y185.266 E8.48706
G1 X133.771 Y185.38 E8.5048
G1 X131.57 Y185.839 E8.57958
G1 X129.121 Y186.421 E8.6633
G1 X126.718 Y187.074 E8.74613
G1 X126.051 Y187.247 E8.76904
G1 X125.151 Y187.44 E8.79966
G1 X124.237 Y187.553 E8.83029
G1 X123.695 Y187.583 E8.84835
G1 X123.452 Y187.59 E8.85643
G1 X122.992 Y187.593 E8.87173
G1 X122.445 Y187.585 E8.88993
G1 X122.151 Y187.576 E8.89971
G1 X121.405 Y187.544 E8.92454
G1 X118.742 Y187.469 E9.01315
G1 X116.233 Y187.469 E9.0966
G1 X113.643 Y187.542 E9.18278
G1 X113.163 Y187.566 E9.19876
G1 X112.47 Y187.589 E9.22183
G1 X111.99 Y187.593 E9.23779
G1 X111.451 Y187.585 E9.25572
G1 X110.088 Y187.476 E9.3012
G1 X108.773 Y187.203 E9.34587
G1 X107.739 Y186.918 E9.38154
G1 X105.287 Y186.281 E9.4658
G1 X102.812 Y185.711 E9.55028
G1 X102.603 Y185.669 E9.55737
G1 X100.634 Y185.24 E9.62439
G1 X99.744 Y185.005 E9.65501
G1 X98.914 Y184.709 E9.68432
G1 X98.746 Y184.641 E9.69034
G1 X97.908 Y184.258 E9.72099
G1 X97.363 Y183.96 E9.74165
G1 X97.003 Y183.749 E9.75553
G1 X96.23 Y183.249 E9.78615
G1 X95.717 Y182.862 E9.80752
G1 X95.374 Y182.576 E9.82237
G1 X95.215 Y182.438 E9.82938
G1 X94.547 Y181.805 E9.85999
G1 X94.104 Y181.319 E9.88186
G1 X93.969 Y181.161 E9.88877
G1 X93.402 Y180.436 E9.91938
G1 X93.12 Y180.02 E9.9361
G1 X92.893 Y179.668 E9.95003
G1 X92.428 Y178.873 E9.98066
G1 X91.993 Y177.943 E10.01481
G1 X91.902 Y177.721 E10.02279
G1 X91.536 Y176.676 E10.05962
G1 X91.505 Y176.57 E10.06329
G1 X91.349 Y175.971 E10.08388
G1 X91.303 Y175.771 E10.0907
G1 X91.095 Y174.538 E10.13229
G1 X91.086 Y174.455 E10.13507
G1 X91.045 Y173.976 E10.15106
G1 X91.03 Y173.737 E10.15902
G1 X91.01 Y173.28 E10.17424
G1 X91.003 Y173.001 E10.18352
G1 X91 Y172.674 E10.1944
G1 X91.001 Y158.654 E10.6607
G1 X91.011 Y157.947 E10.68422
G1 X91.041 Y157.29 E10.7061
G1 X91.063 Y157.002 E10.7157
G1 X91.173 Y156.088 E10.74632
G1 X91.316 Y155.371 E10.77064
G1 X91.385 Y155.079 E10.78062
G1 X91.636 Y154.193 E10.81125
G1 X91.915 Y153.443 E10.83786
G1 X92.032 Y153.162 E10.84799
G1 X92.423 Y152.328 E10.87862
G1 X92.715 Y151.805 E10.89854
G1 X92.82 Y151.629 E10.90536
G1 X93.325 Y150.86 E10.93596
G1 X93.711 Y150.357 E10.95705
G1 X93.973 Y150.036 E10.97083
G1 X94.586 Y149.349 E11.00145
G1 X95.306 Y148.674 E11.03428
G1 X95.51 Y148.5 E11.0432
G1 X96.509 Y147.745 E11.08484
G1 X96.557 Y147.713 E11.08676
G0 F6000 X96.779 Y148.046
G1 F900 X97.283 Y147.731 E11.10653
G1 X97.505 Y147.601 E11.11509
G1 X98.303 Y147.18 E11.1451
G1 X98.769 Y146.974 E11.16204
G1 X98.929 Y146.908 E11.1678
G1 X100.209 Y146.477 E11.21272
G1 X100.685 Y146.351 E11.2291
G1 X101.184 Y146.232 E11.24616
G1 X103.793 Y145.68 E11.33486
G1 X106.243 Y145.089 E11.41868
G1 X108.359 Y144.511 E11.49164
G1 X109.058 Y144.33 E11.51565
G1 X109.941 Y144.142 E11.54568
G1 X110.838 Y144.034 E11.57573
G1 X111.316 Y144.009 E11.59165
G1 X111.559 Y144.002 E11.59974
G1 X112.002 Y143.999 E11.61447
G1 X112.549 Y144.007 E11.63267
G1 X112.832 Y144.015 E11.64208
G1 X113.637 Y144.049 E11.66888
G1 X116.247 Y144.123 E11.75572
G1 X118.779 Y144.123 E11.83994
G1 X121.34 Y144.051 E11.92515
G1 X121.857 Y144.025 E11.94237
G1 X122.542 Y144.003 E11.96516
G1 X123.004 Y143.999 E11.98053
G1 X123.546 Y144.007 E11.99856
G1 X124.447 Y144.06 E12.02858
G1 X124.959 Y144.127 E12.04575
G1 X126.118 Y144.375 E12.08518
G1 X127.061 Y144.635 E12.11771
G1 X129.646 Y145.306 E12.20654
G1 X132.899 Y146.043 E12.31747
G1 X133.939 Y146.257 E12.35279
G1 X134.398 Y146.362 E12.36845
G1 X134.508 Y146.39 E12.37222
G1 X135.702 Y146.774 E12.41394
G1 X136.099 Y146.929 E12.42812
G1 X136.925 Y147.294 E12.45815
G1 X137.507 Y147.607 E12.48013
G1 X137.882 Y147.833 E12.49469
G1 X138.069 Y147.951 E12.50205
G1 X138.811 Y148.466 E12.53209
G1 X139.251 Y148.822 E12.55091
G1 X139.45 Y148.992 E12.55962
G1 X140.11 Y149.608 E12.58965
G1 X140.521 Y150.053 E12.60979
G1 X140.668 Y150.222 E12.61724
G1 X141.23 Y150.929 E12.64728
G1 X141.544 Y151.388 E12.66578
G1 X141.771 Y151.74 E12.67971
G1 X142.226 Y152.52 E12.70974
G1 X142.637 Y153.399 E12.74202
G1 X142.728 Y153.621 E12.75
G1 X143.033 Y154.471 E12.78003
G1 X143.181 Y155 E12.7983
G1 X143.254 Y155.29 E12.80825
G1 X143.48 Y156.478 E12.84847
G1 X143.493 Y156.579 E12.85186
G1 X143.557 Y157.253 E12.87438
G1 X143.571 Y157.48 E12.88194
G1 X143.59 Y157.951 E12.89762
G1 X143.595 Y158.171 E12.90494
G1 X143.6 Y158.635 E12.92037
G1 X143.599 Y172.494 E13.38132
G1 X143.589 Y173.232 E13.40587
G1 X143.574 Y173.663 E13.42022
G1 X143.547 Y174.075 E13.43395
G1 X143.529 Y174.279 E13.44076
G1 X143.387 Y175.296 E13.47491
G1 X143.37 Y175.385 E13.47793
G1 X143.232 Y176.002 E13.49896
G1 X143.18 Y176.205 E13.50593
G1 X142.859 Y177.231 E13.54168
G1 X142.827 Y177.317 E13.54473
G1 X142.647 Y177.766 E13.56082
G1 X142.565 Y177.958 E13.56777
G1 X142.174 Y178.772 E13.5978
G1 X141.931 Y179.2 E13.61417
G1 X141.826 Y179.375 E13.62096
G1 X141.328 Y180.128 E13.65099
G1 X140.985 Y180.573 E13.66967
G1 X140.72 Y180.898 E13.68362
G1 X140.119 Y181.572 E13.71366
G1 X139.685 Y181.992 E13.73374
G1 X139.282 Y182.344 E13.75154
G1 X139.112 Y182.485 E13.75889
G1 X138.392 Y183.03 E13.78892
G1 X137.841 Y183.385 E13.81072
G1 X137.664 Y183.491 E13.81758
G1 X136.527 Y184.078 E13.86014
G1 X136.163 Y184.238 E13.87337
G1 X135.321 Y184.564 E13.9034
G1 X134.743 Y184.741 E13.9235
G1 X134.677 Y184.759 E13.92578
G1 X134.206 Y184.875 E13.94191
G1 X133.69 Y184.989 E13.95949
G1 X131.46 Y185.454 E14.03525
G1 X129.021 Y186.034 E14.11864
G1 X126.618 Y186.687 E14.20146
G1 X125.951 Y186.86 E14.22438
G1 X125.067 Y187.048 E14.25444
G1 X124.171 Y187.157 E14.28446
G1 X123.684 Y187.183 E14.30068
G1 X123.441 Y187.19 E14.30877
G1 X122.998 Y187.193 E14.3235
G1 X122.451 Y187.185 E14.3417
G1 X122.168 Y187.177 E14.35111
G1 X121.363 Y187.143 E14.37791
G1 X118.753 Y187.069 E14.46475
G1 X116.221 Y187.069 E14.54897
G1 X113.66 Y187.141 E14.63418
G1 X113.143 Y187.167 E14.6514
G1 X112.458 Y187.189 E14.67419
G1 X111.996 Y187.193 E14.68956
G1 X111.457 Y187.185 E14.70749
G1 X110.145 Y187.08 E14.75127
G1 X108.879 Y186.817 E14.79427
G1 X107.881 Y186.542 E14.8287
G1 X105.363 Y185.888 E14.91523
G1 X102.91 Y185.323 E14.99895
G1 X102.689 Y185.278 E15.00646
G1 X100.72 Y184.849 E15.07348
G1 X99.847 Y184.618 E15.10352
G1 X99.064 Y184.338 E15.13117
G1 X98.896 Y184.27 E15.1372
G1 X98.075 Y183.894 E15.16724
G1 X97.565 Y183.615 E15.18657
G1 X97.205 Y183.404 E15.20045
G1 X96.447 Y182.913 E15.23049
G1 X95.927 Y182.517 E15.25223
G1 X95.636 Y182.274 E15.26484
G1 X95.477 Y182.136 E15.27184
G1 X94.822 Y181.515 E15.30186
G1 X94.408 Y181.059 E15.32235
G1 X94.273 Y180.901 E15.32926
G1 X93.718 Y180.189 E15.35928
G1 X93.456 Y179.803 E15.3748
G1 X93.229 Y179.451 E15.38873
G1 X92.774 Y178.671 E15.41877
G1 X92.363 Y177.792 E15.45104
G1 X92.272 Y177.57 E15.45902
G1 X91.92 Y176.564 E15.49447
G1 X91.889 Y176.458 E15.49814
G1 X91.739 Y175.881 E15.51797
G1 X91.693 Y175.681 E15.5248
G1 X91.492 Y174.495 E15.5648
G1 X91.483 Y174.412 E15.56758
G1 X91.444 Y173.951 E15.58297
G1 X91.429 Y173.712 E15.59093
G1 X91.415 Y173.435 E15.60016
G1 X91.403 Y172.998 E15.6147
G1 X91.4 Y172.671 E15.62558
G1 X91.401 Y158.66 E16.09158
G1 X91.411 Y157.953 E16.1151
G1 X91.44 Y157.32 E16.13618
G1 X91.462 Y157.032 E16.14578
G1 X91.57 Y156.136 E16.1758
