;FLAVOR:Marlin
;TIME:1513
;Filament used: 1.09847m
;Layer height: 0.16
;MINX:97.713
;MINY:142.031
;MINZ:0.2
;MAXX:137.287
;MAXY:181.56
;MAXZ:5
;Generated with Cura_SteamEngine 4.13.0
M140 S75
M105
M190 S75
M104 S245
M105
M109 S245
M82 ;absolute extrusion mode
; Ender 3 Custom Start G-code
G92 E0 ; Reset Extruder
G28 ; Home all axes
G1 Z2.0 F3000 ; Move Z Axis up little to prevent scratching of Heat Bed
G1 X0.1 Y20 Z0.3 F5000.0 ; Move to start position
G1 X0.1 Y200.0 Z0.3 F1500.0 E15 ; Draw the first line
G1 X0.4 Y200.0 Z0.3 F5000.0 ; Move to side a little
G1 X0.4 Y20 Z0.3 F1500.0 E30 ; Draw the second line
G92 E0 ; Reset Extruder
G1 Z2.0 F3000 ; Move Z Axis up little to prevent scratching of Heat Bed
G1 X5 Y20 Z0.3 F5000.0 ; Move over to prevent blob squish
G92 E0
G92 E0
G1 F1200 E-6
;LAYER_COUNT:26
;LAYER:0
M107
M204 S500
M205 X16 Y16
G0 F6000 X106.339 Y145.478 Z0.2
;TYPE:SKIRT
G1 F1200 E0
G1 F900 X106.703 Y145.226 E0.01472
G1 X107.196 Y144.926 E0.03392
G1 X107.316 Y144.847 E0.0387
G1 X107.797 Y144.579 E0.05701
G1 X108.313 Y144.383 E0.07537
G1 X108.851 Y144.264 E0.0937
G1 X109.263 Y144.227 E0.10746
G1 X109.373 Y144.223 E0.11112
G1 X109.64 Y144.232 E0.12
G1 X109.819 Y144.008 E0.12954
G1 X110.222 Y143.632 E0.14787
G1 X110.674 Y143.317 E0.16619
G1 X111.167 Y143.072 E0.1845
G1 X111.591 Y142.927 E0.19941
G1 X112.138 Y142.775 E0.21829
G1 X112.262 Y142.735 E0.22263
G1 X112.797 Y142.604 E0.24095
G1 X113.346 Y142.553 E0.25928
G1 X113.896 Y142.581 E0.2776
G1 X114.315 Y142.658 E0.29177
G1 X114.423 Y142.684 E0.29546
G1 X114.681 Y142.766 E0.30447
G1 X114.891 Y142.613 E0.31311
G1 X115.378 Y142.355 E0.33144
G1 X115.897 Y142.172 E0.34974
G1 X116.438 Y142.065 E0.36809
G1 X116.909 Y142.036 E0.38378
G1 X117.45 Y142.037 E0.40178
G1 X117.624 Y142.031 E0.40757
G1 X118.175 Y142.052 E0.42591
G1 X118.717 Y142.153 E0.44424
G1 X119.238 Y142.331 E0.46256
G1 X119.598 Y142.507 E0.47588
G1 X119.697 Y142.562 E0.47965
G1 X119.929 Y142.714 E0.48887
G1 X120.134 Y142.635 E0.49618
G1 X120.671 Y142.513 E0.5145
G1 X121.22 Y142.47 E0.53281
G1 X121.77 Y142.507 E0.55115
G1 X122.261 Y142.61 E0.56783
G1 X122.783 Y142.755 E0.58585
G1 X122.988 Y142.807 E0.59289
G1 X123.511 Y142.98 E0.61121
G1 X124.004 Y143.226 E0.62953
G1 X124.456 Y143.542 E0.64788
G1 X124.749 Y143.806 E0.661
G1 X124.827 Y143.884 E0.66466
G1 X124.995 Y144.079 E0.67323
G1 X125.241 Y144.057 E0.68144
G1 X125.791 Y144.089 E0.69976
G1 X126.331 Y144.2 E0.7181
G1 X126.849 Y144.388 E0.73643
G1 X127.271 Y144.609 E0.75227
G1 X127.755 Y144.903 E0.77111
G1 X127.894 Y144.981 E0.77641
G1 X128.354 Y145.285 E0.79475
G1 X128.764 Y145.652 E0.81305
G1 X129.118 Y146.075 E0.8314
G1 X129.344 Y146.43 E0.84539
G1 X129.398 Y146.526 E0.84906
G1 X129.509 Y146.761 E0.8577
G1 X129.756 Y146.808 E0.86606
G1 X130.277 Y146.988 E0.8844
G1 X130.766 Y147.241 E0.90271
G1 X131.214 Y147.563 E0.92106
G1 X131.558 Y147.888 E0.9368
G1 X131.942 Y148.299 E0.95551
G1 X132.047 Y148.404 E0.96045
G1 X132.408 Y148.819 E0.97874
G1 X132.706 Y149.283 E0.99708
G1 X132.933 Y149.785 E1.01541
G1 X133.055 Y150.177 E1.02906
G1 X133.082 Y150.285 E1.03276
G1 X133.13 Y150.562 E1.04211
G1 X133.362 Y150.678 E1.05074
G1 X133.814 Y150.993 E1.06906
G1 X134.217 Y151.37 E1.08742
G1 X134.56 Y151.801 E1.10574
G1 X134.798 Y152.198 E1.12113
G1 X135.054 Y152.692 E1.13964
G1 X135.134 Y152.834 E1.14506
G1 X135.369 Y153.333 E1.16341
G1 X135.529 Y153.86 E1.18172
G1 X135.612 Y154.405 E1.20006
G1 X135.622 Y154.803 E1.2133
G1 X135.619 Y154.913 E1.21696
G1 X135.59 Y155.2 E1.22656
G1 X135.796 Y155.388 E1.23583
G1 X136.144 Y155.815 E1.25415
G1 X136.427 Y156.288 E1.27249
G1 X136.639 Y156.796 E1.2908
G1 X136.754 Y157.224 E1.30554
G1 X136.859 Y157.73 E1.32272
G1 X136.904 Y157.909 E1.32886
G1 X136.998 Y158.452 E1.34719
G1 X137.013 Y159.003 E1.36552
G1 X136.948 Y159.55 E1.38385
G1 X136.842 Y159.97 E1.39825
G1 X136.809 Y160.075 E1.40191
G1 X136.709 Y160.328 E1.41096
G1 X136.852 Y160.557 E1.41994
G1 X137.073 Y161.062 E1.43828
G1 X137.219 Y161.593 E1.45659
G1 X137.287 Y162.14 E1.47493
G1 X137.284 Y162.576 E1.48943
G1 X137.247 Y163.148 E1.50849
G1 X137.24 Y163.332 E1.51462
G1 X137.179 Y163.88 E1.53296
G1 X137.039 Y164.412 E1.55125
G1 X136.823 Y164.92 E1.56961
G1 X136.62 Y165.268 E1.58301
G1 X136.559 Y165.361 E1.58671
G1 X136.402 Y165.567 E1.59533
G1 X136.482 Y165.845 E1.60495
G1 X136.556 Y166.391 E1.62327
G1 X136.551 Y166.942 E1.6416
G1 X136.466 Y167.486 E1.65991
G1 X136.347 Y167.896 E1.67411
G1 X136.153 Y168.444 E1.69345
G1 X136.105 Y168.595 E1.69872
G1 X135.899 Y169.107 E1.71707
G1 X135.622 Y169.583 E1.73539
G1 X135.278 Y170.014 E1.75373
G1 X135.013 Y170.274 E1.76608
G1 X134.931 Y170.347 E1.76973
G1 X134.694 Y170.529 E1.77967
G1 X134.698 Y170.787 E1.78825
G1 X134.627 Y171.334 E1.8066
G1 X134.478 Y171.864 E1.82491
G1 X134.253 Y172.367 E1.84324
G1 X134.012 Y172.758 E1.85851
G1 X133.695 Y173.209 E1.87685
G1 X133.597 Y173.358 E1.88278
G1 X133.262 Y173.795 E1.90109
G1 X132.867 Y174.18 E1.91944
G1 X132.421 Y174.503 E1.93776
G1 X132.036 Y174.712 E1.95233
G1 X131.71 Y174.846 E1.96405
G1 X131.64 Y175.109 E1.9731
G1 X131.422 Y175.615 E1.99143
G1 X131.133 Y176.085 E2.00978
G1 X130.78 Y176.507 E2.02808
G1 X130.451 Y176.81 E2.04295
G1 X130.024 Y177.158 E2.06127
G1 X129.89 Y177.275 E2.06719
G1 X129.449 Y177.606 E2.08553
G1 X128.965 Y177.869 E2.10385
G1 X128.449 Y178.06 E2.12215
G1 X128.079 Y178.148 E2.1348
G1 X127.97 Y178.168 E2.13849
G1 X127.672 Y178.2 E2.14846
G1 X127.544 Y178.418 E2.15686
G1 X127.2 Y178.849 E2.1752
G1 X126.797 Y179.225 E2.19354
G1 X126.345 Y179.539 E2.21184
G1 X125.923 Y179.754 E2.22759
G1 X125.434 Y179.966 E2.24532
G1 X125.287 Y180.037 E2.25075
G1 X124.774 Y180.24 E2.2691
G1 X124.238 Y180.367 E2.28742
G1 X123.689 Y180.415 E2.30575
G1 X123.259 Y180.396 E2.32007
G1 X123.148 Y180.385 E2.32378
G1 X122.879 Y180.339 E2.33285
G1 X122.69 Y180.521 E2.34158
G1 X122.242 Y180.841 E2.35989
G1 X121.752 Y181.094 E2.37823
G1 X121.231 Y181.273 E2.39656
G1 X120.767 Y181.365 E2.41229
G1 X120.231 Y181.437 E2.43028
G1 X120.065 Y181.466 E2.43588
G1 X119.517 Y181.521 E2.4542
G1 X118.967 Y181.495 E2.47251
G1 X118.426 Y181.391 E2.49084
G1 X117.998 Y181.248 E2.50585
G1 X117.687 Y181.105 E2.51723
G1 X117.461 Y181.226 E2.52576
G1 X116.943 Y181.415 E2.5441
G1 X116.404 Y181.527 E2.56241
G1 X115.854 Y181.56 E2.58073
G1 X115.386 Y181.525 E2.59634
G1 X114.803 Y181.445 E2.61591
G1 X114.641 Y181.427 E2.62134
G1 X114.099 Y181.327 E2.63967
G1 X113.577 Y181.15 E2.658
G1 X113.087 Y180.899 E2.67631
G1 X112.788 Y180.698 E2.68829
G1 X112.702 Y180.634 E2.69186
G1 X112.48 Y180.442 E2.70162
G1 X112.227 Y180.499 E2.71025
G1 X111.678 Y180.541 E2.72856
G1 X111.128 Y180.503 E2.7469
G1 X110.59 Y180.386 E2.76521
G1 X110.148 Y180.225 E2.78086
G1 X109.636 Y180.002 E2.79943
G1 X109.464 Y179.933 E2.80559
G1 X108.969 Y179.691 E2.82392
G1 X108.514 Y179.38 E2.84225
G1 X108.109 Y179.006 E2.86059
G1 X107.874 Y178.731 E2.87262
G1 X107.806 Y178.643 E2.87632
G1 X107.647 Y178.402 E2.88592
G1 X107.224 Y178.362 E2.90005
G1 X106.688 Y178.231 E2.9184
G1 X106.178 Y178.023 E2.93672
G1 X105.703 Y177.745 E2.95503
G1 X105.454 Y177.558 E2.96538
G1 X105.032 Y177.213 E2.98351
G1 X104.902 Y177.115 E2.98893
G1 X104.488 Y176.752 E3.00724
G1 X104.131 Y176.333 E3.02555
G1 X103.837 Y175.866 E3.0439
G1 X103.658 Y175.477 E3.05815
G1 X103.617 Y175.373 E3.06186
G1 X103.54 Y175.128 E3.07041
G1 X103.321 Y175.056 E3.07807
G1 X102.828 Y174.809 E3.09641
G1 X102.376 Y174.494 E3.11474
G1 X101.974 Y174.117 E3.13307
G1 X101.661 Y173.729 E3.14965
G1 X101.344 Y173.279 E3.16796
G1 X101.244 Y173.147 E3.17347
G1 X100.943 Y172.686 E3.19178
G1 X100.713 Y172.185 E3.21011
G1 X100.557 Y171.657 E3.22842
G1 X100.492 Y171.261 E3.24177
G1 X100.48 Y171.151 E3.24545
G1 X100.47 Y170.866 E3.25494
G1 X100.236 Y170.704 E3.2644
G1 X99.834 Y170.328 E3.28271
G1 X99.49 Y169.897 E3.30105
G1 X99.211 Y169.422 E3.31937
G1 X99.045 Y169.027 E3.33362
G1 X98.865 Y168.525 E3.35136
G1 X98.792 Y168.339 E3.35801
G1 X98.628 Y167.813 E3.37633
G1 X98.542 Y167.269 E3.39465
G1 X98.535 Y166.718 E3.41298
G1 X98.577 Y166.339 E3.42566
G1 X98.595 Y166.228 E3.4294
G1 X98.663 Y165.941 E3.43921
G1 X98.528 Y165.785 E3.44607
G1 X98.232 Y165.32 E3.46441
G1 X98.006 Y164.817 E3.48275
G1 X97.856 Y164.287 E3.50107
G1 X97.786 Y163.779 E3.51812
G1 X97.747 Y163.22 E3.53676
G1 X97.731 Y163.064 E3.54198
G1 X97.713 Y162.513 E3.56031
G1 X97.775 Y161.966 E3.57862
G1 X97.916 Y161.433 E3.59696
G1 X98.064 Y161.065 E3.61015
G1 X98.11 Y160.966 E3.61378
G1 X98.254 Y160.707 E3.62364
G1 X98.157 Y160.496 E3.63136
G1 X98.001 Y159.968 E3.64968
G1 X97.923 Y159.422 E3.66802
G1 X97.925 Y158.871 E3.68635
G1 X97.992 Y158.394 E3.70237
G1 X98.102 Y157.856 E3.72063
G1 X98.132 Y157.68 E3.72657
G1 X98.264 Y157.145 E3.7449
G1 X98.472 Y156.635 E3.76322
G1 X98.752 Y156.16 E3.78156
G1 X99.025 Y155.811 E3.79629
G1 X99.271 Y155.558 E3.80803
G1 X99.231 Y155.292 E3.81698
G1 X99.229 Y154.741 E3.8353
G1 X99.306 Y154.195 E3.85364
G1 X99.462 Y153.667 E3.87196
G1 X99.642 Y153.261 E3.88673
G1 X99.908 Y152.744 E3.90606
G1 X99.971 Y152.611 E3.91096
G1 X100.243 Y152.132 E3.92928
G1 X100.581 Y151.697 E3.9476
G1 X100.978 Y151.315 E3.96593
G1 X101.335 Y151.052 E3.98068
G1 X101.64 Y150.875 E3.9924
G1 X101.675 Y150.596 E4.00176
G1 X101.824 Y150.065 E4.0201
G1 X102.047 Y149.561 E4.03843
G1 X102.341 Y149.095 E4.05676
G1 X102.617 Y148.761 E4.07117
G1 X103.002 Y148.347 E4.08997
G1 X103.111 Y148.222 E4.09549
G1 X103.502 Y147.834 E4.11381
G1 X103.946 Y147.507 E4.13215
G1 X104.432 Y147.248 E4.15047
G1 X104.773 Y147.115 E4.16264
G1 X104.878 Y147.08 E4.16632
G1 X105.185 Y147.002 E4.17686
G1 X105.294 Y146.744 E4.18617
G1 X105.58 Y146.273 E4.2045
G1 X105.931 Y145.848 E4.22283
G1 X106.339 Y145.478 E4.24115
G0 F6000 X106.299 Y146.044
G1 F900 X106.911 Y145.568 E4.26694
G1 X107.394 Y145.274 E4.28574
G1 X107.536 Y145.181 E4.29139
G1 X107.992 Y144.93 E4.3087
G1 X108.481 Y144.751 E4.32602
G1 X108.992 Y144.649 E4.34335
G1 X109.277 Y144.626 E4.35286
G1 X109.387 Y144.622 E4.35652
G1 X109.823 Y144.64 E4.37104
G1 X110.151 Y144.238 E4.38829
G1 X110.539 Y143.89 E4.40563
G1 X110.976 Y143.606 E4.42296
G1 X111.698 Y143.312 E4.44889
G1 X112.248 Y143.159 E4.46788
G1 X112.385 Y143.115 E4.47267
G1 X112.891 Y142.994 E4.48997
G1 X113.411 Y142.952 E4.50732
G1 X113.931 Y142.99 E4.52466
G1 X114.222 Y143.046 E4.53452
G1 X114.33 Y143.072 E4.53821
G1 X114.75 Y143.208 E4.5529
G1 X115.151 Y142.922 E4.56928
G1 X115.616 Y142.689 E4.58658
G1 X116.112 Y142.529 E4.60391
G1 X116.627 Y142.447 E4.62126
G1 X116.909 Y142.436 E4.63064
G1 X117.464 Y142.437 E4.6491
G1 X117.638 Y142.431 E4.65489
G1 X118.158 Y142.453 E4.6722
G1 X118.67 Y142.555 E4.68957
G1 X119.159 Y142.733 E4.70688
G1 X119.404 Y142.857 E4.71601
G1 X119.503 Y142.912 E4.71978
G1 X119.878 Y143.16 E4.73473
G1 X120.304 Y143.001 E4.74985
G1 X120.815 Y142.897 E4.7672
G1 X121.335 Y142.871 E4.78451
G1 X121.854 Y142.926 E4.80187
G1 X122.153 Y142.995 E4.81208
G1 X122.692 Y143.145 E4.83069
G1 X122.89 Y143.195 E4.83748
G1 X123.384 Y143.361 E4.85481
G1 X123.848 Y143.6 E4.87217
G1 X124.269 Y143.906 E4.88948
G1 X124.466 Y144.089 E4.89843
G1 X124.544 Y144.167 E4.9021
G1 X124.823 Y144.493 E4.91637
G1 X125.304 Y144.457 E4.93241
G1 X125.823 Y144.498 E4.94973
G1 X126.331 Y144.617 E4.96708
G1 X126.814 Y144.813 E4.98442
G1 X127.064 Y144.951 E4.99391
G1 X127.544 Y145.242 E5.01258
G1 X127.698 Y145.329 E5.01847
G1 X128.132 Y145.619 E5.03583
G1 X128.516 Y145.971 E5.05315
G1 X128.841 Y146.378 E5.07048
G1 X128.995 Y146.626 E5.08019
G1 X129.049 Y146.722 E5.08385
G1 X129.231 Y147.113 E5.09819
G1 X129.708 Y147.209 E5.11438
G1 X130.197 Y147.39 E5.13172
G1 X130.652 Y147.643 E5.14904
G1 X131.064 Y147.962 E5.16637
G1 X131.265 Y148.161 E5.17577
G1 X131.637 Y148.56 E5.19392
G1 X131.765 Y148.687 E5.19991
G1 X132.105 Y149.082 E5.21725
G1 X132.381 Y149.524 E5.23458
G1 X132.586 Y150.003 E5.25191
G1 X132.666 Y150.274 E5.26131
G1 X132.693 Y150.382 E5.26501
G1 X132.769 Y150.826 E5.27999
G1 X133.206 Y151.052 E5.29636
G1 X133.628 Y151.358 E5.31369
G1 X133.998 Y151.725 E5.33103
G1 X134.307 Y152.145 E5.34837
G1 X134.443 Y152.382 E5.35746
G1 X134.703 Y152.883 E5.37623
G1 X134.786 Y153.031 E5.38188
G1 X135.006 Y153.503 E5.3992
G1 X135.151 Y154.004 E5.41654
G1 X135.218 Y154.52 E5.43385
G1 X135.222 Y154.792 E5.4429
G1 X135.219 Y154.902 E5.44656
G1 X135.172 Y155.355 E5.4617
G1 X135.544 Y155.704 E5.47867
G1 X135.865 Y156.115 E5.49602
G1 X136.119 Y156.569 E5.51332
G1 X136.363 Y157.306 E5.53914
G1 X136.477 Y157.853 E5.55772
G1 X136.515 Y158.006 E5.56297
G1 X136.603 Y158.52 E5.58031
G1 X136.61 Y159.041 E5.59764
G1 X136.538 Y159.557 E5.61497
G1 X136.461 Y159.85 E5.62505
G1 X136.428 Y159.955 E5.62871
G1 X136.264 Y160.365 E5.64339
G1 X136.524 Y160.794 E5.66008
G1 X136.724 Y161.276 E5.67743
G1 X136.847 Y161.782 E5.69475
G1 X136.885 Y162.551 E5.72036
G1 X136.847 Y163.14 E5.73999
G1 X136.84 Y163.316 E5.74585
G1 X136.78 Y163.834 E5.7632
G1 X136.642 Y164.336 E5.78051
G1 X136.428 Y164.812 E5.79787
G1 X136.286 Y165.049 E5.80706
G1 X136.225 Y165.142 E5.81076
G1 X135.964 Y165.48 E5.82496
G1 X136.102 Y165.983 E5.84231
G1 X136.162 Y166.501 E5.85965
G1 X136.141 Y167.022 E5.877
G1 X135.97 Y167.763 E5.90229
G1 X135.777 Y168.308 E5.92152
G1 X135.724 Y168.473 E5.92728
G1 X135.527 Y168.956 E5.94463
G1 X135.259 Y169.403 E5.96197
G1 X134.747 Y169.975 E5.9875
G1 X134.665 Y170.048 E5.99115
G1 X134.293 Y170.331 E6.0067
G1 X134.295 Y170.821 E6.023
G1 X134.217 Y171.336 E6.04032
G1 X134.061 Y171.834 E6.05768
G1 X133.831 Y172.301 E6.07499
G1 X133.685 Y172.528 E6.08397
G1 X133.361 Y172.989 E6.10271
G1 X133.263 Y173.138 E6.10864
G1 X132.944 Y173.551 E6.126
G1 X132.566 Y173.91 E6.14334
G1 X132.138 Y174.207 E6.16066
G1 X131.866 Y174.35 E6.17089
G1 X131.766 Y174.397 E6.17456
G1 X131.379 Y174.544 E6.18833
G1 X131.243 Y175.031 E6.20515
G1 X131.027 Y175.506 E6.2225
G1 X130.741 Y175.941 E6.23982
G1 X130.198 Y176.5 E6.26574
G1 X129.758 Y176.859 E6.28463
G1 X129.627 Y176.973 E6.2904
G1 X129.209 Y177.284 E6.30773
G1 X128.748 Y177.528 E6.32508
G1 X128.007 Y177.754 E6.35084
G1 X127.898 Y177.774 E6.35453
G1 X127.431 Y177.823 E6.37015
G1 X127.182 Y178.238 E6.38624
G1 X126.848 Y178.639 E6.4036
G1 X126.457 Y178.983 E6.42092
G1 X126.018 Y179.264 E6.43826
G1 X125.763 Y179.387 E6.44768
G1 X125.279 Y179.597 E6.46522
G1 X125.113 Y179.677 E6.47135
G1 X124.627 Y179.867 E6.48871
G1 X124.119 Y179.98 E6.50602
G1 X123.599 Y180.015 E6.52335
G1 X123.299 Y179.998 E6.53335
G1 X123.188 Y179.987 E6.53706
G1 X122.751 Y179.91 E6.55182
G1 X122.39 Y180.249 E6.56829
G1 X121.96 Y180.543 E6.58561
G1 X121.49 Y180.769 E6.60296
G1 X120.991 Y180.919 E6.62029
G1 X120.714 Y180.969 E6.62965
G1 X120.162 Y181.043 E6.64817
G1 X119.997 Y181.072 E6.65375
G1 X119.478 Y181.121 E6.67108
G1 X118.958 Y181.091 E6.68841
G1 X118.448 Y180.982 E6.70575
G1 X118.147 Y180.877 E6.71636
G1 X118.045 Y180.836 E6.72001
G1 X117.682 Y180.656 E6.73349
G1 X117.245 Y180.884 E6.74988
G1 X116.752 Y181.053 E6.76722
G1 X116.239 Y181.143 E6.78454
G1 X115.718 Y181.155 E6.80187
G1 X115.441 Y181.128 E6.81113
G1 X114.902 Y181.054 E6.82923
G1 X114.685 Y181.03 E6.83649
G1 X114.173 Y180.933 E6.85382
G1 X113.681 Y180.759 E6.87118
G1 X113.027 Y180.378 E6.89635
G1 X112.941 Y180.314 E6.89992
G1 X112.593 Y180.01 E6.91528
G1 X112.112 Y180.111 E6.93163
G1 X111.592 Y180.14 E6.94895
G1 X111.073 Y180.089 E6.9663
G1 X110.568 Y179.959 E6.98364
G1 X110.308 Y179.858 E6.99292
G1 X109.81 Y179.641 E7.01099
G1 X109.613 Y179.562 E7.01805
G1 X109.146 Y179.331 E7.03538
G1 X108.72 Y179.032 E7.05269
G1 X108.191 Y178.486 E7.07797
G1 X108.123 Y178.398 E7.08167
G1 X107.867 Y178.008 E7.09719
G1 X107.753 Y178.013 E7.10098
G1 X107.235 Y177.957 E7.11831
G1 X106.731 Y177.823 E7.13566
G1 X106.254 Y177.613 E7.15299
G1 X105.707 Y177.248 E7.17486
G1 X105.274 Y176.894 E7.19347
G1 X105.144 Y176.796 E7.19888
G1 X104.753 Y176.451 E7.21622
G1 X104.42 Y176.05 E7.23356
G1 X104.152 Y175.603 E7.2509
G1 X104.03 Y175.33 E7.26084
G1 X103.989 Y175.226 E7.26456
G1 X103.863 Y174.815 E7.27886
G1 X103.421 Y174.664 E7.29439
G1 X102.96 Y174.421 E7.31172
G1 X102.541 Y174.111 E7.32906
G1 X102.174 Y173.741 E7.34639
G1 X101.988 Y173.499 E7.35655
