;FLAVOR:Marlin
;TIME:1935
;Filament used: 1.08021m
;Layer height: 0.16
;MINX:101.7
;MINY:139.884
;MINZ:0.2
;MAXX:127.299
;MAXY:168.484
;MAXZ:12.44
;Generated with Cura_SteamEngine 4.13.0
M140 S75
M105
M190 S75
M104 S245
M105
M109 S245
M82 ;absolute extrusion mode
; Ender 3 Custom Start G-code
G92 E0 ; Reset Extruder
G28 ; Home all axes
G1 Z2.0 F3000 ; Move Z Axis up little to prevent scratching of Heat Bed
G1 X0.1 Y20 Z0.3 F5000.0 ; Move to start position
G1 X0.1 Y200.0 Z0.3 F1500.0 E15 ; Draw the first line
G1 X0.4 Y200.0 Z0.3 F5000.0 ; Move to side a little
G1 X0.4 Y20 Z0.3 F1500.0 E30 ; Draw the second line
G92 E0 ; Reset Extruder
G1 Z2.0 F3000 ; Move Z Axis up little to prevent scratching of Heat Bed
G1 X5 Y20 Z0.3 F5000.0 ; Move over to prevent blob squish
G92 E0
G92 E0
G1 F1200 E-6
;LAYER_COUNT:64
;LAYER:0
M107
M204 S500
M205 X16 Y16
G0 F6000 X103.678 Y140.802 Z0.2
;TYPE:SKIRT
G1 F1200 E0
G1 F900 X103.703 Y140.784 E0.00102
G1 X104.192 Y140.485 E0.02009
G1 X104.448 Y140.354 E0.02965
G1 X105.099 Y140.094 E0.05297
G1 X105.126 Y140.086 E0.0539
G1 X105.619 Y139.975 E0.07071
G1 X105.907 Y139.93 E0.08041
G1 X106.494 Y139.884 E0.09999
G1 X110.455 Y139.884 E0.23173
G1 X110.916 Y139.917 E0.24711
G1 X110.933 Y139.914 E0.24768
G1 X111.409 Y139.884 E0.26354
G1 X111.847 Y139.884 E0.27811
G1 X112.397 Y139.924 E0.29645
G1 X112.935 Y140.043 E0.31478
G1 X113.606 Y140.316 E0.33887
G1 X113.696 Y140.363 E0.34225
G1 X114.165 Y140.652 E0.36057
G1 X114.503 Y140.937 E0.37528
G1 X114.711 Y140.747 E0.38465
G1 X115.305 Y140.362 E0.40819
G1 X115.393 Y140.316 E0.41149
G1 X115.898 Y140.097 E0.4298
G1 X116.43 Y139.953 E0.44813
G1 X117.153 Y139.884 E0.47229
G1 X117.591 Y139.884 E0.48686
G1 X118.047 Y139.917 E0.50206
G1 X118.546 Y139.884 E0.5187
G1 X122.521 Y139.885 E0.65091
G1 X123.123 Y139.933 E0.67099
G1 X123.397 Y139.977 E0.68022
G1 X123.874 Y140.086 E0.6965
G1 X123.901 Y140.094 E0.69743
G1 X124.552 Y140.354 E0.72075
G1 X124.808 Y140.485 E0.73031
G1 X125.297 Y140.784 E0.74938
G1 X125.322 Y140.802 E0.7504
G1 X125.789 Y141.199 E0.77079
G1 X125.985 Y141.395 E0.78001
G1 X126.382 Y141.862 E0.80039
G1 X126.4 Y141.887 E0.80142
G1 X126.699 Y142.376 E0.82048
G1 X126.83 Y142.632 E0.83005
G1 X127.09 Y143.283 E0.85336
G1 X127.098 Y143.31 E0.8543
G1 X127.21 Y143.804 E0.87115
G1 X127.254 Y144.086 E0.88064
G1 X127.299 Y144.672 E0.90019
G1 X127.299 Y163.707 E1.53329
G1 X127.25 Y164.318 E1.55368
G1 X127.206 Y164.588 E1.56278
G1 X127.098 Y165.057 E1.57879
G1 X127.09 Y165.084 E1.57972
G1 X126.835 Y165.725 E1.60267
G1 X126.706 Y165.979 E1.61214
G1 X126.41 Y166.467 E1.63113
G1 X126.39 Y166.495 E1.63227
G1 X125.985 Y166.973 E1.65311
G1 X125.789 Y167.169 E1.66233
G1 X125.322 Y167.566 E1.68271
G1 X125.297 Y167.584 E1.68374
G1 X124.808 Y167.883 E1.7028
G1 X124.552 Y168.014 E1.71237
G1 X123.901 Y168.274 E1.73568
G1 X123.874 Y168.282 E1.73662
G1 X123.381 Y168.393 E1.75343
G1 X123.093 Y168.438 E1.76312
G1 X122.506 Y168.484 E1.78271
G1 X118.545 Y168.484 E1.91445
G1 X118.086 Y168.451 E1.92975
G1 X117.592 Y168.484 E1.94622
G1 X117.153 Y168.484 E1.96082
G1 X116.603 Y168.444 E1.97916
G1 X116.065 Y168.325 E1.99749
G1 X115.361 Y168.035 E2.02281
G1 X115.275 Y167.989 E2.02606
G1 X114.809 Y167.694 E2.0444
G1 X114.499 Y167.428 E2.05799
G1 X114.331 Y167.586 E2.06566
G1 X113.708 Y167.997 E2.09048
G1 X113.615 Y168.046 E2.09398
G1 X113.111 Y168.267 E2.11228
G1 X112.579 Y168.412 E2.13062
G1 X111.844 Y168.484 E2.15519
G1 X111.408 Y168.484 E2.16969
G1 X110.953 Y168.451 E2.18486
G1 X110.454 Y168.484 E2.20149
G1 X106.479 Y168.483 E2.3337
G1 X105.877 Y168.435 E2.35379
G1 X105.603 Y168.391 E2.36302
G1 X105.126 Y168.282 E2.37929
G1 X105.099 Y168.274 E2.38023
G1 X104.448 Y168.014 E2.40355
G1 X104.192 Y167.883 E2.41311
G1 X103.703 Y167.584 E2.43217
G1 X103.678 Y167.566 E2.4332
G1 X103.211 Y167.169 E2.45358
G1 X103.015 Y166.973 E2.4628
G1 X102.61 Y166.495 E2.48364
G1 X102.59 Y166.467 E2.48479
G1 X102.294 Y165.979 E2.50377
G1 X102.165 Y165.725 E2.51324
G1 X101.91 Y165.084 E2.53619
G1 X101.902 Y165.057 E2.53713
G1 X101.792 Y164.572 E2.55367
G1 X101.747 Y164.288 E2.56323
G1 X101.7 Y163.693 E2.58308
G1 X101.701 Y144.661 E3.21609
G1 X101.75 Y144.052 E3.23641
G1 X101.794 Y143.781 E3.24554
G1 X101.902 Y143.31 E3.26161
G1 X101.91 Y143.283 E3.26255
G1 X102.168 Y142.637 E3.28569
G1 X102.297 Y142.384 E3.29513
G1 X102.59 Y141.901 E3.31392
G1 X102.61 Y141.873 E3.31507
G1 X103.015 Y141.395 E3.3359
G1 X103.211 Y141.199 E3.34512
G1 X103.678 Y140.802 E3.36551
G0 F6000 X103.911 Y141.127
G1 F900 X103.936 Y141.109 E3.36653
G1 X104.374 Y140.841 E3.38361
G1 X104.63 Y140.71 E3.39318
G1 X105.213 Y140.477 E3.41406
G1 X105.24 Y140.469 E3.415
G1 X105.681 Y140.37 E3.43003
G1 X105.969 Y140.325 E3.43972
G1 X106.494 Y140.284 E3.45724
G1 X110.455 Y140.284 E3.58898
G1 X110.96 Y140.323 E3.60583
G1 X111.409 Y140.284 E3.62082
G1 X111.847 Y140.284 E3.63539
G1 X112.367 Y140.324 E3.65273
G1 X112.874 Y140.443 E3.67005
G1 X113.421 Y140.67 E3.68975
G1 X113.511 Y140.717 E3.69313
G1 X113.953 Y140.993 E3.71046
G1 X114.348 Y141.333 E3.72779
G1 X114.498 Y141.515 E3.73564
G1 X114.615 Y141.373 E3.74176
G1 X115.004 Y141.026 E3.7591
G1 X115.49 Y140.717 E3.77825
G1 X115.578 Y140.671 E3.78155
G1 X116.057 Y140.466 E3.79888
G1 X116.562 Y140.336 E3.81623
G1 X117.153 Y140.284 E3.83596
G1 X117.591 Y140.284 E3.85053
G1 X118.084 Y140.322 E3.86697
G1 X118.193 Y140.302 E3.87066
G1 X118.546 Y140.284 E3.88242
G1 X122.521 Y140.285 E4.01462
G1 X123.059 Y140.328 E4.03258
G1 X123.333 Y140.372 E4.04181
G1 X123.76 Y140.469 E4.05637
G1 X123.787 Y140.477 E4.05731
G1 X124.37 Y140.71 E4.07819
G1 X124.626 Y140.841 E4.08775
G1 X125.064 Y141.109 E4.10483
G1 X125.089 Y141.127 E4.10586
G1 X125.506 Y141.482 E4.12407
G1 X125.702 Y141.678 E4.13329
G1 X126.057 Y142.095 E4.1515
G1 X126.075 Y142.12 E4.15253
G1 X126.343 Y142.558 E4.16961
G1 X126.474 Y142.814 E4.17917
G1 X126.707 Y143.397 E4.20005
G1 X126.715 Y143.424 E4.20099
G1 X126.814 Y143.866 E4.21606
G1 X126.858 Y144.148 E4.22555
G1 X126.899 Y144.672 E4.24303
G1 X126.899 Y163.707 E4.87614
G1 X126.855 Y164.254 E4.89439
G1 X126.811 Y164.524 E4.90349
G1 X126.715 Y164.943 E4.91778
G1 X126.707 Y164.97 E4.91872
G1 X126.478 Y165.544 E4.93928
G1 X126.349 Y165.798 E4.94875
G1 X126.085 Y166.234 E4.9657
G1 X126.065 Y166.262 E4.96685
G1 X125.702 Y166.69 E4.98551
G1 X125.506 Y166.886 E4.99473
G1 X125.089 Y167.241 E5.01295
G1 X125.064 Y167.259 E5.01397
G1 X124.626 Y167.527 E5.03105
G1 X124.37 Y167.658 E5.04062
G1 X123.787 Y167.891 E5.0615
G1 X123.76 Y167.899 E5.06243
G1 X123.319 Y167.998 E5.07747
G1 X123.031 Y168.043 E5.08716
G1 X122.506 Y168.084 E5.10468
G1 X118.545 Y168.084 E5.23642
G1 X118.039 Y168.045 E5.2533
G1 X117.592 Y168.084 E5.26822
G1 X117.153 Y168.084 E5.28283
G1 X116.633 Y168.044 E5.30017
G1 X116.126 Y167.925 E5.31749
G1 X115.549 Y167.682 E5.33832
G1 X115.463 Y167.636 E5.34156
G1 X115.024 Y167.356 E5.35888
G1 X114.633 Y167.012 E5.3762
G1 X114.503 Y166.853 E5.38303
G1 X114.419 Y166.958 E5.3875
G1 X114.035 Y167.31 E5.40483
G1 X113.522 Y167.643 E5.42517
G1 X113.429 Y167.692 E5.42867
G1 X112.951 Y167.899 E5.44599
G1 X112.446 Y168.03 E5.46334
G1 X111.844 Y168.084 E5.48345
G1 X111.408 Y168.084 E5.49795
G1 X110.916 Y168.046 E5.51436
G1 X110.807 Y168.066 E5.51805
G1 X110.454 Y168.084 E5.5298
G1 X106.479 Y168.083 E5.66201
G1 X105.941 Y168.04 E5.67996
G1 X105.667 Y167.996 E5.68919
G1 X105.24 Y167.899 E5.70376
G1 X105.213 Y167.891 E5.70469
G1 X104.63 Y167.658 E5.72558
G1 X104.374 Y167.527 E5.73514
G1 X103.936 Y167.259 E5.75222
G1 X103.911 Y167.241 E5.75324
G1 X103.494 Y166.886 E5.77146
G1 X103.298 Y166.69 E5.78068
G1 X102.935 Y166.262 E5.79934
G1 X102.915 Y166.234 E5.80049
G1 X102.651 Y165.798 E5.81744
G1 X102.522 Y165.544 E5.82692
G1 X102.293 Y164.97 E5.84747
G1 X102.285 Y164.943 E5.84841
G1 X102.187 Y164.509 E5.86321
G1 X102.142 Y164.225 E5.87277
G1 X102.1 Y163.693 E5.89052
G1 X102.101 Y144.661 E6.52353
G1 X102.145 Y144.116 E6.54171
G1 X102.189 Y143.845 E6.55084
G1 X102.285 Y143.424 E6.5652
G1 X102.293 Y143.397 E6.56614
G1 X102.524 Y142.819 E6.58684
G1 X102.653 Y142.566 E6.59629
G1 X102.915 Y142.134 E6.61309
G1 X102.935 Y142.106 E6.61424
G1 X103.298 Y141.678 E6.6329
G1 X103.494 Y141.482 E6.64212
G1 X103.911 Y141.127 E6.66034
G0 F6000 X104.145 Y141.451
G1 F900 X104.17 Y141.433 E6.66136
G1 X104.556 Y141.197 E6.67641
G1 X104.812 Y141.066 E6.68598
G1 X105.327 Y140.861 E6.70441
G1 X105.354 Y140.853 E6.70535
G1 X105.743 Y140.765 E6.71861
G1 X106.031 Y140.72 E6.72831
G1 X106.494 Y140.684 E6.74375
G1 X110.455 Y140.684 E6.8755
G1 X110.943 Y140.724 E6.89178
G1 X110.971 Y140.731 E6.89274
G1 X111.409 Y140.684 E6.90739
G1 X111.847 Y140.684 E6.92196
G1 X112.335 Y140.724 E6.93825
G1 X112.81 Y140.843 E6.95453
G1 X113.236 Y141.025 E6.96994
G1 X113.326 Y141.072 E6.97332
G1 X113.74 Y141.333 E6.9896
G1 X114.106 Y141.658 E7.00588
G1 X114.413 Y142.037 E7.0221
G1 X114.5 Y142.164 E7.02722
G1 X114.611 Y142.005 E7.03367
G1 X114.924 Y141.629 E7.04994
G1 X115.294 Y141.309 E7.06621
G1 X115.675 Y141.071 E7.08115
G1 X115.763 Y141.025 E7.08446
G1 X116.214 Y140.835 E7.10073
G1 X116.69 Y140.72 E7.11702
G1 X117.153 Y140.684 E7.13247
G1 X117.591 Y140.684 E7.14703
G1 X118.079 Y140.724 E7.16332
G1 X118.121 Y140.735 E7.16476
G1 X118.546 Y140.684 E7.179
G1 X122.521 Y140.685 E7.31121
G1 X122.996 Y140.723 E7.32706
G1 X123.27 Y140.767 E7.33629
G1 X123.646 Y140.853 E7.34912
G1 X123.673 Y140.861 E7.35005
G1 X124.188 Y141.066 E7.36849
G1 X124.444 Y141.197 E7.37805
G1 X124.83 Y141.433 E7.3931
G1 X124.855 Y141.451 E7.39413
G1 X125.223 Y141.765 E7.41022
G1 X125.419 Y141.961 E7.41944
G1 X125.733 Y142.329 E7.43553
G1 X125.751 Y142.354 E7.43655
G1 X125.987 Y142.74 E7.4516
G1 X126.118 Y142.996 E7.46116
G1 X126.323 Y143.511 E7.4796
G1 X126.331 Y143.538 E7.48054
G1 X126.419 Y143.928 E7.49383
G1 X126.463 Y144.21 E7.50333
G1 X126.499 Y144.672 E7.51874
G1 X126.499 Y163.707 E8.15185
G1 X126.46 Y164.19 E8.16796
G1 X126.416 Y164.46 E8.17706
G1 X126.331 Y164.829 E8.18966
G1 X126.323 Y164.856 E8.19059
G1 X126.122 Y165.362 E8.2087
G1 X125.993 Y165.616 E8.21818
G1 X125.759 Y166.002 E8.23319
G1 X125.739 Y166.03 E8.23433
G1 X125.419 Y166.407 E8.25078
G1 X125.223 Y166.603 E8.26
G1 X124.855 Y166.917 E8.27609
G1 X124.83 Y166.935 E8.27711
G1 X124.444 Y167.171 E8.29216
G1 X124.188 Y167.302 E8.30173
G1 X123.673 Y167.507 E8.32016
G1 X123.646 Y167.515 E8.3211
G1 X123.257 Y167.603 E8.33436
G1 X122.969 Y167.648 E8.34406
G1 X122.506 Y167.684 E8.35951
G1 X118.545 Y167.684 E8.49125
G1 X118.057 Y167.644 E8.50753
G1 X118.028 Y167.637 E8.50853
G1 X117.592 Y167.684 E8.52311
G1 X117.153 Y167.684 E8.53771
G1 X116.665 Y167.644 E8.554
G1 X116.19 Y167.525 E8.57029
G1 X115.738 Y167.329 E8.58667
G1 X115.652 Y167.283 E8.58992
G1 X115.241 Y167.018 E8.60618
G1 X114.878 Y166.689 E8.62247
G1 X114.591 Y166.332 E8.63771
G1 X114.501 Y166.2 E8.64302
G1 X114.415 Y166.326 E8.6481
G1 X114.107 Y166.707 E8.66439
G1 X113.741 Y167.032 E8.68067
G1 X113.335 Y167.289 E8.69665
G1 X113.242 Y167.338 E8.70015
G1 X112.792 Y167.53 E8.71642
G1 X112.317 Y167.647 E8.73269
G1 X111.844 Y167.684 E8.74847
G1 X111.408 Y167.684 E8.76298
G1 X110.92 Y167.644 E8.77926
G1 X110.878 Y167.634 E8.7807
G1 X110.454 Y167.684 E8.7949
G1 X106.479 Y167.683 E8.92711
G1 X106.004 Y167.645 E8.94295
G1 X105.73 Y167.601 E8.95218
G1 X105.354 Y167.515 E8.96501
G1 X105.327 Y167.507 E8.96595
G1 X104.812 Y167.302 E8.98439
G1 X104.556 Y167.171 E8.99395
G1 X104.17 Y166.935 E9.009
G1 X104.145 Y166.917 E9.01002
G1 X103.777 Y166.603 E9.02611
G1 X103.581 Y166.407 E9.03533
G1 X103.261 Y166.03 E9.05178
G1 X103.241 Y166.002 E9.05292
G1 X103.007 Y165.616 E9.06794
G1 X102.878 Y165.362 E9.07741
G1 X102.677 Y164.856 E9.09552
G1 X102.669 Y164.829 E9.09646
G1 X102.582 Y164.446 E9.10952
G1 X102.537 Y164.162 E9.11908
G1 X102.5 Y163.693 E9.13473
G1 X102.501 Y144.661 E9.76774
G1 X102.54 Y144.18 E9.78379
G1 X102.584 Y143.909 E9.79292
G1 X102.669 Y143.538 E9.80558
G1 X102.677 Y143.511 E9.80652
G1 X102.88 Y143 E9.8248
G1 X103.009 Y142.747 E9.83425
G1 X103.241 Y142.366 E9.84909
G1 X103.261 Y142.338 E9.85023
G1 X103.581 Y141.961 E9.86668
G1 X103.777 Y141.765 E9.8759
G1 X104.145 Y141.451 E9.89199
G0 F6000 X104.379 Y141.776
G1 F900 X104.404 Y141.758 E9.89301
G1 X104.739 Y141.553 E9.90607
G1 X104.995 Y141.422 E9.91564
G1 X105.44 Y141.244 E9.93158
G1 X105.467 Y141.236 E9.93252
G1 X105.805 Y141.16 E9.94404
G1 X106.093 Y141.115 E9.95373
G1 X106.494 Y141.084 E9.96711
G1 X110.455 Y141.084 E10.09886
G1 X110.909 Y141.124 E10.11401
G1 X110.972 Y141.141 E10.11618
G1 X111.409 Y141.084 E10.13084
G1 X111.847 Y141.084 E10.14541
G1 X112.301 Y141.124 E10.16057
G1 X112.741 Y141.242 E10.17572
G1 X113.051 Y141.379 E10.18699
G1 X113.141 Y141.426 E10.19037
G1 X113.524 Y141.672 E10.20551
G1 X113.859 Y141.981 E10.22067
G1 X114.083 Y142.263 E10.23265
G1 X114.238 Y142.474 E10.24135
G1 X114.415 Y142.565 E10.24797
G1 X114.663 Y142.542 E10.25626
G1 X114.795 Y142.439 E10.26183
G1 X114.938 Y142.235 E10.27011
G1 X115.231 Y141.887 E10.28524
G1 X115.581 Y141.595 E10.3004
G1 X115.861 Y141.426 E10.31128
G1 X115.949 Y141.38 E10.31458
G1 X116.369 Y141.205 E10.32972
G1 X116.814 Y141.106 E10.34488
G1 X117.153 Y141.084 E10.35618
G1 X117.591 Y141.084 E10.37075
G1 X118.045 Y141.124 E10.38591
G1 X118.081 Y141.134 E10.38715
G1 X118.546 Y141.084 E10.4027
G1 X122.521 Y141.085 E10.53491
G1 X122.932 Y141.118 E10.54863
G1 X123.206 Y141.162 E10.55786
G1 X123.533 Y141.236 E10.56901
G1 X123.56 Y141.244 E10.56994
G1 X124.005 Y141.422 E10.58588
G1 X124.261 Y141.553 E10.59545
G1 X124.596 Y141.758 E10.60851
G1 X124.621 Y141.776 E10.60954
G1 X124.94 Y142.048 E10.62348
G1 X125.136 Y142.244 E10.6327
G1 X125.408 Y142.563 E10.64664
G1 X125.426 Y142.588 E10.64767
G1 X125.631 Y142.923 E10.66073
G1 X125.762 Y143.179 E10.67029
G1 X125.94 Y143.624 E10.68624
G1 X125.948 Y143.651 E10.68717
G1 X126.024 Y143.989 E10.69869
G1 X126.068 Y144.271 E10.70819
G1 X126.099 Y144.672 E10.72156
G1 X126.099 Y163.707 E11.35467
G1 X126.065 Y164.125 E11.36862
G1 X126.021 Y164.395 E11.37772
G1 X125.948 Y164.716 E11.38867
G1 X125.94 Y164.743 E11.3896
G1 X125.765 Y165.181 E11.40529
G1 X125.636 Y165.435 E11.41477
G1 X125.434 Y165.769 E11.42775
G1 X125.414 Y165.797 E11.42889
G1 X125.136 Y166.124 E11.44317
G1 X124.94 Y166.32 E11.45239
G1 X124.621 Y166.592 E11.46633
G1 X124.596 Y166.61 E11.46736
G1 X124.261 Y166.815 E11.48042
G1 X124.005 Y166.946 E11.48998
G1 X123.56 Y167.124 E11.50593
G1 X123.533 Y167.132 E11.50686
G1 X123.195 Y167.208 E11.51838
G1 X122.907 Y167.253 E11.52808
G1 X122.506 Y167.284 E11.54146
G1 X118.545 Y167.284 E11.6732
G1 X118.091 Y167.244 E11.68836
G1 X118.028 Y167.227 E11.69053
G1 X117.592 Y167.284 E11.70515
G1 X117.153 Y167.284 E11.71975
G1 X116.699 Y167.244 E11.73491
G1 X116.259 Y167.126 E11.75007
G1 X115.927 Y166.977 E11.76217
G1 X115.841 Y166.931 E11.76541
G1 X115.459 Y166.681 E11.7806
G1 X115.127 Y166.369 E11.79575
G1 X114.921 Y166.106 E11.80686
G1 X114.758 Y165.89 E11.81586
G1 X114.537 Y165.794 E11.82388
G1 X114.292 Y165.852 E11.83225
G1 X114.085 Y166.101 E11.84302
G1 X113.796 Y166.453 E11.85817
G1 X113.45 Y166.75 E11.87333
G1 X113.149 Y166.935 E11.88508
G1 X113.056 Y166.984 E11.88858
G1 X112.636 Y167.161 E11.90374
G1 X112.191 Y167.261 E11.91891
G1 X111.844 Y167.284 E11.93048
G1 X111.408 Y167.284 E11.94498
G1 X110.954 Y167.244 E11.96014
G1 X110.918 Y167.234 E11.96138
G1 X110.454 Y167.284 E11.9769
G1 X106.479 Y167.283 E12.10911
G1 X106.068 Y167.25 E12.12282
G1 X105.794 Y167.206 E12.13205
G1 X105.467 Y167.132 E12.14321
G1 X105.44 Y167.124 E12.14414
G1 X104.995 Y166.946 E12.16008
G1 X104.739 Y166.815 E12.16965
G1 X104.404 Y166.61 E12.18271
G1 X104.379 Y166.592 E12.18373
G1 X104.06 Y166.32 E12.19768
G1 X103.864 Y166.124 E12.2069
G1 X103.586 Y165.797 E12.22117
G1 X103.566 Y165.769 E12.22232
G1 X103.364 Y165.435 E12.2353
G1 X103.235 Y165.181 E12.24477
G1 X103.06 Y164.743 E12.26046
G1 X103.052 Y164.716 E12.2614
G1 X102.977 Y164.384 E12.27272
G1 X102.932 Y164.1 E12.28228
G1 X102.9 Y163.693 E12.29586
G1 X102.901 Y144.661 E12.92887
G1 X102.935 Y144.244 E12.94278
G1 X102.979 Y143.973 E12.95192
G1 X103.052 Y143.651 E12.9629
G1 X103.06 Y143.624 E12.96383
