;FLAVOR:Marlin
;TIME:1207
;Filament used: 0.534259m
;Layer height: 0.16
;MINX:103.65
;MINY:149.49
;MINZ:0.2
;MAXX:131.348
;MAXY:177.188
;MAXZ:9.36
;Generated with Cura_SteamEngine 4.13.0
M140 S75
M105
M190 S75
M104 S245
M105
M109 S245
M82 ;absolute extrusion mode
; Ender 3 Custom Start G-code
G92 E0 ; Reset Extruder
G28 ; Home all axes
G1 Z2.0 F3000 ; Move Z Axis up little to prevent scratching of Heat Bed
G1 X0.1 Y20 Z0.3 F5000.0 ; Move to start position
G1 X0.1 Y200.0 Z0.3 F1500.0 E15 ; Draw the first line
G1 X0.4 Y200.0 Z0.3 F5000.0 ; Move to side a little
G1 X0.4 Y20 Z0.3 F1500.0 E30 ; Draw the second line
G92 E0 ; Reset Extruder
G1 Z2.0 F3000 ; Move Z Axis up little to prevent scratching of Heat Bed
G1 X5 Y20 Z0.3 F5000.0 ; Move over to prevent blob squish
G92 E0
G92 E0
G1 F1200 E-6
;LAYER_COUNT:57
;LAYER:0
M107
M204 S500
M205 X16 Y16
G0 F6000 X108.011 Y152.863 Z0.2
;TYPE:SKIRT
G1 F1200 E0
G1 F900 X108.473 Y152.563 E0.01832
G1 X109.172 Y152.265 E0.0436
G1 X109.252 Y152.24 E0.04638
G1 X109.788 Y152.114 E0.0647
G1 X110.337 Y152.067 E0.08302
G1 X110.648 Y152.078 E0.09337
G1 X111.002 Y152.088 E0.10515
G1 X111.162 Y151.802 E0.11605
G1 X111.297 Y151.525 E0.1263
G1 X111.608 Y151.07 E0.14463
G1 X112.12 Y150.541 E0.16912
G1 X112.18 Y150.49 E0.17174
G1 X112.625 Y150.164 E0.19008
G1 X113.112 Y149.906 E0.20841
G1 X113.617 Y149.726 E0.22625
G1 X113.96 Y149.63 E0.23809
G1 X114.5 Y149.52 E0.25642
G1 X115.05 Y149.49 E0.27474
G1 X115.623 Y149.543 E0.29388
G1 X115.711 Y149.558 E0.29685
G1 X116.246 Y149.69 E0.31518
G1 X116.756 Y149.897 E0.33348
G1 X117.203 Y150.168 E0.35087
G1 X117.242 Y150.186 E0.3523
G1 X117.488 Y150.356 E0.36225
G1 X117.71 Y150.226 E0.3708
G1 X118.001 Y150.027 E0.38253
G1 X118.496 Y149.785 E0.40085
G1 X119.184 Y149.581 E0.42472
G1 X119.286 Y149.561 E0.42818
G1 X119.833 Y149.494 E0.44651
G1 X120.384 Y149.508 E0.46484
G1 X120.991 Y149.617 E0.48535
G1 X121.323 Y149.705 E0.49678
G1 X121.844 Y149.884 E0.5151
G1 X122.333 Y150.137 E0.53341
G1 X122.841 Y150.509 E0.55435
G1 X122.902 Y150.562 E0.55704
G1 X123.291 Y150.953 E0.57538
G1 X123.619 Y151.396 E0.59372
G1 X123.82 Y151.768 E0.60778
G1 X123.876 Y151.85 E0.61108
G1 X123.982 Y152.085 E0.61966
G1 X124.45 Y152.077 E0.63523
G1 X124.645 Y152.065 E0.64172
G1 X125.194 Y152.11 E0.66004
G1 X125.644 Y152.208 E0.67536
G1 X125.722 Y152.23 E0.67806
G1 X126.24 Y152.417 E0.69638
G1 X126.725 Y152.678 E0.71469
G1 X127.168 Y153.006 E0.73303
G1 X127.382 Y153.205 E0.74275
G1 X127.637 Y153.461 E0.75476
G1 X127.997 Y153.879 E0.77311
G1 X128.292 Y154.344 E0.79143
G1 X128.495 Y154.788 E0.80767
G1 X128.524 Y154.864 E0.81037
G1 X128.683 Y155.392 E0.82871
G1 X128.764 Y155.937 E0.84704
G1 X128.757 Y156.468 E0.8647
G1 X128.751 Y156.842 E0.87714
G1 X129.025 Y156.996 E0.8876
G1 X129.292 Y157.125 E0.89746
G1 X129.749 Y157.434 E0.91581
G1 X130.228 Y157.884 E0.93767
G1 X130.288 Y157.951 E0.94066
G1 X130.625 Y158.387 E0.95899
G1 X130.895 Y158.867 E0.9773
G1 X131.12 Y159.474 E0.99883
G1 X131.212 Y159.807 E1.01032
G1 X131.32 Y160.347 E1.02864
G1 X131.348 Y160.898 E1.04699
G1 X131.3 Y161.425 E1.06459
G1 X131.284 Y161.524 E1.06793
G1 X131.157 Y162.06 E1.08625
G1 X130.954 Y162.573 E1.1046
G1 X130.666 Y163.055 E1.12327
G1 X130.495 Y163.343 E1.13441
G1 X130.669 Y163.636 E1.14575
G1 X130.806 Y163.834 E1.15376
G1 X131.05 Y164.328 E1.17208
G1 X131.262 Y165.047 E1.19701
G1 X131.282 Y165.152 E1.20057
G1 X131.345 Y165.699 E1.21888
G1 X131.329 Y166.25 E1.23722
G1 X131.221 Y166.841 E1.2572
G1 X131.136 Y167.16 E1.26818
G1 X130.956 Y167.681 E1.28651
G1 X130.702 Y168.17 E1.30484
G1 X130.357 Y168.645 E1.32437
G1 X130.294 Y168.719 E1.3276
G1 X129.908 Y169.112 E1.34592
G1 X129.468 Y169.444 E1.36425
G1 X129.091 Y169.65 E1.37854
G1 X128.993 Y169.717 E1.38249
G1 X128.752 Y169.824 E1.39126
G1 X128.756 Y170.135 E1.4016
G1 X128.778 Y170.421 E1.41114
G1 X128.741 Y170.971 E1.42948
G1 X128.579 Y171.657 E1.45292
G1 X128.547 Y171.752 E1.45626
G1 X128.334 Y172.26 E1.47458
G1 X128.049 Y172.732 E1.49292
G1 X127.638 Y173.221 E1.51416
G1 X127.391 Y173.469 E1.52581
G1 X126.975 Y173.83 E1.54412
G1 X126.511 Y174.127 E1.56245
G1 X126.022 Y174.349 E1.58031
G1 X125.952 Y174.375 E1.58279
G1 X125.423 Y174.529 E1.60112
G1 X124.877 Y174.605 E1.61945
G1 X124.297 Y174.599 E1.63875
G1 X123.999 Y174.591 E1.64866
G1 X123.84 Y174.87 E1.65934
G1 X123.712 Y175.134 E1.6691
G1 X123.403 Y175.59 E1.68742
G1 X122.943 Y176.076 E1.70968
G1 X122.872 Y176.139 E1.71283
G1 X122.435 Y176.474 E1.73115
G1 X121.953 Y176.742 E1.74949
G1 X121.368 Y176.958 E1.77023
G1 X121.037 Y177.05 E1.78166
G1 X120.496 Y177.159 E1.80001
G1 X119.946 Y177.188 E1.81833
G1 X119.413 Y177.14 E1.83613
G1 X119.314 Y177.124 E1.83947
G1 X118.778 Y176.997 E1.85779
G1 X118.265 Y176.794 E1.87614
G1 X117.815 Y176.526 E1.89356
G1 X117.605 Y176.389 E1.9019
G1 X117.514 Y176.326 E1.90558
G1 X117.116 Y176.565 E1.92102
G1 X116.958 Y176.671 E1.92735
G1 X116.461 Y176.909 E1.94568
G1 X115.715 Y177.116 E1.97143
G1 X115.627 Y177.131 E1.9744
G1 X115.078 Y177.184 E1.99274
G1 X114.528 Y177.157 E2.01105
G1 X114.046 Y177.066 E2.02737
G1 X113.71 Y176.98 E2.03891
G1 X113.187 Y176.805 E2.05725
G1 X112.696 Y176.557 E2.07554
G1 X112.141 Y176.151 E2.09842
G1 X112.074 Y176.092 E2.10138
G1 X111.688 Y175.699 E2.11971
G1 X111.363 Y175.254 E2.13803
G1 X111.194 Y174.939 E2.14992
G1 X111.123 Y174.834 E2.15414
G1 X111.015 Y174.591 E2.16298
G1 X110.581 Y174.598 E2.17742
G1 X110.34 Y174.613 E2.18545
G1 X109.791 Y174.566 E2.20378
G1 X109.258 Y174.442 E2.22198
G1 X109.171 Y174.415 E2.22501
G1 X108.658 Y174.214 E2.24333
G1 X108.179 Y173.941 E2.26167
G1 X107.604 Y173.467 E2.28646
G1 X107.366 Y173.228 E2.29768
G1 X107.007 Y172.811 E2.31598
G1 X106.712 Y172.346 E2.33429
G1 X106.488 Y171.846 E2.35251
G1 X106.456 Y171.758 E2.35563
G1 X106.306 Y171.228 E2.37395
G1 X106.234 Y170.681 E2.3923
G1 X106.244 Y170.216 E2.40777
G1 X106.249 Y169.839 E2.42031
G1 X105.87 Y169.635 E2.43463
G1 X105.688 Y169.545 E2.44138
G1 X105.233 Y169.234 E2.45971
G1 X104.695 Y168.709 E2.48471
G1 X104.637 Y168.64 E2.48771
G1 X104.314 Y168.194 E2.50602
G1 X104.059 Y167.705 E2.52437
G1 X103.89 Y167.23 E2.54114
G1 X103.794 Y166.891 E2.55285
G1 X103.682 Y166.352 E2.57116
G1 X103.65 Y165.802 E2.58949
G1 X103.725 Y165.104 E2.61284
G1 X103.745 Y165.005 E2.6162
G1 X103.893 Y164.474 E2.63453
G1 X104.116 Y163.97 E2.65286
G1 X104.382 Y163.542 E2.66962
G1 X104.512 Y163.343 E2.67753
G1 X104.343 Y163.06 E2.68849
G1 X104.182 Y162.823 E2.69802
G1 X103.941 Y162.327 E2.71636
G1 X103.743 Y161.653 E2.73973
G1 X103.723 Y161.551 E2.74318
G1 X103.656 Y161.004 E2.76151
G1 X103.67 Y160.453 E2.77985
G1 X103.777 Y159.853 E2.80012
G1 X103.863 Y159.526 E2.81136
G1 X104.041 Y159.005 E2.82967
G1 X104.293 Y158.515 E2.848
G1 X104.639 Y158.036 E2.86765
G1 X104.689 Y157.977 E2.87023
G1 X105.075 Y157.584 E2.88855
G1 X105.513 Y157.25 E2.90687
G1 X105.944 Y157.008 E2.92331
G1 X106.25 Y156.853 E2.93472
G1 X106.243 Y156.482 E2.94706
G1 X106.225 Y156.198 E2.95652
G1 X106.27 Y155.649 E2.97485
G1 X106.416 Y155.044 E2.99555
G1 X106.444 Y154.959 E2.99852
G1 X106.654 Y154.45 E3.01684
G1 X106.935 Y153.976 E3.03516
G1 X107.345 Y153.482 E3.05652
G1 X107.597 Y153.226 E3.06846
G1 X108.011 Y152.863 E3.08678
G0 F6000 X108.275 Y153.165
G1 F900 X108.716 Y152.886 E3.10413
G1 X109.291 Y152.647 E3.12484
G1 X109.371 Y152.622 E3.12763
G1 X109.879 Y152.505 E3.14497
G1 X110.399 Y152.467 E3.16231
G1 X110.674 Y152.479 E3.17147
G1 X110.816 Y152.471 E3.1762
G1 X111.258 Y152.513 E3.19096
G1 X111.346 Y152.285 E3.19909
G1 X111.507 Y152.004 E3.20986
G1 X111.657 Y151.702 E3.22108
G1 X111.956 Y151.275 E3.23842
G1 X112.379 Y150.845 E3.25848
G1 X112.439 Y150.794 E3.2611
G1 X112.861 Y150.488 E3.27844
G1 X113.324 Y150.25 E3.29575
G1 X113.725 Y150.111 E3.30987
G1 X114.068 Y150.015 E3.32171
G1 X114.579 Y149.913 E3.33904
G1 X115.099 Y149.891 E3.35635
G1 X115.555 Y149.937 E3.3716
G1 X115.643 Y149.952 E3.37457
G1 X116.149 Y150.079 E3.39192
G1 X116.629 Y150.281 E3.40924
G1 X117.055 Y150.544 E3.42589
G1 X117.095 Y150.563 E3.42736
G1 X117.485 Y150.838 E3.44324
G1 X117.507 Y150.851 E3.44409
G1 X117.726 Y150.677 E3.45339
G1 X117.926 Y150.563 E3.46105
G1 X118.227 Y150.359 E3.47314
G1 X118.698 Y150.135 E3.49049
G1 X119.261 Y149.974 E3.50996
G1 X119.363 Y149.954 E3.51342
G1 X119.88 Y149.893 E3.53074
G1 X120.401 Y149.912 E3.54808
G1 X120.888 Y150.003 E3.56455
G1 X121.22 Y150.091 E3.57598
G1 X121.712 Y150.263 E3.59331
G1 X122.172 Y150.508 E3.61065
G1 X122.579 Y150.811 E3.62752
G1 X122.64 Y150.864 E3.63021
G1 X123.006 Y151.235 E3.64754
G1 X123.311 Y151.658 E3.66489
G1 X123.494 Y152.004 E3.67791
G1 X123.557 Y152.099 E3.6817
G1 X123.743 Y152.52 E3.69701
G1 X123.987 Y152.482 E3.70522
G1 X124.42 Y152.48 E3.71962
G1 X124.669 Y152.465 E3.72792
G1 X125.188 Y152.514 E3.74526
G1 X125.535 Y152.593 E3.75709
G1 X125.613 Y152.615 E3.75979
G1 X126.102 Y152.794 E3.77711
G1 X126.558 Y153.046 E3.79444
G1 X127.099 Y153.488 E3.81767
G1 X127.354 Y153.744 E3.82969
G1 X127.692 Y154.14 E3.84701
G1 X127.966 Y154.583 E3.86433
G1 X128.122 Y154.931 E3.87702
G1 X128.151 Y155.007 E3.87972
G1 X128.299 Y155.507 E3.89707
G1 X128.368 Y156.023 E3.91438
G1 X128.358 Y156.52 E3.93091
G1 X128.367 Y156.691 E3.93661
G1 X128.325 Y157.097 E3.95019
G1 X128.557 Y157.188 E3.95847
G1 X128.822 Y157.342 E3.96867
G1 X129.117 Y157.486 E3.97959
G1 X129.545 Y157.784 E3.99693
G1 X129.93 Y158.151 E4.01462
G1 X129.99 Y158.218 E4.01761
G1 X130.307 Y158.632 E4.03496
G1 X130.557 Y159.089 E4.05228
G1 X130.734 Y159.581 E4.06967
G1 X130.826 Y159.914 E4.08116
G1 X130.926 Y160.425 E4.09848
G1 X130.947 Y160.946 E4.11583
G1 X130.905 Y161.361 E4.1297
G1 X130.889 Y161.46 E4.13303
G1 X130.767 Y161.967 E4.15038
G1 X130.569 Y162.449 E4.16771
G1 X130.287 Y162.913 E4.18577
G1 X130.185 Y163.097 E4.19277
G1 X130.008 Y163.313 E4.20205
G1 X129.992 Y163.341 E4.20313
G1 X130.147 Y163.533 E4.21133
G1 X130.326 Y163.844 E4.22327
G1 X130.475 Y164.061 E4.23202
G1 X130.7 Y164.531 E4.24936
G1 X130.869 Y165.122 E4.2698
G1 X130.889 Y165.227 E4.27336
G1 X130.947 Y165.745 E4.29069
G1 X130.925 Y166.265 E4.308
G1 X130.834 Y166.738 E4.32402
G1 X130.749 Y167.057 E4.335
G1 X130.577 Y167.549 E4.35234
G1 X130.331 Y168.009 E4.36969
G1 X130.053 Y168.386 E4.38527
G1 X129.99 Y168.46 E4.3885
G1 X129.623 Y168.83 E4.40583
G1 X129.203 Y169.139 E4.42318
G1 X128.847 Y169.33 E4.43661
G1 X128.744 Y169.398 E4.44072
G1 X128.316 Y169.584 E4.45624
G1 X128.355 Y169.833 E4.46462
G1 X128.355 Y170.145 E4.475
G1 X128.378 Y170.452 E4.48524
G1 X128.337 Y170.971 E4.50255
G1 X128.2 Y171.529 E4.52167
G1 X128.168 Y171.624 E4.525
G1 X127.964 Y172.104 E4.54235
G1 X127.69 Y172.547 E4.55967
G1 X127.355 Y172.938 E4.5768
G1 X127.108 Y173.186 E4.58844
G1 X126.713 Y173.526 E4.60577
G1 X126.271 Y173.802 E4.6231
G1 X125.883 Y173.974 E4.63722
G1 X125.813 Y174 E4.6397
G1 X125.312 Y174.144 E4.65704
G1 X124.795 Y174.209 E4.67437
G1 X124.344 Y174.201 E4.68938
G1 X124.1 Y174.204 E4.69749
G1 X123.748 Y174.15 E4.70934
G1 X123.645 Y174.411 E4.71867
G1 X123.491 Y174.672 E4.72875
G1 X123.351 Y174.958 E4.73934
G1 X123.053 Y175.386 E4.75668
G1 X122.678 Y175.777 E4.7747
G1 X122.607 Y175.84 E4.77786
G1 X122.191 Y176.155 E4.79522
G1 X121.733 Y176.403 E4.81254
G1 X121.26 Y176.573 E4.82926
G1 X120.929 Y176.665 E4.84068
G1 X120.418 Y176.765 E4.858
G1 X119.897 Y176.787 E4.87535
G1 X119.477 Y176.745 E4.88938
G1 X119.378 Y176.729 E4.89272
G1 X118.871 Y176.607 E4.91006
G1 X118.389 Y176.409 E4.92739
G1 X117.96 Y176.149 E4.94408
G1 X117.921 Y176.13 E4.94552
G1 X117.503 Y175.834 E4.96256
G1 X117.338 Y175.968 E4.96963
G1 X116.933 Y176.206 E4.98525
G1 X116.735 Y176.338 E4.99317
G1 X116.262 Y176.556 E5.01049
G1 X115.647 Y176.722 E5.03168
G1 X115.559 Y176.737 E5.03465
G1 X115.04 Y176.785 E5.05198
G1 X114.52 Y176.753 E5.06931
G1 X114.145 Y176.679 E5.08202
G1 X113.809 Y176.593 E5.09356
G1 X113.315 Y176.425 E5.11091
G1 X112.853 Y176.184 E5.12824
G1 X112.405 Y175.851 E5.14681
G1 X112.338 Y175.792 E5.14978
G1 X111.974 Y175.418 E5.16714
G1 X111.672 Y174.994 E5.18445
G1 X111.518 Y174.699 E5.19552
G1 X111.442 Y174.585 E5.20008
G1 X111.255 Y174.156 E5.21564
G1 X111.014 Y174.194 E5.22376
G1 X110.612 Y174.196 E5.23713
G1 X110.316 Y174.212 E5.24699
G1 X109.798 Y174.162 E5.26429
G1 X109.376 Y174.06 E5.27873
G1 X109.289 Y174.033 E5.28176
G1 X108.805 Y173.841 E5.29908
G1 X108.355 Y173.577 E5.31644
G1 X107.888 Y173.185 E5.33671
G1 X107.65 Y172.946 E5.34793
G1 X107.311 Y172.55 E5.36527
G1 X107.038 Y172.106 E5.38261
G1 X106.864 Y171.709 E5.39702
G1 X106.832 Y171.621 E5.40014
G1 X106.692 Y171.119 E5.41747
G1 X106.63 Y170.601 E5.43482
G1 X106.643 Y170.169 E5.4492
G1 X106.634 Y169.968 E5.45589
G1 X106.676 Y169.586 E5.46867
G1 X106.485 Y169.515 E5.47545
G1 X106.121 Y169.313 E5.4893
G1 X105.865 Y169.186 E5.4988
G1 X105.439 Y168.886 E5.51613
G1 X105.001 Y168.452 E5.53664
G1 X104.943 Y168.383 E5.53964
G1 X104.64 Y167.959 E5.55697
G1 X104.404 Y167.494 E5.57431
G1 X104.275 Y167.121 E5.58744
G1 X104.179 Y166.782 E5.59916
G1 X104.075 Y166.272 E5.61647
G1 X104.052 Y165.751 E5.63382
G1 X104.117 Y165.183 E5.65283
G1 X104.137 Y165.084 E5.65619
G1 X104.279 Y164.582 E5.67354
G1 X104.496 Y164.108 E5.69088
G1 X104.697 Y163.79 E5.70339
G1 X104.784 Y163.643 E5.70907
G1 X104.997 Y163.351 E5.7211
G1 X105.01 Y163.332 E5.72186
G1 X104.846 Y163.128 E5.73057
G1 X104.697 Y162.87 E5.74048
G1 X104.514 Y162.599 E5.75135
G1 X104.293 Y162.127 E5.76869
G1 X104.136 Y161.576 E5.78774
G1 X104.116 Y161.474 E5.7912
G1 X104.055 Y160.957 E5.80852
G1 X104.074 Y160.436 E5.82586
G1 X104.164 Y159.955 E5.84213
G1 X104.25 Y159.628 E5.85338
G1 X104.421 Y159.136 E5.8707
G1 X104.665 Y158.675 E5.88805
G1 X104.944 Y158.295 E5.90373
G1 X104.994 Y158.236 E5.9063
G1 X105.361 Y157.865 E5.92366
G1 X105.779 Y157.555 E5.94097
G1 X106.117 Y157.369 E5.9538
G1 X106.297 Y157.263 E5.96075
G1 X106.685 Y157.092 E5.97485
G1 X106.647 Y156.855 E5.98283
G1 X106.645 Y156.502 E5.99457
G1 X106.626 Y156.173 E6.00553
G1 X106.675 Y155.654 E6.02287
G1 X106.796 Y155.169 E6.0395
G1 X106.824 Y155.084 E6.04247
G1 X107.024 Y154.603 E6.0598
G1 X107.296 Y154.158 E6.07715
G1 X107.63 Y153.763 E6.09435
G1 X107.882 Y153.507 E6.1063
G1 X108.275 Y153.165 E6.12363
G0 F6000 X108.538 Y153.468
G1 F900 X108.955 Y153.213 E6.13989
G1 X109.41 Y153.029 E6.15621
G1 X109.49 Y153.004 E6.159
G1 X109.968 Y152.896 E6.1753
G1 X110.637 Y152.878 E6.19755
G1 X110.868 Y152.872 E6.20524
G1 X111.354 Y152.93 E6.22152
G1 X111.522 Y152.952 E6.22716
G1 X111.542 Y152.886 E6.22945
G1 X111.72 Y152.43 E6.24573
G1 X111.849 Y152.215 E6.25407
G1 X112.016 Y151.88 E6.26652
G1 X112.303 Y151.484 E6.28279
G1 X112.638 Y151.15 E6.29852
G1 X112.698 Y151.099 E6.30114
G1 X113.096 Y150.814 E6.31742
G1 X113.534 Y150.597 E6.33368
G1 X113.832 Y150.496 E6.34414
G1 X114.175 Y150.4 E6.35599
G1 X114.656 Y150.307 E6.37228
G1 X115.145 Y150.293 E6.38856
G1 X115.488 Y150.332 E6.40004
G1 X115.576 Y150.347 E6.40301
G1 X116.05 Y150.468 E6.41928
G1 X116.498 Y150.665 E6.43555
G1 X116.832 Y150.874 E6.44866
G1 X116.945 Y150.939 E6.45299
G1 X117.312 Y151.203 E6.46803
G1 X117.506 Y151.342 E6.47597
G1 X117.653 Y151.244 E6.48185
G1 X117.974 Y150.992 E6.49542
G1 X118.137 Y150.903 E6.5016
G1 X118.452 Y150.691 E6.51422
G1 X118.897 Y150.488 E6.53049
G1 X119.338 Y150.366 E6.54571
G1 X119.44 Y150.346 E6.54917
G1 X119.926 Y150.291 E6.56544
G1 X120.415 Y150.317 E6.58172
G1 X120.786 Y150.39 E6.5943
G1 X121.118 Y150.478 E6.60572
G1 X121.579 Y150.642 E6.622
G1 X122.008 Y150.878 E6.63828
G1 X122.317 Y151.113 E6.65119
G1 X122.378 Y151.166 E6.65388
G1 X122.72 Y151.517 E6.67018
G1 X123 Y151.918 E6.68645
G1 X123.155 Y152.219 E6.69771
G1 X123.236 Y152.346 E6.70272
G1 X123.434 Y152.808 E6.71944
G1 X123.499 Y152.968 E6.72518
G1 X123.565 Y152.952 E6.72744
G1 X124.048 Y152.878 E6.74369
G1 X124.398 Y152.882 E6.75533
G1 X124.692 Y152.866 E6.76513
G1 X125.179 Y152.919 E6.78142
G1 X125.426 Y152.978 E6.78987
G1 X125.504 Y153 E6.79256
G1 X125.963 Y153.171 E6.80885
G1 X126.388 Y153.414 E6.82514
G1 X126.815 Y153.77 E6.84363
G1 X127.07 Y154.026 E6.85564
G1 X127.386 Y154.4 E6.87193
G1 X127.637 Y154.82 E6.8882
G1 X127.748 Y155.073 E6.89739
G1 X127.777 Y155.149 E6.9001
