;FLAVOR:Marlin
;TIME:2066
;Filament used: 1.89686m
;Layer height: 0.16
;MINX:85.688
;MINY:125.939
;MINZ:0.24
;MAXX:149.312
;MAXY:189.406
;MAXZ:5.95
;Generated with Cura_SteamEngine 4.13.0
M140 S75
M105
M190 S75
M104 S245
M105
M109 S245
M82 ;absolute extrusion mode
; Ender 3 Custom Start G-code
G92 E0 ; Reset Extruder
G28 ; Home all axes
G1 Z2.0 F3000 ; Move Z Axis up little to prevent scratching of Heat Bed
G1 X0.1 Y20 Z0.3 F5000.0 ; Move to start position
G1 X0.1 Y200.0 Z0.3 F1500.0 E15 ; Draw the first line
G1 X0.4 Y200.0 Z0.3 F5000.0 ; Move to side a little
G1 X0.4 Y20 Z0.3 F1500.0 E30 ; Draw the second line
G92 E0 ; Reset Extruder
G1 Z2.0 F3000 ; Move Z Axis up little to prevent scratching of Heat Bed
G1 X5 Y20 Z0.3 F5000.0 ; Move over to prevent blob squish
G92 E0
G92 E0
G1 F1200 E-6
;LAYER_COUNT:26
;LAYER:-6
M107
M204 S500
M205 X16 Y16
G0 F12000 X99.501 Y132.702 Z0.24
;TYPE:SUPPORT-INTERFACE
G1 F1200 E0
G1 F1800 X99.614 Y132.62 E0.01114
G1 X99.965 Y132.376 E0.04527
G1 X100.656 Y131.909 E0.11184
G1 X100.813 Y131.81 E0.12666
G1 X101.606 Y131.352 E0.19976
G1 X101.729 Y131.287 E0.21086
G1 X102.562 Y130.885 E0.28469
G1 X102.647 Y130.847 E0.29213
G1 X103.379 Y130.45 E0.3586
G1 X103.664 Y130.264 E0.38576
G1 X103.774 Y130.198 E0.396
G1 X104.557 Y129.765 E0.46743
G1 X104.739 Y129.675 E0.48364
G1 X106.044 Y129.098 E0.59753
G1 X106.544 Y128.906 E0.64029
G1 X106.642 Y128.872 E0.64857
G1 X107.213 Y128.655 E0.69733
G1 X107.394 Y128.594 E0.71257
G1 X108.228 Y128.346 E0.78203
G1 X108.412 Y128.299 E0.79719
G1 X109.255 Y128.114 E0.86608
G1 X109.527 Y128.064 E0.88816
G1 X110.286 Y127.866 E0.95077
G1 X110.716 Y127.719 E0.98705
G1 X110.863 Y127.675 E0.9993
G1 X111.71 Y127.454 E1.06917
G1 X111.929 Y127.406 E1.08707
G1 X113.19 Y127.188 E1.18922
G1 X113.302 Y127.172 E1.19825
G1 X113.752 Y127.117 E1.23444
G1 X114.017 Y127.088 E1.25572
G1 X114.358 Y127.044 E1.28316
G1 X114.536 Y127.028 E1.29743
G1 X115.401 Y126.981 E1.36658
G1 X115.588 Y126.977 E1.38151
G1 X116.486 Y126.994 E1.4532
G1 X117.17 Y127.031 E1.50788
G1 X117.17 Y127.006 E1.50988
G1 X117.607 Y127.005 E1.54476
G1 X118.032 Y126.967 E1.57882
G1 X118.185 Y126.958 E1.59106
G1 X119.078 Y126.943 E1.66235
G1 X119.269 Y126.948 E1.6776
G1 X120.691 Y127.048 E1.79139
G1 X121.155 Y127.104 E1.8287
G1 X121.424 Y127.142 E1.85039
G1 X121.91 Y127.202 E1.88948
G1 X122.072 Y127.228 E1.90257
G1 X122.959 Y127.404 E1.97476
G1 X123.098 Y127.438 E1.98618
G1 X123.966 Y127.678 E2.05807
G1 X124.165 Y127.74 E2.07471
G1 X124.972 Y127.925 E2.14079
G1 X125.294 Y127.973 E2.16678
G1 X125.454 Y128.002 E2.17976
G1 X126.331 Y128.199 E2.25151
G1 X126.5 Y128.245 E2.26549
G1 X127.844 Y128.675 E2.37813
G1 X127.94 Y128.708 E2.38624
G1 X128.361 Y128.868 E2.42219
G1 X128.44 Y128.901 E2.42902
G1 X129.096 Y129.153 E2.48512
G1 X129.229 Y129.21 E2.49667
G1 X130.076 Y129.608 E2.57137
G1 X130.181 Y129.663 E2.58083
G1 X130.996 Y130.12 E2.65542
G1 X131.15 Y130.214 E2.66982
G1 X131.87 Y130.58 E2.7343
G1 X132.206 Y130.719 E2.76332
G1 X132.354 Y130.787 E2.77632
G1 X133.158 Y131.19 E2.84811
G1 X133.299 Y131.268 E2.86098
G1 X134.483 Y131.996 E2.97192
G1 X134.559 Y132.046 E2.97919
G1 X134.908 Y132.287 E3.01304
G1 X135.013 Y132.364 E3.02343
G1 X135.563 Y132.746 E3.07689
G1 X135.688 Y132.84 E3.08937
G1 X136.379 Y133.399 E3.16032
G1 X136.52 Y133.521 E3.1752
G1 X137.171 Y134.131 E3.24642
G1 X137.312 Y134.274 E3.26245
G1 X137.932 Y134.808 E3.32777
G1 X138.204 Y135.008 E3.35472
G1 X138.381 Y135.148 E3.37273
G1 X139.013 Y135.687 E3.43903
G1 X139.175 Y135.838 E3.45671
G1 X140.181 Y136.862 E3.5713
G1 X140.479 Y137.198 E3.60715
G1 X140.534 Y137.265 E3.61407
G1 X141.031 Y137.834 E3.67438
G1 X141.124 Y137.948 E3.68612
G1 X141.674 Y138.679 E3.75914
G1 X141.758 Y138.799 E3.77084
G1 X142.256 Y139.572 E3.84424
G1 X142.308 Y139.66 E3.8524
G1 X142.777 Y140.328 E3.91755
G1 X143.097 Y140.717 E3.95776
G1 X143.19 Y140.837 E3.96988
G1 X143.713 Y141.576 E4.04214
G1 X143.812 Y141.73 E4.05676
G1 X144.459 Y142.83 E4.15863
G1 X144.52 Y142.938 E4.16853
G1 X144.749 Y143.377 E4.20805
G1 X144.794 Y143.471 E4.21637
G1 X145.003 Y143.862 E4.25176
G1 X145.062 Y143.981 E4.26236
G1 X145.435 Y144.821 E4.33573
G1 X145.498 Y144.977 E4.34916
G1 X145.797 Y145.81 E4.41981
G1 X145.995 Y146.433 E4.47199
G1 X146.019 Y146.427 E4.47396
G1 X146.202 Y146.908 E4.51504
G1 X146.342 Y147.192 E4.54032
G1 X146.413 Y147.351 E4.55422
G1 X146.745 Y148.173 E4.62498
G1 X146.807 Y148.346 E4.63965
G1 X147.22 Y149.71 E4.75342
G1 X147.251 Y149.822 E4.76269
G1 X147.358 Y150.256 E4.79837
G1 X147.384 Y150.379 E4.80841
G1 X147.519 Y150.921 E4.853
G1 X147.547 Y151.049 E4.86345
G1 X147.701 Y151.942 E4.93579
G1 X147.725 Y152.125 E4.95052
G1 X147.811 Y152.994 E5.02023
G1 X147.851 Y153.645 E5.07229
G1 X147.88 Y153.645 E5.07461
G1 X147.93 Y154.066 E5.10845
G1 X148.029 Y154.536 E5.14679
G1 X148.055 Y154.684 E5.15879
G1 X148.176 Y155.573 E5.2304
G1 X148.192 Y155.749 E5.24451
G1 X148.256 Y157.059 E5.34921
G1 X148.258 Y157.135 E5.35527
G1 X148.258 Y157.629 E5.39471
G1 X148.255 Y157.727 E5.40253
G1 X148.256 Y158.272 E5.44604
G1 X148.25 Y158.458 E5.46089
G1 X148.187 Y159.33 E5.53068
G1 X148.168 Y159.513 E5.54537
G1 X148.038 Y160.406 E5.6174
G1 X147.92 Y161.044 E5.66919
G1 X147.95 Y161.05 E5.67164
G1 X147.905 Y161.435 E5.70258
G1 X147.887 Y161.945 E5.74331
G1 X147.876 Y162.095 E5.75532
G1 X147.778 Y163 E5.82798
G1 X147.75 Y163.187 E5.84308
G1 X147.505 Y164.428 E5.94405
G1 X147.485 Y164.525 E5.95196
G1 X147.376 Y164.969 E5.98845
G1 X147.342 Y165.084 E5.99802
G1 X147.2 Y165.665 E6.04577
G1 X147.16 Y165.806 E6.05747
G1 X146.886 Y166.65 E6.1283
G1 X146.822 Y166.823 E6.14302
G1 X146.485 Y167.651 E6.21438
G1 X146.372 Y167.903 E6.23643
G1 X146.112 Y168.619 E6.29723
G1 X145.999 Y169.02 E6.33049
G1 X145.939 Y169.207 E6.34617
G1 X145.634 Y170.047 E6.4175
G1 X145.564 Y170.216 E6.4321
G1 X145.007 Y171.42 E6.538
G1 X144.957 Y171.521 E6.54699
G1 X144.673 Y172.057 E6.59542
G1 X144.507 Y172.381 E6.62448
G1 X144.411 Y172.552 E6.64013
G1 X143.951 Y173.309 E6.71084
G1 X143.861 Y173.446 E6.72392
G1 X143.336 Y174.183 E6.79615
G1 X143.164 Y174.401 E6.81832
G1 X142.666 Y175.124 E6.8884
G1 X142.41 Y175.573 E6.92966
G1 X142.334 Y175.695 E6.94113
G1 X141.829 Y176.445 E7.0133
G1 X141.711 Y176.606 E7.02924
G1 X140.933 Y177.576 E7.1285
G1 X140.847 Y177.677 E7.13908
G1 X140.582 Y177.978 E7.1711
G1 X140.518 Y178.046 E7.17855
G1 X139.992 Y178.63 E7.24129
G1 X139.886 Y178.739 E7.25343
G1 X139.216 Y179.382 E7.32755
G1 X139.11 Y179.477 E7.33892
G1 X138.394 Y180.069 E7.41308
G1 X138.343 Y180.108 E7.4182
G1 X137.717 Y180.672 E7.48546
G1 X137.447 Y180.959 E7.51691
G1 X137.311 Y181.092 E7.5321
G1 X136.693 Y181.659 E7.59905
G1 X136.495 Y181.825 E7.61967
G1 X135.512 Y182.581 E7.71866
G1 X135.374 Y182.682 E7.73231
G1 X135.026 Y182.923 E7.7661
G1 X134.925 Y182.988 E7.77569
G1 X134.459 Y183.312 E7.821
G1 X134.308 Y183.409 E7.83532
G1 X133.55 Y183.858 E7.90565
G1 X133.395 Y183.942 E7.91972
G1 X132.597 Y184.338 E7.99083
G1 X131.982 Y184.616 E8.04471
G1 X131.929 Y184.657 E8.05006
G1 X131.596 Y184.858 E8.0811
G1 X131.332 Y185.031 E8.1063
G1 X131.226 Y185.095 E8.11618
G1 X130.444 Y185.527 E8.1875
G1 X130.261 Y185.618 E8.20381
G1 X128.949 Y186.198 E8.31832
G1 X128.876 Y186.228 E8.32462
G1 X128.439 Y186.394 E8.36193
G1 X128.329 Y186.432 E8.37122
G1 X127.798 Y186.634 E8.41657
G1 X127.656 Y186.682 E8.42854
G1 X126.795 Y186.941 E8.50031
G1 X126.631 Y186.984 E8.51384
G1 X125.738 Y187.182 E8.58686
G1 X125.118 Y187.295 E8.63716
G1 X125.122 Y187.325 E8.63958
G1 X124.717 Y187.425 E8.67288
G1 X124.283 Y187.572 E8.70946
G1 X124.124 Y187.62 E8.72272
G1 X123.29 Y187.838 E8.79153
G1 X123.071 Y187.886 E8.80942
G1 X121.81 Y188.104 E8.91157
G1 X121.698 Y188.12 E8.9206
G1 X121.233 Y188.177 E8.958
G1 X121.129 Y188.186 E8.96633
G1 X120.611 Y188.252 E9.00802
G1 X120.459 Y188.266 E9.0202
G1 X119.559 Y188.314 E9.09215
G1 X119.403 Y188.316 E9.1046
G1 X118.474 Y188.298 E9.17877
G1 X117.803 Y188.26 E9.23242
G1 X117.803 Y188.288 E9.23465
G1 X117.403 Y188.287 E9.26658
G1 X116.909 Y188.33 E9.30616
G1 X116.768 Y188.337 E9.31743
G1 X115.869 Y188.35 E9.3892
G1 X115.669 Y188.343 E9.40518
G1 X114.352 Y188.247 E9.51059
G1 X114.225 Y188.235 E9.52077
G1 X113.793 Y188.181 E9.55552
G1 X113.697 Y188.166 E9.56328
G1 X113.049 Y188.084 E9.61542
G1 X112.9 Y188.059 E9.62748
G1 X112.015 Y187.881 E9.69954
G1 X111.837 Y187.838 E9.71415
G1 X110.979 Y187.597 E9.78529
G1 X110.846 Y187.556 E9.7964
G1 X110.041 Y187.369 E9.86237
G1 X109.69 Y187.316 E9.89071
G1 X109.536 Y187.288 E9.9032
G1 X108.68 Y187.096 E9.97323
G1 X108.493 Y187.045 E9.9887
G1 X107.137 Y186.612 E10.10233
G1 X107.065 Y186.587 E10.10841
G1 X106.641 Y186.426 E10.14462
G1 X106.582 Y186.401 E10.14973
G1 X105.829 Y186.107 E10.21426
G1 X105.677 Y186.041 E10.22748
G1 X104.863 Y185.652 E10.2995
G1 X104.715 Y185.574 E10.31285
G1 X103.935 Y185.128 E10.38458
G1 X103.483 Y184.868 E10.4262
G1 X103.473 Y184.888 E10.42799
G1 X103.139 Y184.716 E10.45798
G1 X102.813 Y184.582 E10.48611
G1 X102.623 Y184.495 E10.50279
G1 X101.873 Y184.119 E10.56976
G1 X101.661 Y184.001 E10.58913
G1 X100.487 Y183.274 E10.69936
G1 X100.374 Y183.201 E10.7101
G1 X100.003 Y182.942 E10.74621
G1 X99.95 Y182.903 E10.75147
G1 X99.44 Y182.55 E10.80098
G1 X99.313 Y182.453 E10.81373
G1 X98.613 Y181.886 E10.88564
G1 X98.48 Y181.771 E10.89968
G1 X97.825 Y181.157 E10.97134
G1 X97.71 Y181.039 E10.98449
G1 X97.069 Y180.486 E11.05207
G1 X96.827 Y180.31 E11.07596
G1 X96.669 Y180.186 E11.09199
G1 X96.002 Y179.62 E11.16182
G1 X95.859 Y179.487 E11.17741
G1 X94.894 Y178.509 E11.28708
G1 X94.804 Y178.413 E11.29758
G1 X94.512 Y178.084 E11.3327
G1 X94.466 Y178.028 E11.33848
G1 X93.969 Y177.459 E11.39879
G1 X93.876 Y177.345 E11.41053
G1 X93.318 Y176.603 E11.48464
G1 X93.234 Y176.482 E11.4964
G1 X92.735 Y175.707 E11.56998
G1 X92.687 Y175.626 E11.5775
G1 X92.223 Y174.963 E11.64209
G1 X91.897 Y174.567 E11.68304
G1 X91.796 Y174.435 E11.6963
G1 X91.295 Y173.728 E11.76547
G1 X91.193 Y173.571 E11.78042
G1 X90.541 Y172.462 E11.88311
G1 X90.491 Y172.372 E11.89133
G1 X90.251 Y171.915 E11.93253
G1 X90.224 Y171.858 E11.93757
G1 X89.993 Y171.426 E11.97667
G1 X89.936 Y171.309 E11.98706
G1 X89.557 Y170.453 E12.06179
G1 X89.504 Y170.321 E12.07314
G1 X89.207 Y169.492 E12.14343
G1 X88.983 Y168.775 E12.2034
G1 X88.954 Y168.789 E12.20597
G1 X88.8 Y168.387 E12.24033
G1 X88.647 Y168.075 E12.26807
G1 X88.587 Y167.94 E12.27986
G1 X88.251 Y167.109 E12.35141
G1 X88.188 Y166.929 E12.36664
G1 X87.779 Y165.582 E12.47901
G1 X87.746 Y165.46 E12.4891
G1 X87.636 Y165.011 E12.526
G1 X87.61 Y164.895 E12.53549
G1 X87.489 Y164.411 E12.57531
G1 X87.454 Y164.249 E12.58854
G1 X87.3 Y163.362 E12.6604
G1 X87.279 Y163.206 E12.67297
G1 X87.189 Y162.298 E12.7458
G1 X87.149 Y161.637 E12.79866
G1 X87.117 Y161.64 E12.80123
G1 X87.07 Y161.23 E12.83417
G1 X86.972 Y160.767 E12.87195
G1 X86.941 Y160.586 E12.88661
G1 X86.824 Y159.716 E12.95668
G1 X86.808 Y159.544 E12.97047
G1 X86.742 Y158.158 E13.08123
G1 X86.742 Y157.663 E13.12074
G1 X86.745 Y157.565 E13.12857
G1 X86.744 Y157.02 E13.17208
G1 X86.75 Y156.834 E13.18693
G1 X86.813 Y155.962 E13.25672
G1 X86.832 Y155.779 E13.2714
G1 X86.962 Y154.886 E13.34344
G1 X87.08 Y154.248 E13.39523
G1 X87.05 Y154.242 E13.39767
G1 X87.095 Y153.857 E13.42861
G1 X87.113 Y153.348 E13.46927
G1 X87.124 Y153.198 E13.48128
G1 X87.223 Y152.283 E13.55474
G1 X87.246 Y152.134 E13.56678
G1 X87.493 Y150.867 E13.66982
G1 X87.517 Y150.76 E13.67857
G1 X87.622 Y150.335 E13.71352
G1 X87.652 Y150.23 E13.72223
G1 X87.799 Y149.635 E13.77116
G1 X87.848 Y149.463 E13.78543
G1 X88.116 Y148.641 E13.85445
G1 X88.189 Y148.439 E13.87159
G1 X88.512 Y147.649 E13.93972
G1 X88.628 Y147.394 E13.96208
G1 X88.894 Y146.66 E14.0244
G1 X89.007 Y146.258 E14.05774
G1 X89.069 Y146.064 E14.07399
G1 X89.366 Y145.246 E14.14346
G1 X89.438 Y145.072 E14.15849
G1 X89.998 Y143.863 E14.26485
G1 X90.051 Y143.757 E14.27431
G1 X90.265 Y143.351 E14.31095
G1 X90.321 Y143.252 E14.32003
G1 X90.583 Y142.752 E14.36509
G1 X90.643 Y142.646 E14.37481
G1 X91.136 Y141.854 E14.44928
G1 X91.222 Y141.725 E14.46165
G1 X91.75 Y141 E14.53325
G1 X91.92 Y140.785 E14.55512
G1 X92.351 Y140.142 E14.61692
G1 X92.592 Y139.719 E14.65578
G1 X92.674 Y139.587 E14.66818
G1 X93.18 Y138.836 E14.74047
G1 X93.291 Y138.684 E14.75549
G1 X94.068 Y137.716 E14.85458
G1 X94.149 Y137.62 E14.8646
G1 X94.441 Y137.29 E14.89978
G1 X94.499 Y137.228 E14.90655
G1 X94.918 Y136.756 E14.95693
G1 X95.048 Y136.62 E14.97195
G1 X95.683 Y136.002 E15.04268
G1 X95.812 Y135.885 E15.05658
G1 X96.501 Y135.305 E15.12848
G1 X96.691 Y135.158 E15.14765
G1 X97.269 Y134.635 E15.20987
G1 X97.589 Y134.298 E15.24697
G1 X97.731 Y134.16 E15.26278
G1 X98.379 Y133.57 E15.33273
G1 X98.515 Y133.457 E15.34685
G1 X99.501 Y132.702 E15.44598
G1 X99.2 Y132.932
G1 X99.2 Y182.361 E19.39161
G0 F12000 X100.8 Y183.467
G1 F1800 X100.8 Y131.818 E23.51446
G0 F12000 X102.4 Y130.963
G1 F1800 X102.4 Y184.383 E27.77868
G0 F12000 X104 Y185.165
G1 F1800 X104 Y130.073 E32.17636
G0 F12000 X105.6 Y129.294
G1 F1800 X105.6 Y186.004 E36.70319
G0 F12000 X107.2 Y186.632
G1 F1800 X107.2 Y128.659 E41.33085
G0 F12000 X108.8 Y128.213
G1 F1800 X108.8 Y187.122 E46.03322
G0 F12000 X110.4 Y187.452
G1 F1800 X110.4 Y127.827 E50.79275
G0 F12000 X112 Y127.393
G1 F1800 X112 Y187.877 E55.62084
G0 F12000 X113.6 Y188.153
G1 F1800 X113.6 Y127.135 E60.49156
G0 F12000 X115.2 Y126.991
G1 F1800 X115.2 Y188.308 E65.38615
G0 F12000 X116.8 Y188.336
G1 F1800 X116.8 Y127.011 E70.28138
G0 F12000 X118.4 Y126.954
G1 F1800 X118.4 Y188.293 E75.17772
G0 F12000 X120 Y188.291
G1 F1800 X120 Y127 E80.07023
G0 F12000 X121.6 Y127.164
G1 F1800 X121.6 Y188.133 E84.93704
G0 F12000 X123.2 Y187.858
G1 F1800 X123.2 Y127.467 E89.75771
G0 F12000 X124.8 Y127.886
G1 F1800 X124.8 Y187.405 E94.50878
G0 F12000 X126.4 Y187.036
G1 F1800 X126.4 Y128.218 E99.20388
G0 F12000 X128 Y128.731
G1 F1800 X128 Y186.558 E103.81989
G0 F12000 X129.6 Y185.911
G1 F1800 X129.6 Y129.385 E108.33203
G0 F12000 X131.2 Y130.24
G1 F1800 X131.2 Y185.11 E112.712
G0 F12000 X132.8 Y184.238
G1 F1800 X132.8 Y131.011 E116.9608
G0 F12000 X134.4 Y131.945
G1 F1800 X134.4 Y183.35 E121.06417
G0 F12000 X136 Y182.206
G1 F1800 X136 Y133.093 E124.98459
G0 F12000 X137.6 Y134.523
G1 F1800 X137.6 Y180.797 E128.67838
G0 F12000 X139.2 Y179.397
G1 F1800 X139.2 Y135.864 E132.15337
G0 F12000 X140.8 Y137.57
G1 F1800 X140.8 Y177.731 E135.35919
G0 F12000 X142.4 Y175.59
G1 F1800 X142.4 Y139.792 E138.21675
G0 F12000 X144 Y142.05
G1 F1800 X144 Y173.229 E140.70559
G0 F12000 X145.6 Y170.13
G1 F1800 X145.6 Y145.262 E142.69066
G1 F1200 E136.69066
G0 F12000 X146.807 Y145.476
G0 X147.627 Y147.538
G0 X148.219 Y149.335
G0 X147.2 Y149.644
G1 F1200 E142.69066
G1 F1800 X147.2 Y165.665 E143.96952
G1 F1200 E137.96952
G0 F12000 X148.181 Y166.108
G0 X146.535 Y170.651
G0 X145.327 Y173.096
G0 X142.696 Y177.063
G0 X141.305 Y178.763
G0 X139.81 Y180.28
G0 X137.168 Y182.65
G0 X134.872 Y184.312
G0 X130.704 Y186.586
G0 X128.165 Y187.634
G0 X124.417 Y188.644
G0 X123.284 Y188.929
G0 X120.538 Y189.327
G0 X115.617 Y189.406
G0 X112.903 Y189.138
G0 X108.191 Y188.067
G0 X106.174 Y187.385
G0 X104.393 Y186.606
G0 X101.129 Y184.924
G0 X98.813 Y183.41
G0 X98.224 Y182.932
G0 X96.978 Y181.813
G0 X97.6 Y180.944
G1 F1200 E143.96952
G1 F1800 X97.6 Y134.287 E147.69389
G0 F12000 X96 Y135.726
G1 F1800 X96 Y179.618 E151.19754
G0 F12000 X94.4 Y177.952
G1 F1800 X94.4 Y137.336 E154.43968
G0 F12000 X92.8 Y139.399
G1 F1800 X92.8 Y175.807 E157.34593
G0 F12000 X91.2 Y173.581
G1 F1800 X91.2 Y141.758 E159.88618
G0 F12000 X89.6 Y144.722
G1 F1800 X89.6 Y170.55 E161.94788
G1 F1200 E155.94788
G0 F12000 X88.511 Y170.704
G0 X87.173 Y167.251
G0 X88 Y166.309
G1 F1200 E161.94788
G1 F1800 X88 Y148.996 E163.32988
G1 F1200 E157.32988
G0 F300 X88 Y148.996 Z0.48
G0 F12000 X86.827 Y149.159
G0 X86.45 Y150.654
G0 X86.166 Y152.154
G0 X85.688 Y156.77
G0 X85.745 Y159.609
G0 X86.41 Y164.46
G0 X86.757 Y165.88
G0 X87.258 Y167.494
G0 X88.967 Y171.751
G0 X90.151 Y173.885
G0 X92.46 Y177.233
G0 X93.785 Y177.224
;TIME_ELAPSED:81.839260
;LAYER:-5
;TYPE:SUPPORT
G1 F1200 E163.32988
G1 F1800 X96.986 Y180.425 E163.69123
