;FLAVOR:Marlin
;TIME:486
;Filament used: 0.179538m
;Layer height: 0.16
;MINX:108.053
;MINY:153.415
;MINZ:0.2
;MAXX:126.947
;MAXY:172.306
;MAXZ:8.24
;Generated with Cura_SteamEngine 4.13.0
M140 S75
M105
M190 S75
M104 S245
M105
M109 S245
M82 ;absolute extrusion mode
; Ender 3 Custom Start G-code
G92 E0 ; Reset Extruder
G28 ; Home all axes
G1 Z2.0 F3000 ; Move Z Axis up little to prevent scratching of Heat Bed
G1 X0.1 Y20 Z0.3 F5000.0 ; Move to start position
G1 X0.1 Y200.0 Z0.3 F1500.0 E15 ; Draw the first line
G1 X0.4 Y200.0 Z0.3 F5000.0 ; Move to side a little
G1 X0.4 Y20 Z0.3 F1500.0 E30 ; Draw the second line
G92 E0 ; Reset Extruder
G1 Z2.0 F3000 ; Move Z Axis up little to prevent scratching of Heat Bed
G1 X5 Y20 Z0.3 F5000.0 ; Move over to prevent blob squish
G92 E0
G92 E0
G1 F1200 E-6
;LAYER_COUNT:45
;LAYER:0
M107
M204 S500
M205 X16 Y16
G0 F6000 X111.955 Y155.212 Z0.2
;TYPE:SKIRT
G1 F1200 E0
G1 F900 X112.208 Y155.034 E0.01029
G1 X112.592 Y154.787 E0.02547
G1 X112.865 Y154.627 E0.036
G1 X113.262 Y154.416 E0.05095
G1 X113.537 Y154.284 E0.0611
G1 X113.974 Y154.095 E0.07693
G1 X114.265 Y153.983 E0.0873
G1 X114.688 Y153.84 E0.10216
G1 X114.981 Y153.754 E0.11231
G1 X115.44 Y153.639 E0.12805
G1 X115.762 Y153.573 E0.13898
G1 X116.211 Y153.501 E0.15411
G1 X116.493 Y153.467 E0.16356
G1 X116.942 Y153.429 E0.17854
G1 X117.262 Y153.415 E0.1892
G1 X117.738 Y153.415 E0.20503
G1 X118.061 Y153.429 E0.21578
G1 X118.518 Y153.468 E0.23104
G1 X118.799 Y153.502 E0.24045
G1 X119.24 Y153.573 E0.25531
G1 X119.561 Y153.639 E0.26621
G1 X120.027 Y153.756 E0.28219
G1 X120.324 Y153.844 E0.29249
G1 X120.748 Y153.988 E0.30738
G1 X121.041 Y154.101 E0.31783
G1 X121.478 Y154.291 E0.33368
G1 X121.753 Y154.424 E0.34384
G1 X122.148 Y154.635 E0.35873
G1 X122.414 Y154.791 E0.36899
G1 X122.798 Y155.038 E0.38417
G1 X123.055 Y155.219 E0.39463
G1 X123.433 Y155.509 E0.41047
G1 X123.666 Y155.703 E0.42056
G1 X123.995 Y156 E0.4353
G1 X124.222 Y156.223 E0.44588
G1 X124.549 Y156.572 E0.46179
G1 X124.739 Y156.791 E0.47143
G1 X125.024 Y157.146 E0.48658
G1 X125.219 Y157.411 E0.49752
G1 X125.47 Y157.786 E0.51253
G1 X125.633 Y158.053 E0.52293
G1 X125.861 Y158.463 E0.53854
G1 X125.996 Y158.73 E0.54849
G1 X126.188 Y159.15 E0.56385
G1 X126.304 Y159.435 E0.57408
G1 X126.461 Y159.868 E0.5894
G1 X126.556 Y160.168 E0.59987
G1 X126.674 Y160.603 E0.61486
G1 X126.744 Y160.907 E0.62523
G1 X126.825 Y161.345 E0.64005
G1 X126.875 Y161.69 E0.65164
G1 X126.92 Y162.141 E0.66672
G1 X126.938 Y162.442 E0.67675
G1 X126.947 Y162.894 E0.69178
G1 X126.941 Y163.204 E0.7021
G1 X126.912 Y163.674 E0.71776
G1 X126.88 Y163.983 E0.72809
G1 X126.814 Y164.44 E0.74345
G1 X126.758 Y164.743 E0.7537
G1 X126.658 Y165.181 E0.76864
G1 X126.575 Y165.484 E0.77909
G1 X126.431 Y165.938 E0.79493
G1 X126.328 Y166.222 E0.80498
G1 X126.159 Y166.637 E0.81988
G1 X126.029 Y166.923 E0.83033
G1 X125.818 Y167.339 E0.84584
G1 X125.669 Y167.605 E0.85598
G1 X125.427 Y168 E0.87139
G1 X125.252 Y168.261 E0.88184
G1 X124.986 Y168.624 E0.89681
G1 X124.791 Y168.868 E0.9072
G1 X124.483 Y169.223 E0.92283
G1 X124.263 Y169.456 E0.93349
G1 X123.926 Y169.784 E0.94913
G1 X123.714 Y169.976 E0.95864
G1 X123.372 Y170.262 E0.97347
G1 X123.107 Y170.464 E0.98456
G1 X122.724 Y170.731 E1.00008
G1 X122.464 Y170.897 E1.01034
G1 X122.059 Y171.133 E1.02593
G1 X121.791 Y171.276 E1.03604
G1 X121.389 Y171.469 E1.05087
G1 X121.112 Y171.588 E1.0609
G1 X120.669 Y171.759 E1.07669
G1 X120.366 Y171.862 E1.08733
G1 X119.931 Y171.989 E1.10241
G1 X119.63 Y172.063 E1.11272
G1 X119.182 Y172.155 E1.12793
G1 X118.88 Y172.205 E1.13811
G1 X118.415 Y172.262 E1.15369
G1 X118.111 Y172.287 E1.16384
G1 X117.655 Y172.306 E1.17902
G1 X117.331 Y172.305 E1.18979
G1 X116.873 Y172.285 E1.20504
G1 X116.576 Y172.261 E1.21495
G1 X116.112 Y172.204 E1.2305
G1 X115.809 Y172.154 E1.24071
G1 X115.362 Y172.062 E1.25589
G1 X115.057 Y171.986 E1.26635
G1 X114.618 Y171.857 E1.28157
G1 X114.314 Y171.754 E1.29224
G1 X113.876 Y171.584 E1.30787
G1 X113.606 Y171.466 E1.31767
G1 X113.198 Y171.27 E1.33272
G1 X112.921 Y171.123 E1.34315
G1 X112.527 Y170.892 E1.35834
G1 X112.268 Y170.726 E1.36858
G1 X111.877 Y170.452 E1.38446
G1 X111.625 Y170.259 E1.39501
G1 X111.283 Y169.974 E1.40982
G1 X111.058 Y169.771 E1.4199
G1 X110.729 Y169.449 E1.43521
G1 X110.512 Y169.218 E1.44575
G1 X110.2 Y168.857 E1.46162
G1 X110.006 Y168.613 E1.47199
G1 X109.741 Y168.25 E1.48694
G1 X109.568 Y167.992 E1.49727
G1 X109.327 Y167.598 E1.51263
G1 X109.183 Y167.34 E1.52246
G1 X108.969 Y166.92 E1.53814
G1 X108.83 Y166.615 E1.54928
G1 X108.664 Y166.203 E1.56406
G1 X108.566 Y165.93 E1.57371
G1 X108.422 Y165.475 E1.58958
G1 X108.338 Y165.164 E1.60029
G1 X108.239 Y164.725 E1.61526
G1 X108.184 Y164.425 E1.62541
G1 X108.119 Y163.969 E1.64073
G1 X108.088 Y163.667 E1.65082
G1 X108.059 Y163.197 E1.66648
G1 X108.053 Y162.879 E1.67706
G1 X108.063 Y162.427 E1.6921
G1 X108.081 Y162.136 E1.7018
G1 X108.125 Y161.692 E1.71664
G1 X108.171 Y161.369 E1.72749
G1 X108.26 Y160.893 E1.7436
G1 X108.331 Y160.583 E1.75417
G1 X108.451 Y160.147 E1.76921
G1 X108.542 Y159.862 E1.77916
G1 X108.698 Y159.431 E1.79441
G1 X108.814 Y159.147 E1.80461
G1 X109.007 Y158.724 E1.82008
G1 X109.152 Y158.438 E1.83074
G1 X109.382 Y158.029 E1.84635
G1 X109.537 Y157.776 E1.85622
G1 X109.787 Y157.403 E1.87115
G1 X109.981 Y157.14 E1.88202
G1 X110.266 Y156.785 E1.89716
G1 X110.456 Y156.566 E1.90681
G1 X110.784 Y156.216 E1.92276
G1 X111.021 Y155.984 E1.93379
G1 X111.349 Y155.69 E1.94844
G1 X111.576 Y155.502 E1.95824
G1 X111.955 Y155.212 E1.97412
G0 F6000 X112.198 Y155.53
G1 F900 X112.425 Y155.37 E1.98335
G1 X112.809 Y155.123 E1.99854
G1 X113.052 Y154.981 E2.0079
G1 X113.449 Y154.77 E2.02285
G1 X113.695 Y154.651 E2.03194
G1 X114.132 Y154.462 E2.04778
G1 X114.393 Y154.362 E2.05708
G1 X114.816 Y154.219 E2.07193
G1 X115.079 Y154.142 E2.08104
G1 X115.538 Y154.027 E2.09678
G1 X115.826 Y153.968 E2.10656
G1 X116.275 Y153.896 E2.12168
G1 X116.526 Y153.865 E2.13009
G1 X116.975 Y153.827 E2.14508
G1 X117.262 Y153.815 E2.15464
G1 X117.738 Y153.815 E2.17047
G1 X118.027 Y153.827 E2.18009
G1 X118.484 Y153.866 E2.19534
G1 X118.735 Y153.897 E2.20375
G1 X119.176 Y153.968 E2.21861
G1 X119.464 Y154.027 E2.22839
G1 X119.93 Y154.144 E2.24437
G1 X120.195 Y154.223 E2.25357
G1 X120.619 Y154.367 E2.26846
G1 X120.882 Y154.468 E2.27783
G1 X121.319 Y154.658 E2.29368
G1 X121.565 Y154.777 E2.30277
G1 X121.96 Y154.988 E2.31766
G1 X122.197 Y155.127 E2.3268
G1 X122.581 Y155.374 E2.34199
G1 X122.812 Y155.536 E2.35137
G1 X123.19 Y155.826 E2.36722
G1 X123.398 Y156 E2.37624
G1 X123.727 Y156.297 E2.39098
G1 X123.93 Y156.496 E2.40043
G1 X124.257 Y156.845 E2.41634
G1 X124.427 Y157.041 E2.42497
G1 X124.712 Y157.396 E2.44011
G1 X124.886 Y157.634 E2.44992
G1 X125.137 Y158.009 E2.46493
G1 X125.283 Y158.248 E2.47424
G1 X125.511 Y158.658 E2.48984
G1 X125.632 Y158.896 E2.49872
G1 X125.824 Y159.316 E2.51408
G1 X125.928 Y159.571 E2.52324
G1 X126.085 Y160.004 E2.53856
G1 X126.17 Y160.273 E2.54795
G1 X126.288 Y160.708 E2.56294
G1 X126.35 Y160.98 E2.57222
G1 X126.432 Y161.421 E2.58713
G1 X126.477 Y161.729 E2.59749
G1 X126.522 Y162.18 E2.61256
G1 X126.538 Y162.45 E2.62156
G1 X126.547 Y162.902 E2.6366
G1 X126.542 Y163.179 E2.64581
G1 X126.513 Y163.649 E2.66147
G1 X126.484 Y163.926 E2.67074
G1 X126.418 Y164.383 E2.68609
G1 X126.368 Y164.654 E2.69526
G1 X126.268 Y165.092 E2.7102
G1 X126.194 Y165.363 E2.71954
G1 X126.05 Y165.817 E2.73539
G1 X125.958 Y166.071 E2.74437
G1 X125.789 Y166.486 E2.75927
G1 X125.672 Y166.742 E2.76864
G1 X125.461 Y167.158 E2.78415
G1 X125.328 Y167.396 E2.79322
G1 X125.086 Y167.791 E2.80863
G1 X124.929 Y168.025 E2.818
G1 X124.663 Y168.388 E2.83297
G1 X124.489 Y168.606 E2.84224
G1 X124.181 Y168.961 E2.85788
G1 X123.984 Y169.169 E2.8674
G1 X123.647 Y169.497 E2.88305
G1 X123.457 Y169.669 E2.89157
G1 X123.115 Y169.955 E2.9064
G1 X122.878 Y170.136 E2.91632
G1 X122.495 Y170.403 E2.93184
G1 X122.263 Y170.552 E2.94102
G1 X121.858 Y170.788 E2.95661
G1 X121.618 Y170.915 E2.96564
G1 X121.216 Y171.108 E2.98047
G1 X120.968 Y171.215 E2.98945
G1 X120.525 Y171.386 E3.00525
G1 X120.254 Y171.478 E3.01476
G1 X119.819 Y171.605 E3.02984
G1 X119.55 Y171.671 E3.03905
G1 X119.102 Y171.763 E3.05426
G1 X118.832 Y171.808 E3.06336
G1 X118.367 Y171.865 E3.07895
G1 X118.095 Y171.887 E3.08802
G1 X117.639 Y171.906 E3.1032
G1 X117.349 Y171.906 E3.11285
G1 X116.891 Y171.886 E3.1281
G1 X116.624 Y171.864 E3.13701
G1 X116.16 Y171.807 E3.15255
G1 X115.89 Y171.762 E3.16166
G1 X115.443 Y171.67 E3.17684
G1 X115.169 Y171.602 E3.18623
G1 X114.73 Y171.473 E3.20145
G1 X114.459 Y171.381 E3.21096
G1 X114.021 Y171.211 E3.22659
G1 X113.779 Y171.106 E3.23537
G1 X113.371 Y170.91 E3.25042
G1 X113.123 Y170.778 E3.25976
G1 X112.729 Y170.547 E3.27496
G1 X112.498 Y170.398 E3.2841
G1 X112.107 Y170.124 E3.29998
G1 X111.881 Y169.952 E3.30942
G1 X111.539 Y169.667 E3.32423
G1 X111.338 Y169.485 E3.33325
G1 X111.009 Y169.163 E3.34856
G1 X110.815 Y168.956 E3.358
G1 X110.503 Y168.595 E3.37387
G1 X110.329 Y168.377 E3.38314
G1 X110.064 Y168.014 E3.39809
G1 X109.91 Y167.783 E3.40733
G1 X109.669 Y167.389 E3.42269
G1 X109.54 Y167.159 E3.43146
G1 X109.326 Y166.739 E3.44714
G1 X109.201 Y166.466 E3.45712
G1 X109.035 Y166.054 E3.4719
G1 X108.947 Y165.809 E3.48056
G1 X108.803 Y165.354 E3.49643
G1 X108.728 Y165.076 E3.50601
G1 X108.629 Y164.637 E3.52097
G1 X108.58 Y164.369 E3.53003
G1 X108.515 Y163.913 E3.54535
G1 X108.487 Y163.642 E3.55442
G1 X108.458 Y163.172 E3.57008
G1 X108.453 Y162.888 E3.57953
G1 X108.463 Y162.436 E3.59456
G1 X108.479 Y162.176 E3.60323
G1 X108.523 Y161.732 E3.61807
G1 X108.564 Y161.442 E3.62781
G1 X108.653 Y160.966 E3.64391
G1 X108.717 Y160.689 E3.65337
G1 X108.837 Y160.253 E3.66841
G1 X108.918 Y159.998 E3.67731
G1 X109.074 Y159.567 E3.69255
G1 X109.178 Y159.313 E3.70168
G1 X109.371 Y158.89 E3.71715
G1 X109.5 Y158.634 E3.72668
G1 X109.73 Y158.225 E3.74229
G1 X109.87 Y157.999 E3.75113
G1 X110.12 Y157.626 E3.76607
G1 X110.293 Y157.39 E3.7758
G1 X110.578 Y157.035 E3.79094
G1 X110.748 Y156.839 E3.79957
G1 X111.076 Y156.489 E3.81552
G1 X111.288 Y156.282 E3.82538
G1 X111.616 Y155.988 E3.84003
G1 X111.819 Y155.82 E3.84879
G1 X112.198 Y155.53 E3.86467
G0 F6000 X112.441 Y155.847
G1 F900 X112.641 Y155.707 E3.87279
G1 X113.025 Y155.46 E3.88797
G1 X113.24 Y155.334 E3.89626
G1 X113.637 Y155.123 E3.91121
G1 X113.854 Y155.018 E3.91923
G1 X114.291 Y154.829 E3.93507
G1 X114.521 Y154.741 E3.94326
G1 X114.944 Y154.598 E3.95811
G1 X115.176 Y154.53 E3.96615
G1 X115.635 Y154.415 E3.98189
G1 X115.889 Y154.363 E3.99051
G1 X116.338 Y154.291 E4.00564
G1 X116.56 Y154.264 E4.01307
G1 X117.009 Y154.226 E4.02806
G1 X117.262 Y154.215 E4.03648
G1 X117.738 Y154.215 E4.05232
G1 X117.993 Y154.226 E4.0608
G1 X118.45 Y154.265 E4.07606
G1 X118.672 Y154.292 E4.0835
G1 X119.113 Y154.363 E4.09835
G1 X119.367 Y154.415 E4.10698
G1 X119.833 Y154.532 E4.12296
G1 X120.067 Y154.601 E4.13107
G1 X120.491 Y154.745 E4.14597
G1 X120.722 Y154.835 E4.15421
G1 X121.159 Y155.025 E4.17006
G1 X121.377 Y155.13 E4.17811
G1 X121.772 Y155.341 E4.193
G1 X121.981 Y155.464 E4.20107
G1 X122.365 Y155.711 E4.21626
G1 X122.568 Y155.854 E4.22451
G1 X122.946 Y156.144 E4.24036
G1 X123.13 Y156.297 E4.24832
G1 X123.459 Y156.594 E4.26306
G1 X123.638 Y156.77 E4.27141
G1 X123.965 Y157.119 E4.28732
G1 X124.115 Y157.292 E4.29493
G1 X124.4 Y157.647 E4.31007
G1 X124.554 Y157.856 E4.31871
G1 X124.805 Y158.231 E4.33372
G1 X124.934 Y158.442 E4.34194
G1 X125.162 Y158.852 E4.35755
G1 X125.268 Y159.063 E4.3654
G1 X125.46 Y159.483 E4.38076
G1 X125.552 Y159.707 E4.38881
G1 X125.709 Y160.14 E4.40413
G1 X125.784 Y160.378 E4.41243
G1 X125.902 Y160.813 E4.42742
G1 X125.957 Y161.052 E4.43558
G1 X126.039 Y161.497 E4.45063
G1 X126.079 Y161.769 E4.45977
G1 X126.124 Y162.22 E4.47485
G1 X126.138 Y162.458 E4.48278
G1 X126.147 Y162.91 E4.49782
G1 X126.142 Y163.155 E4.50597
G1 X126.113 Y163.625 E4.52163
G1 X126.088 Y163.869 E4.52979
G1 X126.022 Y164.326 E4.54514
G1 X125.978 Y164.565 E4.55323
G1 X125.878 Y165.003 E4.56817
G1 X125.813 Y165.242 E4.57641
G1 X125.669 Y165.696 E4.59225
G1 X125.587 Y165.92 E4.60018
G1 X125.418 Y166.335 E4.61509
G1 X125.316 Y166.561 E4.62333
G1 X125.105 Y166.977 E4.63885
G1 X124.987 Y167.187 E4.64686
G1 X124.745 Y167.582 E4.66227
G1 X124.607 Y167.788 E4.67051
G1 X124.341 Y168.151 E4.68548
G1 X124.187 Y168.344 E4.69369
G1 X123.879 Y168.699 E4.70933
G1 X123.705 Y168.883 E4.71775
G1 X123.368 Y169.211 E4.73339
G1 X123.201 Y169.362 E4.74088
G1 X122.859 Y169.648 E4.75571
G1 X122.65 Y169.808 E4.76446
G1 X122.267 Y170.075 E4.77999
G1 X122.061 Y170.206 E4.78811
G1 X121.656 Y170.442 E4.8037
G1 X121.444 Y170.554 E4.81167
G1 X121.042 Y170.747 E4.82651
G1 X120.824 Y170.842 E4.83441
G1 X120.381 Y171.013 E4.85021
G1 X120.142 Y171.094 E4.8586
G1 X119.707 Y171.221 E4.87367
G1 X119.469 Y171.28 E4.88183
G1 X119.021 Y171.372 E4.89704
G1 X118.783 Y171.411 E4.90506
G1 X118.318 Y171.468 E4.92064
G1 X118.078 Y171.487 E4.92865
G1 X117.622 Y171.506 E4.94383
G1 X117.366 Y171.506 E4.95235
G1 X116.908 Y171.486 E4.96759
G1 X116.673 Y171.467 E4.97544
G1 X116.209 Y171.41 E4.99098
G1 X115.97 Y171.37 E4.99904
G1 X115.523 Y171.278 E5.01422
G1 X115.282 Y171.218 E5.02248
G1 X114.843 Y171.089 E5.0377
G1 X114.604 Y171.008 E5.04609
G1 X114.166 Y170.838 E5.06172
G1 X113.952 Y170.745 E5.06948
G1 X113.544 Y170.549 E5.08454
G1 X113.326 Y170.433 E5.09275
G1 X112.932 Y170.202 E5.10794
G1 X112.727 Y170.071 E5.11603
G1 X112.336 Y169.797 E5.13191
G1 X112.137 Y169.645 E5.14024
G1 X111.795 Y169.36 E5.15505
G1 X111.618 Y169.199 E5.16301
G1 X111.289 Y168.877 E5.17832
G1 X111.117 Y168.695 E5.18665
G1 X110.805 Y168.334 E5.20252
G1 X110.652 Y168.141 E5.21071
G1 X110.387 Y167.778 E5.22566
G1 X110.251 Y167.574 E5.23381
G1 X110.01 Y167.18 E5.24917
G1 X109.896 Y166.977 E5.25692
G1 X109.682 Y166.557 E5.27259
G1 X109.572 Y166.316 E5.28141
G1 X109.406 Y165.904 E5.29618
G1 X109.329 Y165.688 E5.30381
G1 X109.185 Y165.233 E5.31968
G1 X109.118 Y164.988 E5.32813
G1 X109.019 Y164.549 E5.3431
G1 X108.976 Y164.312 E5.35111
G1 X108.911 Y163.856 E5.36643
G1 X108.887 Y163.618 E5.37438
G1 X108.858 Y163.148 E5.39004
G1 X108.853 Y162.897 E5.39839
G1 X108.863 Y162.445 E5.41343
G1 X108.877 Y162.215 E5.4211
G1 X108.921 Y161.771 E5.43594
G1 X108.957 Y161.516 E5.4445
G1 X109.046 Y161.04 E5.46061
G1 X109.103 Y160.795 E5.46897
G1 X109.223 Y160.359 E5.48401
G1 X109.294 Y160.134 E5.49186
G1 X109.45 Y159.703 E5.50711
G1 X109.542 Y159.479 E5.51516
G1 X109.735 Y159.056 E5.53063
G1 X109.849 Y158.831 E5.53901
G1 X110.079 Y158.422 E5.55462
G1 X110.202 Y158.222 E5.56243
G1 X110.452 Y157.849 E5.57737
G1 X110.605 Y157.641 E5.58595
G1 X110.89 Y157.286 E5.6011
G1 X111.04 Y157.113 E5.60871
G1 X111.368 Y156.763 E5.62466
G1 X111.555 Y156.58 E5.63337
G1 X111.883 Y156.286 E5.64802
G1 X112.062 Y156.137 E5.65576
G1 X112.441 Y155.847 E5.67164
G0 F6000 X112.684 Y156.165
G1 F900 X112.857 Y156.043 E5.67868
G1 X113.241 Y155.796 E5.69386
G1 X113.428 Y155.687 E5.70106
G1 X113.825 Y155.476 E5.71602
G1 X114.013 Y155.386 E5.72295
G1 X114.45 Y155.197 E5.73878
G1 X114.649 Y155.12 E5.74588
G1 X115.072 Y154.977 E5.76073
G1 X115.273 Y154.918 E5.7677
G1 X115.732 Y154.803 E5.78344
G1 X115.952 Y154.758 E5.79091
G1 X116.401 Y154.686 E5.80603
G1 X116.594 Y154.662 E5.8125
G1 X117.043 Y154.624 E5.82749
G1 X117.262 Y154.615 E5.83478
G1 X117.738 Y154.615 E5.85061
G1 X117.959 Y154.624 E5.85797
G1 X118.416 Y154.663 E5.87322
G1 X118.608 Y154.687 E5.87966
G1 X119.049 Y154.758 E5.89451
G1 X119.269 Y154.803 E5.90198
G1 X119.735 Y154.92 E5.91796
G1 X119.938 Y154.98 E5.925
G1 X120.362 Y155.124 E5.9399
G1 X120.563 Y155.202 E5.94707
G1 X121 Y155.392 E5.96292
G1 X121.188 Y155.483 E5.96986
G1 X121.583 Y155.694 E5.98476
G1 X121.765 Y155.8 E5.99176
G1 X122.149 Y156.047 E6.00695
G1 X122.325 Y156.171 E6.01411
G1 X122.703 Y156.461 E6.02996
G1 X122.862 Y156.594 E6.03685
G1 X123.191 Y156.891 E6.05159
G1 X123.346 Y157.043 E6.05881
G1 X123.673 Y157.392 E6.07472
G1 X123.803 Y157.542 E6.08132
G1 X124.088 Y157.897 E6.09646
G1 X124.222 Y158.079 E6.10398
G1 X124.473 Y158.454 E6.11899
G1 X124.584 Y158.636 E6.12608
G1 X124.812 Y159.046 E6.14168
