;FLAVOR:Marlin
;TIME:3271
;Filament used: 2.15989m
;Layer height: 0.2
;MINX:70.405
;MINY:140.425
;MINZ:0.2
;MAXX:163.999
;MAXY:190.005
;MAXZ:17
;Generated with Cura_SteamEngine 4.13.0
M140 S75
M105
M190 S75
M104 S245
M105
M109 S245
M82 ;absolute extrusion mode
; Ender 3 Custom Start G-code
G92 E0 ; Reset Extruder
G28 ; Home all axes
G1 Z2.0 F3000 ; Move Z Axis up little to prevent scratching of Heat Bed
G1 X0.1 Y20 Z0.3 F5000.0 ; Move to start position
G1 X0.1 Y200.0 Z0.3 F1500.0 E15 ; Draw the first line
G1 X0.4 Y200.0 Z0.3 F5000.0 ; Move to side a little
G1 X0.4 Y20 Z0.3 F1500.0 E30 ; Draw the second line
G92 E0 ; Reset Extruder
G1 Z2.0 F3000 ; Move Z Axis up little to prevent scratching of Heat Bed
G1 X5 Y20 Z0.3 F5000.0 ; Move over to prevent blob squish
G92 E0
G92 E0
G1 F1200 E-6
;LAYER_COUNT:85
;LAYER:0
M107
M204 S500
M205 X16 Y16
G0 F6000 X74.473 Y158.992 Z0.2
;TYPE:SKIRT
G1 F1200 E0
G1 F900 X74.952 Y158.804 E0.01711
G1 X75.512 Y158.632 E0.0366
G1 X75.942 Y158.536 E0.05125
G1 X76.233 Y158.483 E0.06109
G1 X97.107 Y155.501 E0.76241
G1 X97.488 Y155.466 E0.77514
G1 X98.488 Y155.425 E0.80843
G1 X99.12 Y155.452 E0.82946
G1 X100.126 Y155.579 E0.86319
G1 X100.75 Y155.712 E0.88441
G1 X101.709 Y156.002 E0.91773
G1 X102.313 Y156.242 E0.93935
G1 X103.238 Y156.706 E0.97377
G1 X103.788 Y157.044 E0.99524
G1 X104.609 Y157.649 E1.02916
G1 X104.842 Y157.835 E1.03908
G1 X105.119 Y158.098 E1.05178
G1 X105.421 Y158.415 E1.06634
G1 X116.154 Y158.415 E1.42332
G1 X116.303 Y158.256 E1.43057
G1 X116.851 Y157.753 E1.45531
G1 X117.032 Y157.597 E1.46326
G1 X136.412 Y141.934 E2.29204
G1 X136.536 Y141.838 E2.29726
G1 X136.765 Y141.668 E2.30674
G1 X137.195 Y141.391 E2.32376
G1 X137.632 Y141.15 E2.34035
G1 X138.217 Y140.89 E2.36165
G1 X138.705 Y140.72 E2.37883
G1 X139.332 Y140.56 E2.40036
G1 X139.831 Y140.477 E2.41718
G1 X140.476 Y140.425 E2.4387
G1 X140.986 Y140.428 E2.45567
G1 X141.622 Y140.485 E2.4769
G1 X142.134 Y140.575 E2.49419
G1 X142.696 Y140.719 E2.51349
G1 X143.053 Y140.84 E2.52603
G1 X143.278 Y140.924 E2.53402
G1 X157.883 Y146.927 E3.05921
G1 X158.175 Y147.062 E3.06991
G1 X158.611 Y147.286 E3.08622
G1 X159.133 Y147.61 E3.10665
G1 X159.528 Y147.902 E3.12299
G1 X159.756 Y148.085 E3.13271
G1 X160.037 Y148.351 E3.14558
G1 X160.386 Y148.718 E3.16243
G1 X160.781 Y149.21 E3.18341
G1 X161.07 Y149.638 E3.20059
G1 X161.388 Y150.209 E3.22233
G1 X161.585 Y150.648 E3.23833
G1 X161.792 Y151.232 E3.25894
G1 X161.83 Y151.374 E3.26383
G1 X162.063 Y151.626 E3.27524
G1 X162.455 Y152.224 E3.29902
G1 X162.576 Y152.453 E3.30764
G1 X162.797 Y152.957 E3.32594
G1 X162.884 Y153.28 E3.33707
G1 X163.384 Y154.224 E3.3726
G1 X163.606 Y154.729 E3.39095
G1 X163.754 Y155.266 E3.40947
G1 X163.928 Y156.147 E3.43934
G1 X163.995 Y156.694 E3.45767
G1 X163.983 Y157.244 E3.47597
G1 X163.91 Y157.706 E3.49152
G1 X163.681 Y158.738 E3.52668
G1 X163.523 Y159.266 E3.54501
G1 X163.29 Y159.765 E3.56333
G1 X162.987 Y160.226 E3.58168
G1 X162.622 Y160.638 E3.59999
G1 X162.2 Y160.993 E3.61833
G1 X162.095 Y161.058 E3.62244
G1 X162.095 Y169.308 E3.89683
G1 X162.288 Y169.437 E3.90455
G1 X162.697 Y169.806 E3.92287
G1 X163.048 Y170.231 E3.94121
G1 X163.334 Y170.701 E3.95951
G1 X163.55 Y171.209 E3.97787
G1 X163.655 Y171.579 E3.99066
G1 X163.909 Y172.678 E4.02817
G1 X163.994 Y173.223 E4.04652
G1 X163.999 Y173.774 E4.06485
G1 X163.935 Y174.273 E4.08158
G1 X163.761 Y175.151 E4.11135
G1 X163.614 Y175.682 E4.12968
G1 X163.397 Y176.179 E4.14771
G1 X162.902 Y177.121 E4.18311
G1 X162.802 Y177.48 E4.1955
G1 X162.588 Y177.967 E4.21319
G1 X162.458 Y178.214 E4.22248
G1 X162.166 Y178.682 E4.24083
G1 X161.82 Y179.091 E4.25864
G1 X161.754 Y179.333 E4.26699
G1 X161.584 Y179.787 E4.28311
G1 X161.387 Y180.225 E4.29908
G1 X161.073 Y180.789 E4.32055
G1 X160.782 Y181.221 E4.33788
G1 X160.377 Y181.723 E4.35933
G1 X160.033 Y182.083 E4.37589
G1 X159.557 Y182.505 E4.39705
G1 X159.145 Y182.812 E4.41414
G1 X158.604 Y183.148 E4.43532
G1 X158.164 Y183.373 E4.45176
G1 X157.878 Y183.505 E4.46223
G1 X143.269 Y189.508 E4.98755
G1 X143.039 Y189.594 E4.99572
G1 X142.689 Y189.712 E5.00801
G1 X142.141 Y189.852 E5.02682
G1 X141.63 Y189.943 E5.04408
G1 X140.986 Y190.002 E5.06559
G1 X140.476 Y190.005 E5.08255
G1 X139.838 Y189.955 E5.10384
G1 X139.339 Y189.873 E5.12066
G1 X138.694 Y189.708 E5.1428
G1 X138.208 Y189.537 E5.15994
G1 X137.631 Y189.278 E5.18097
G1 X137.186 Y189.032 E5.19788
G1 X136.779 Y188.772 E5.21395
G1 X136.566 Y188.616 E5.22273
G1 X136.422 Y188.505 E5.22878
G1 X117.028 Y172.83 E6.05817
G1 X116.836 Y172.664 E6.06661
G1 X116.273 Y172.143 E6.09213
G1 X116.154 Y172.015 E6.09794
G1 X105.422 Y172.015 E6.45489
G1 X105.101 Y172.349 E6.47029
G1 X104.613 Y172.778 E6.4919
G1 X103.787 Y173.386 E6.52602
G1 X103.244 Y173.72 E6.54722
G1 X102.321 Y174.185 E6.5816
G1 X101.712 Y174.428 E6.6034
G1 X100.751 Y174.719 E6.6368
G1 X100.122 Y174.853 E6.65819
G1 X99.107 Y174.98 E6.69221
G1 X98.479 Y175.006 E6.71312
G1 X97.48 Y174.965 E6.74637
G1 X97.098 Y174.93 E6.75913
G1 X76.225 Y171.946 E7.46043
G1 X75.935 Y171.893 E7.47023
G1 X75.496 Y171.795 E7.48519
G1 X74.914 Y171.615 E7.50546
G1 X74.451 Y171.43 E7.52204
G1 X73.89 Y171.15 E7.54289
G1 X73.458 Y170.888 E7.5597
G1 X72.938 Y170.508 E7.58112
G1 X72.551 Y170.172 E7.59817
G1 X72.094 Y169.701 E7.61999
G1 X71.767 Y169.299 E7.63723
G1 X71.407 Y168.772 E7.65846
G1 X71.157 Y168.33 E7.67535
G1 X71.059 Y168.144 E7.68234
G1 X70.874 Y167.707 E7.69812
G1 X70.705 Y167.227 E7.71505
G1 X70.541 Y166.593 E7.73683
G1 X70.457 Y166.092 E7.75372
G1 X70.405 Y165.457 E7.77491
G1 X70.406 Y164.946 E7.79191
G1 X70.46 Y164.316 E7.81294
G1 X70.543 Y163.828 E7.82941
G1 X70.705 Y163.203 E7.85088
G1 X70.874 Y162.723 E7.86781
G1 X70.984 Y162.446 E7.87772
G1 X71.163 Y162.088 E7.89103
G1 X71.416 Y161.644 E7.90803
G1 X71.77 Y161.127 E7.92887
G1 X72.093 Y160.73 E7.94589
G1 X72.538 Y160.269 E7.9672
G1 X72.908 Y159.945 E7.98356
G1 X73.179 Y159.729 E7.99509
G1 X73.454 Y159.544 E8.00611
G1 X73.889 Y159.28 E8.02303
G1 X74.473 Y158.992 E8.04469
G0 F6000 X74.619 Y159.364
G1 F900 X75.098 Y159.176 E8.06181
G1 X75.599 Y159.023 E8.07923
G1 X76.029 Y158.927 E8.09388
G1 X76.289 Y158.879 E8.10268
G1 X97.163 Y155.897 E8.804
G1 X97.505 Y155.866 E8.81542
G1 X98.505 Y155.825 E8.84871
G1 X99.07 Y155.849 E8.86752
G1 X100.076 Y155.976 E8.90124
G1 X100.634 Y156.095 E8.92022
G1 X101.593 Y156.385 E8.95354
G1 X102.133 Y156.6 E8.97287
G1 X103.058 Y157.064 E9.00729
G1 X103.551 Y157.366 E9.02652
G1 X104.372 Y157.971 E9.06044
G1 X104.582 Y158.139 E9.06938
G1 X104.83 Y158.374 E9.08075
G1 X105.25 Y158.815 E9.101
G1 X116.325 Y158.815 E9.46936
G1 X116.574 Y158.55 E9.48145
G1 X117.122 Y158.047 E9.50619
G1 X117.284 Y157.908 E9.51329
G1 X136.664 Y142.245 E10.34208
G1 X136.774 Y142.159 E10.34672
G1 X137.003 Y141.989 E10.35621
G1 X137.388 Y141.742 E10.37142
G1 X137.825 Y141.501 E10.38802
G1 X138.348 Y141.267 E10.40707
G1 X138.836 Y141.097 E10.42426
G1 X139.397 Y140.954 E10.44352
G1 X139.896 Y140.871 E10.46034
G1 X140.474 Y140.825 E10.47963
G1 X140.984 Y140.828 E10.49659
G1 X141.553 Y140.879 E10.51559
G1 X142.065 Y140.969 E10.53288
G1 X142.567 Y141.098 E10.55012
G1 X142.924 Y141.219 E10.56266
G1 X143.126 Y141.294 E10.56982
G1 X157.731 Y147.297 E11.09502
G1 X157.992 Y147.418 E11.10459
G1 X158.428 Y147.642 E11.12089
G1 X158.895 Y147.932 E11.13918
G1 X159.29 Y148.224 E11.15551
G1 X159.496 Y148.389 E11.16429
G1 X159.747 Y148.627 E11.1758
G1 X160.096 Y148.994 E11.19264
G1 X160.45 Y149.434 E11.21142
G1 X160.739 Y149.862 E11.2286
G1 X161.023 Y150.373 E11.24805
G1 X161.22 Y150.812 E11.26405
G1 X161.405 Y151.335 E11.2825
G1 X161.469 Y151.577 E11.29083
G1 X161.724 Y151.843 E11.30308
G1 X162.101 Y152.411 E11.32576
G1 X162.222 Y152.64 E11.33437
G1 X162.43 Y153.118 E11.35171
G1 X162.514 Y153.434 E11.36258
G1 X163.031 Y154.411 E11.39935
G1 X163.239 Y154.889 E11.41669
G1 X163.362 Y155.343 E11.43233
G1 X163.536 Y156.224 E11.4622
G1 X163.597 Y156.742 E11.47955
G1 X163.579 Y157.263 E11.49689
G1 X163.519 Y157.62 E11.50893
G1 X163.29 Y158.652 E11.54409
G1 X163.139 Y159.15 E11.5614
G1 X162.913 Y159.62 E11.57874
G1 X162.618 Y160.049 E11.59606
G1 X162.26 Y160.429 E11.61342
G1 X161.849 Y160.749 E11.63075
G1 X161.695 Y160.835 E11.63661
G1 X161.695 Y169.523 E11.92558
G1 X161.801 Y169.581 E11.9296
G1 X162.216 Y169.897 E11.94694
G1 X162.577 Y170.273 E11.96428
G1 X162.876 Y170.699 E11.98159
G1 X163.107 Y171.166 E11.99892
G1 X163.266 Y171.669 E12.01647
G1 X163.52 Y172.768 E12.05398
G1 X163.598 Y173.284 E12.07134
G1 X163.596 Y173.805 E12.08867
G1 X163.542 Y174.195 E12.10176
G1 X163.368 Y175.073 E12.13153
G1 X163.228 Y175.575 E12.14887
G1 X163.043 Y175.993 E12.16407
G1 X162.53 Y176.97 E12.20077
G1 X162.416 Y177.372 E12.21467
G1 X162.234 Y177.781 E12.22956
G1 X162.104 Y178.028 E12.23884
G1 X161.826 Y178.469 E12.25618
G1 X161.485 Y178.862 E12.27349
G1 X161.372 Y179.215 E12.28582
G1 X161.219 Y179.623 E12.30031
G1 X161.022 Y180.061 E12.31628
G1 X160.741 Y180.566 E12.33551
G1 X160.45 Y180.998 E12.35283
G1 X160.088 Y181.447 E12.37201
G1 X159.744 Y181.807 E12.38857
G1 X159.318 Y182.184 E12.40749
G1 X158.906 Y182.491 E12.42458
G1 X158.422 Y182.792 E12.44354
G1 X157.982 Y183.017 E12.45998
G1 X157.726 Y183.135 E12.46935
G1 X143.117 Y189.138 E12.99467
G1 X142.911 Y189.215 E13.00199
G1 X142.561 Y189.333 E13.01427
G1 X142.071 Y189.458 E13.03109
G1 X141.56 Y189.549 E13.04835
G1 X140.984 Y189.602 E13.06759
G1 X140.474 Y189.605 E13.08456
G1 X139.903 Y189.56 E13.10361
G1 X139.404 Y189.478 E13.12043
G1 X138.827 Y189.33 E13.14024
G1 X138.341 Y189.159 E13.15737
G1 X137.824 Y188.928 E13.17621
G1 X137.379 Y188.682 E13.19312
G1 X137.015 Y188.449 E13.20749
G1 X136.802 Y188.293 E13.21628
G1 X136.674 Y188.194 E13.22166
G1 X117.28 Y172.519 E14.05105
G1 X117.108 Y172.37 E14.05862
G1 X116.545 Y171.849 E14.08413
G1 X116.326 Y171.615 E14.09479
G1 X105.252 Y171.615 E14.46312
G1 X104.813 Y172.072 E14.48419
G1 X104.376 Y172.456 E14.50354
G1 X103.55 Y173.064 E14.53765
G1 X103.064 Y173.362 E14.55662
G1 X102.141 Y173.827 E14.59099
G1 X101.596 Y174.045 E14.61051
G1 X100.635 Y174.336 E14.64391
G1 X100.072 Y174.456 E14.66306
G1 X99.057 Y174.583 E14.69708
G1 X98.496 Y174.606 E14.71575
G1 X97.497 Y174.565 E14.74901
G1 X97.155 Y174.534 E14.76043
G1 X76.282 Y171.55 E15.46173
G1 X76.022 Y171.502 E15.47052
G1 X75.583 Y171.404 E15.48548
G1 X75.062 Y171.243 E15.50362
G1 X74.599 Y171.058 E15.5202
G1 X74.098 Y170.808 E15.53882
G1 X73.666 Y170.546 E15.55563
G1 X73.2 Y170.206 E15.57481
G1 X72.813 Y169.87 E15.59186
G1 X72.404 Y169.448 E15.61141
G1 X72.077 Y169.046 E15.62864
G1 X71.756 Y168.575 E15.6476
G1 X71.506 Y168.133 E15.66449
G1 X71.417 Y167.966 E15.67078
G1 X71.251 Y167.574 E15.68494
G1 X71.082 Y167.094 E15.70187
G1 X70.936 Y166.527 E15.72134
G1 X70.852 Y166.026 E15.73824
G1 X70.805 Y165.457 E15.75723
G1 X70.806 Y164.946 E15.77422
G1 X70.854 Y164.383 E15.79302
G1 X70.937 Y163.895 E15.80948
G1 X71.082 Y163.336 E15.82869
G1 X71.251 Y162.856 E15.84561
G1 X71.35 Y162.606 E15.85456
G1 X71.511 Y162.286 E15.86647
G1 X71.764 Y161.842 E15.88347
G1 X72.081 Y161.379 E15.90213
G1 X72.404 Y160.982 E15.91915
G1 X72.801 Y160.57 E15.93818
G1 X73.171 Y160.246 E15.95454
G1 X73.415 Y160.051 E15.96493
G1 X73.662 Y159.886 E15.97481
G1 X74.097 Y159.622 E15.99173
G1 X74.619 Y159.364 E16.0111
G0 F6000 X74.765 Y159.736
G1 F900 X75.244 Y159.548 E16.02821
G1 X75.686 Y159.413 E16.04359
G1 X76.116 Y159.317 E16.05824
G1 X76.346 Y159.275 E16.06602
G1 X97.22 Y156.293 E16.76734
G1 X97.521 Y156.266 E16.77739
G1 X98.521 Y156.225 E16.81068
G1 X99.02 Y156.246 E16.82729
G1 X100.026 Y156.373 E16.86101
G1 X100.518 Y156.477 E16.87774
G1 X101.477 Y156.767 E16.91106
G1 X101.954 Y156.957 E16.92814
G1 X102.879 Y157.421 E16.96256
G1 X103.314 Y157.688 E16.97953
G1 X104.135 Y158.293 E17.01345
G1 X104.321 Y158.442 E17.02138
G1 X104.54 Y158.65 E17.03143
G1 X105.079 Y159.215 E17.0574
G1 X116.502 Y159.215 E17.43733
G1 X116.541 Y159.167 E17.43939
G1 X116.844 Y158.845 E17.45409
G1 X117.392 Y158.342 E17.47883
G1 X117.535 Y158.219 E17.48511
G1 X136.915 Y142.556 E18.31389
G1 X137.013 Y142.48 E18.31801
G1 X137.242 Y142.31 E18.3275
G1 X137.581 Y142.092 E18.3409
G1 X138.018 Y141.851 E18.3575
G1 X138.48 Y141.645 E18.37433
G1 X138.968 Y141.475 E18.39151
G1 X139.463 Y141.349 E18.4085
G1 X139.962 Y141.266 E18.42533
G1 X140.472 Y141.225 E18.44234
G1 X140.982 Y141.228 E18.45931
G1 X141.483 Y141.273 E18.47604
G1 X141.995 Y141.363 E18.49333
G1 X142.439 Y141.477 E18.50857
G1 X142.796 Y141.598 E18.52111
G1 X142.973 Y141.664 E18.5274
G1 X157.578 Y147.667 E19.05259
G1 X157.809 Y147.774 E19.06106
G1 X158.245 Y147.998 E19.07736
G1 X158.657 Y148.254 E19.0935
G1 X159.052 Y148.546 E19.10983
G1 X159.235 Y148.692 E19.11762
G1 X159.457 Y148.903 E19.12781
G1 X159.806 Y149.27 E19.14465
G1 X160.118 Y149.658 E19.16121
G1 X160.407 Y150.086 E19.17839
G1 X160.658 Y150.537 E19.19555
G1 X160.855 Y150.976 E19.21156
G1 X161.018 Y151.437 E19.22782
G1 X161.109 Y151.782 E19.23969
G1 X161.406 Y152.086 E19.25382
G1 X161.747 Y152.597 E19.27426
G1 X161.868 Y152.826 E19.28287
G1 X162.061 Y153.276 E19.29916
G1 X162.141 Y153.586 E19.3098
G1 X162.677 Y154.598 E19.34789
G1 X162.87 Y155.048 E19.36418
G1 X162.969 Y155.421 E19.37701
G1 X163.143 Y156.302 E19.40688
G1 X163.198 Y156.788 E19.42315
G1 X163.174 Y157.277 E19.43943
G1 X163.129 Y157.533 E19.44808
G1 X162.9 Y158.565 E19.48324
G1 X162.755 Y159.033 E19.49953
G1 X162.536 Y159.47 E19.51579
G1 X162.249 Y159.867 E19.53209
G1 X161.901 Y160.211 E19.54836
G1 X161.502 Y160.495 E19.56465
G1 X161.295 Y160.596 E19.57231
G1 X161.295 Y169.756 E19.87697
G1 X161.34 Y169.775 E19.8786
G1 X161.754 Y170.036 E19.89488
G1 X162.12 Y170.361 E19.91116
G1 X162.429 Y170.741 E19.92745
G1 X162.671 Y171.166 E19.94371
G1 X162.876 Y171.759 E19.96458
G1 X163.13 Y172.858 E20.0021
G1 X163.201 Y173.343 E20.0184
G1 X163.192 Y173.832 E20.03467
G1 X163.15 Y174.117 E20.04425
G1 X162.976 Y174.995 E20.07402
G1 X162.842 Y175.466 E20.09031
G1 X162.689 Y175.807 E20.10274
G1 X162.158 Y176.817 E20.14069
G1 X162.03 Y177.261 E20.15606
G1 X161.88 Y177.594 E20.16821
G1 X161.75 Y177.841 E20.17749
G1 X161.487 Y178.254 E20.19377
G1 X161.161 Y178.619 E20.21005
G1 X161.105 Y178.664 E20.21244
G1 X161.026 Y178.968 E20.22289
G1 X160.985 Y179.11 E20.2278
G1 X160.854 Y179.459 E20.2402
G1 X160.657 Y179.897 E20.25618
G1 X160.409 Y180.342 E20.27312
G1 X160.118 Y180.774 E20.29044
G1 X159.799 Y181.171 E20.30738
G1 X159.455 Y181.531 E20.32394
G1 X159.079 Y181.864 E20.34065
G1 X158.667 Y182.171 E20.35774
G1 X158.24 Y182.436 E20.37445
G1 X157.8 Y182.661 E20.39089
G1 X157.574 Y182.765 E20.39917
G1 X142.965 Y188.768 E20.92448
G1 X142.783 Y188.836 E20.93095
G1 X142.433 Y188.954 E20.94323
G1 X142.001 Y189.065 E20.95807
G1 X141.49 Y189.156 E20.97533
G1 X140.982 Y189.202 E20.9923
G1 X140.472 Y189.205 E21.00926
G1 X139.968 Y189.165 E21.02607
G1 X139.469 Y189.083 E21.04289
G1 X138.959 Y188.953 E21.0604
G1 X138.473 Y188.782 E21.07753
G1 X138.018 Y188.578 E21.09412
G1 X137.573 Y188.332 E21.11103
G1 X137.251 Y188.126 E21.12374
G1 X137.038 Y187.97 E21.13253
G1 X136.925 Y187.883 E21.13727
G1 X117.531 Y172.208 E21.96666
G1 X117.379 Y172.077 E21.97334
G1 X116.816 Y171.556 E21.99885
G1 X116.517 Y171.236 E22.01342
G1 X116.5 Y171.215 E22.01432
G1 X105.081 Y171.215 E22.39411
G1 X104.524 Y171.795 E22.42086
G1 X104.138 Y172.134 E22.43795
G1 X103.312 Y172.742 E22.47206
G1 X102.884 Y173.005 E22.48877
G1 X101.961 Y173.47 E22.52314
G1 X101.48 Y173.662 E22.54037
G1 X100.519 Y173.953 E22.57376
G1 X100.022 Y174.059 E22.59067
G1 X99.007 Y174.186 E22.62469
G1 X98.512 Y174.206 E22.64116
G1 X97.513 Y174.165 E22.67442
G1 X97.211 Y174.138 E22.6845
G1 X76.338 Y171.154 E23.3858
G1 X76.109 Y171.112 E23.39355
G1 X75.67 Y171.014 E23.40851
G1 X75.211 Y170.872 E23.42449
G1 X74.748 Y170.687 E23.44107
G1 X74.305 Y170.466 E23.45754
G1 X73.873 Y170.204 E23.47434
G1 X73.462 Y169.904 E23.49126
G1 X73.075 Y169.568 E23.50831
G1 X72.715 Y169.196 E23.52553
G1 X72.388 Y168.794 E23.54276
G1 X72.104 Y168.378 E23.55952
G1 X71.854 Y167.936 E23.57641
G1 X71.775 Y167.787 E23.58202
G1 X71.628 Y167.441 E23.59452
G1 X71.459 Y166.961 E23.61144
G1 X71.33 Y166.461 E23.62862
