;FLAVOR:Marlin
;TIME:7392
;Filament used: 3.85818m
;Layer height: 0.16
;MINX:77.172
;MINY:118.497
;MINZ:0.2
;MAXX:151.829
;MAXY:193.149
;MAXZ:14.48
;Generated with Cura_SteamEngine 4.13.0
M140 S75
M105
M190 S75
M104 S245
M105
M109 S245
M82 ;absolute extrusion mode
; Ender 3 Custom Start G-code
G92 E0 ; Reset Extruder
G28 ; Home all axes
G1 Z2.0 F3000 ; Move Z Axis up little to prevent scratching of Heat Bed
G1 X0.1 Y20 Z0.3 F5000.0 ; Move to start position
G1 X0.1 Y200.0 Z0.3 F1500.0 E15 ; Draw the first line
G1 X0.4 Y200.0 Z0.3 F5000.0 ; Move to side a little
G1 X0.4 Y20 Z0.3 F1500.0 E30 ; Draw the second line
G92 E0 ; Reset Extruder
G1 Z2.0 F3000 ; Move Z Axis up little to prevent scratching of Heat Bed
G1 X5 Y20 Z0.3 F5000.0 ; Move over to prevent blob squish
G92 E0
G92 E0
G1 F1200 E-6
;LAYER_COUNT:90
;LAYER:0
M107
M204 S500
M205 X16 Y16
G0 F6000 X91.41 Y126.498 Z0.2
;TYPE:SKIRT
G1 F1200 E0
G1 F900 X93.37 Y125.06 E0.08085
G1 X93.59 Y124.91 E0.08971
G1 X95.714 Y123.57 E0.17324
G1 X95.956 Y123.43 E0.18254
G1 X98.137 Y122.269 E0.26471
G1 X98.4 Y122.141 E0.27444
G1 X100.636 Y121.163 E0.35562
G1 X100.896 Y121.061 E0.3649
G1 X103.209 Y120.246 E0.44647
G1 X103.474 Y120.163 E0.45571
G1 X105.939 Y119.492 E0.54068
G1 X106.217 Y119.428 E0.55017
G1 X108.621 Y118.964 E0.6316
G1 X108.895 Y118.921 E0.64082
G1 X111.347 Y118.631 E0.72295
G1 X111.625 Y118.609 E0.73222
G1 X114.11 Y118.499 E0.81495
G1 X114.398 Y118.497 E0.82453
G1 X116.902 Y118.576 E0.90786
G1 X117.181 Y118.595 E0.91716
G1 X119.618 Y118.852 E0.99866
G1 X119.893 Y118.891 E1.0079
G1 X122.341 Y119.332 E1.09063
G1 X122.612 Y119.391 E1.09986
G1 X125.026 Y120.011 E1.18275
G1 X125.298 Y120.092 E1.19219
G1 X127.597 Y120.869 E1.27291
G1 X127.859 Y120.968 E1.28222
G1 X130.191 Y121.953 E1.36642
G1 X130.441 Y122.07 E1.3756
G1 X132.578 Y123.162 E1.45542
G1 X132.848 Y123.326 E1.46593
G1 X132.852 Y123.319 E1.46619
G1 X135.016 Y124.642 E1.55055
G1 X135.242 Y124.792 E1.55958
G1 X137.215 Y126.201 E1.64021
G1 X137.444 Y126.377 E1.64982
G1 X139.327 Y127.951 E1.73145
G1 X139.53 Y128.134 E1.74054
G1 X141.356 Y129.898 E1.82498
G1 X141.558 Y130.108 E1.83467
G1 X143.21 Y131.969 E1.91744
G1 X143.199 Y131.978 E1.91791
G1 X143.397 Y132.194 E1.92766
G1 X144.922 Y134.188 E2.01115
G1 X145.088 Y134.422 E2.02069
G1 X146.397 Y136.432 E2.10047
G1 X146.536 Y136.663 E2.10944
G1 X147.733 Y138.822 E2.19155
G1 X147.86 Y139.072 E2.20087
G1 X148.935 Y141.4 E2.28616
G1 X149.044 Y141.661 E2.29557
G1 X149.877 Y143.887 E2.37462
G1 X149.966 Y144.154 E2.38398
G1 X150.667 Y146.556 E2.4672
G1 X150.734 Y146.82 E2.47626
G1 X151.256 Y149.241 E2.55864
G1 X151.308 Y149.539 E2.5687
G1 X151.633 Y151.971 E2.6503
G1 X151.658 Y152.227 E2.65886
G1 X151.821 Y154.725 E2.74212
G1 X151.829 Y155.019 E2.7519
G1 X151.799 Y157.45 E2.83276
G1 X151.785 Y157.729 E2.84205
G1 X151.569 Y160.24 E2.92588
G1 X151.536 Y160.511 E2.93496
G1 X151.148 Y162.948 E3.01704
G1 X151.092 Y163.229 E3.02657
G1 X150.517 Y165.65 E3.10933
G1 X150.444 Y165.914 E3.11844
G1 X149.711 Y168.24 E3.19955
G1 X149.614 Y168.513 E3.20919
G1 X148.668 Y170.87 E3.29366
G1 X148.556 Y171.121 E3.3028
G1 X147.467 Y173.354 E3.38543
G1 X147.33 Y173.61 E3.39509
G1 X146.67 Y174.736 E3.4385
G1 X146.603 Y174.847 E3.44281
G1 X146.441 Y175.103 E3.45289
G1 X146.102 Y175.707 E3.47593
G1 X145.917 Y176.003 E3.48754
G1 X144.531 Y178.015 E3.5688
G1 X144.367 Y178.236 E3.57795
G1 X142.838 Y180.143 E3.65925
G1 X142.652 Y180.358 E3.6687
G1 X140.963 Y182.169 E3.75107
G1 X140.763 Y182.368 E3.76045
G1 X138.908 Y184.082 E3.84445
G1 X138.695 Y184.264 E3.85377
G1 X136.785 Y185.784 E3.93496
G1 X136.561 Y185.95 E3.94423
G1 X134.514 Y187.347 E4.02666
G1 X134.272 Y187.499 E4.03617
G1 X132.095 Y188.756 E4.11978
G1 X131.852 Y188.885 E4.12893
G1 X129.633 Y189.96 E4.21094
G1 X129.37 Y190.075 E4.22048
G1 X127.05 Y190.99 E4.30343
G1 X126.796 Y191.08 E4.31239
G1 X124.449 Y191.818 E4.39422
G1 X124.17 Y191.894 E4.40384
G1 X121.758 Y192.455 E4.48621
G1 X121.439 Y192.507 E4.49696
G1 X121.44 Y192.513 E4.49716
G1 X119.115 Y192.875 E4.57542
G1 X118.836 Y192.908 E4.58476
G1 X116.209 Y193.12 E4.67242
G1 X115.953 Y193.132 E4.68095
G1 X115.621 Y193.136 E4.69199
G1 X113.493 Y193.149 E4.76277
G1 X113.209 Y193.14 E4.77222
G1 X110.728 Y192.969 E4.85493
G1 X110.463 Y192.941 E4.8638
G1 X108.003 Y192.597 E4.94641
G1 X107.715 Y192.546 E4.95614
G1 X105.322 Y192.021 E5.03762
G1 X105.051 Y191.951 E5.04693
G1 X102.708 Y191.253 E5.12825
G1 X102.439 Y191.161 E5.1377
G1 X100.103 Y190.27 E5.22086
G1 X99.848 Y190.162 E5.23007
G1 X97.619 Y189.12 E5.31191
G1 X97.373 Y188.995 E5.32108
G1 X95.147 Y187.75 E5.40591
G1 X94.903 Y187.601 E5.41542
G1 X92.858 Y186.246 E5.49702
G1 X92.63 Y186.082 E5.50636
G1 X90.737 Y184.616 E5.58599
G1 X90.54 Y184.454 E5.59447
G1 X88.573 Y182.684 E5.68249
G1 X88.371 Y182.488 E5.69185
G1 X86.695 Y180.738 E5.77244
G1 X86.515 Y180.536 E5.78144
G1 X84.951 Y178.651 E5.8629
G1 X84.77 Y178.416 E5.87277
G1 X83.326 Y176.37 E5.95606
G1 X83.175 Y176.139 E5.96524
G1 X81.884 Y173.994 E6.04851
G1 X81.746 Y173.742 E6.05807
G1 X80.657 Y171.578 E6.13864
G1 X80.544 Y171.333 E6.14761
G1 X79.579 Y169.019 E6.231
G1 X79.481 Y168.759 E6.24024
G1 X78.722 Y166.485 E6.31998
G1 X78.642 Y166.167 E6.33088
G1 X78.635 Y166.169 E6.33113
G1 X78.036 Y163.8 E6.4124
G1 X77.977 Y163.523 E6.42182
G1 X77.53 Y160.969 E6.50806
G1 X77.492 Y160.628 E6.51947
G1 X77.251 Y158.227 E6.59973
G1 X77.233 Y157.956 E6.60876
G1 X77.172 Y155.72 E6.68316
G1 X77.176 Y155.358 E6.6952
G1 X77.309 Y152.664 E6.78491
G1 X77.332 Y152.39 E6.79406
G1 X77.619 Y150.04 E6.8728
G1 X77.664 Y149.757 E6.88233
G1 X78.134 Y147.402 E6.9622
G1 X78.199 Y147.132 E6.97144
G1 X78.877 Y144.684 E7.05592
G1 X78.96 Y144.421 E7.0651
G1 X79.806 Y142.049 E7.14886
G1 X79.913 Y141.782 E7.15843
G1 X80.925 Y139.507 E7.24124
G1 X81.046 Y139.259 E7.25042
G1 X82.159 Y137.178 E7.32891
G1 X82.305 Y136.928 E7.33854
G1 X83.674 Y134.779 E7.42329
G1 X83.827 Y134.557 E7.43225
G1 X85.288 Y132.587 E7.51383
G1 X85.468 Y132.362 E7.52341
G1 X87.15 Y130.421 E7.60884
G1 X87.342 Y130.216 E7.61818
G1 X89.005 Y128.562 E7.69619
G1 X89.21 Y128.373 E7.70546
G1 X91.183 Y126.679 E7.79196
G1 X91.41 Y126.498 E7.80161
G0 F6000 X91.647 Y126.821
G1 F900 X93.607 Y125.383 E7.88247
G1 X93.804 Y125.248 E7.89041
G1 X95.928 Y123.908 E7.97394
G1 X96.144 Y123.783 E7.98224
G1 X98.325 Y122.622 E8.06442
G1 X98.561 Y122.508 E8.07313
G1 X100.797 Y121.53 E8.15431
G1 X101.029 Y121.438 E8.16261
G1 X103.342 Y120.623 E8.24417
G1 X103.579 Y120.549 E8.25243
G1 X106.044 Y119.878 E8.3374
G1 X106.293 Y119.821 E8.3459
G1 X108.697 Y119.357 E8.42733
G1 X108.942 Y119.319 E8.43558
G1 X111.394 Y119.029 E8.5177
G1 X111.643 Y119.008 E8.52601
G1 X114.128 Y118.898 E8.60874
G1 X114.385 Y118.897 E8.61729
G1 X116.889 Y118.976 E8.70061
G1 X117.139 Y118.993 E8.70895
G1 X119.576 Y119.25 E8.79045
G1 X119.822 Y119.285 E8.79872
G1 X122.27 Y119.726 E8.88145
G1 X122.513 Y119.779 E8.88972
G1 X124.927 Y120.399 E8.97262
G1 X125.17 Y120.471 E8.98105
G1 X127.469 Y121.248 E9.06176
G1 X127.703 Y121.337 E9.07009
G1 X130.035 Y122.322 E9.15429
G1 X130.259 Y122.426 E9.1625
G1 X132.396 Y123.518 E9.24232
G1 X132.639 Y123.666 E9.25178
G1 X132.643 Y123.66 E9.25202
G1 X134.807 Y124.983 E9.33638
G1 X135.01 Y125.117 E9.34447
G1 X136.983 Y126.526 E9.42511
G1 X137.188 Y126.684 E9.43372
G1 X139.071 Y128.258 E9.51535
G1 X139.252 Y128.422 E9.52347
G1 X141.078 Y130.186 E9.60791
G1 X141.259 Y130.374 E9.61659
G1 X142.911 Y132.235 E9.69936
G1 X142.902 Y132.243 E9.69976
G1 X143.08 Y132.437 E9.70852
G1 X144.605 Y134.431 E9.79201
G1 X144.753 Y134.641 E9.80056
G1 X146.062 Y136.651 E9.88034
G1 X146.187 Y136.857 E9.88835
G1 X147.384 Y139.016 E9.97046
G1 X147.497 Y139.24 E9.9788
G1 X148.572 Y141.568 E10.06409
G1 X148.669 Y141.801 E10.07248
G1 X149.502 Y144.027 E10.15153
G1 X149.582 Y144.266 E10.15992
G1 X150.283 Y146.668 E10.24314
G1 X150.343 Y146.904 E10.25124
G1 X150.865 Y149.325 E10.33361
G1 X150.911 Y149.592 E10.34262
G1 X151.236 Y152.024 E10.42423
G1 X151.259 Y152.253 E10.43188
G1 X151.422 Y154.751 E10.51515
G1 X151.429 Y155.014 E10.5239
G1 X151.399 Y157.445 E10.60476
G1 X151.386 Y157.694 E10.61305
G1 X151.17 Y160.205 E10.69688
G1 X151.141 Y160.449 E10.70505
G1 X150.753 Y162.886 E10.78712
G1 X150.703 Y163.137 E10.79564
G1 X150.128 Y165.558 E10.8784
G1 X150.063 Y165.794 E10.88654
G1 X149.33 Y168.12 E10.96765
G1 X149.242 Y168.364 E10.97628
G1 X148.296 Y170.721 E11.06075
G1 X148.197 Y170.945 E11.0689
G1 X147.108 Y173.178 E11.15153
G1 X146.985 Y173.407 E11.16018
G1 X146.265 Y174.633 E11.20746
G1 X146.095 Y174.901 E11.21802
G1 X145.753 Y175.511 E11.24128
G1 X145.588 Y175.776 E11.25166
G1 X144.202 Y177.788 E11.33292
G1 X144.055 Y177.986 E11.34113
G1 X142.526 Y179.893 E11.42242
G1 X142.359 Y180.085 E11.43089
G1 X140.67 Y181.896 E11.51325
G1 X140.491 Y182.074 E11.52165
G1 X138.636 Y183.788 E11.60565
G1 X138.446 Y183.951 E11.61398
G1 X136.536 Y185.471 E11.69516
G1 X136.336 Y185.619 E11.70344
G1 X134.289 Y187.016 E11.78587
G1 X134.072 Y187.152 E11.79439
G1 X131.895 Y188.409 E11.878
G1 X131.677 Y188.525 E11.88621
G1 X129.458 Y189.6 E11.96822
G1 X129.223 Y189.703 E11.97675
G1 X126.903 Y190.618 E12.0597
G1 X126.676 Y190.698 E12.06771
G1 X124.329 Y191.436 E12.14953
G1 X124.079 Y191.505 E12.15816
G1 X121.667 Y192.066 E12.24053
G1 X121.377 Y192.113 E12.2503
G1 X121.378 Y192.118 E12.25047
G1 X119.053 Y192.48 E12.32873
G1 X118.803 Y192.509 E12.3371
G1 X116.176 Y192.721 E12.42476
G1 X115.948 Y192.732 E12.43235
G1 X115.619 Y192.736 E12.44329
G1 X113.491 Y192.749 E12.51407
G1 X113.236 Y192.741 E12.52256
G1 X110.755 Y192.57 E12.60527
G1 X110.518 Y192.545 E12.6132
G1 X108.058 Y192.201 E12.69581
G1 X107.8 Y192.155 E12.70453
G1 X105.407 Y191.63 E12.78601
G1 X105.165 Y191.567 E12.79433
G1 X102.822 Y190.869 E12.87564
G1 X102.581 Y190.788 E12.8841
G1 X100.245 Y189.897 E12.96726
G1 X100.017 Y189.8 E12.9755
G1 X97.788 Y188.758 E13.05734
G1 X97.568 Y188.645 E13.06556
G1 X95.342 Y187.4 E13.15039
G1 X95.124 Y187.267 E13.15889
G1 X93.079 Y185.912 E13.24048
G1 X92.875 Y185.766 E13.24882
G1 X90.982 Y184.3 E13.32846
G1 X90.734 Y184.092 E13.33922
G1 X88.84 Y182.387 E13.42398
G1 X88.659 Y182.212 E13.43235
G1 X86.983 Y180.462 E13.51295
G1 X86.822 Y180.281 E13.52101
G1 X85.258 Y178.396 E13.60247
G1 X85.097 Y178.186 E13.61127
G1 X83.653 Y176.14 E13.69456
G1 X83.518 Y175.932 E13.70281
G1 X82.227 Y173.787 E13.78608
G1 X82.103 Y173.562 E13.79462
G1 X81.014 Y171.398 E13.8752
G1 X80.913 Y171.179 E13.88322
G1 X79.948 Y168.865 E13.96661
G1 X79.861 Y168.632 E13.97488
G1 X79.102 Y166.358 E14.05462
G1 X79.028 Y166.069 E14.06454
G1 X79.023 Y166.07 E14.06471
G1 X78.424 Y163.701 E14.14598
G1 X78.371 Y163.454 E14.15438
G1 X77.924 Y160.9 E14.24062
G1 X77.889 Y160.588 E14.25106
G1 X77.649 Y158.187 E14.33132
G1 X77.633 Y157.945 E14.33938
G1 X77.572 Y155.709 E14.41378
G1 X77.575 Y155.377 E14.42482
G1 X77.708 Y152.683 E14.51454
G1 X77.729 Y152.439 E14.52268
G1 X78.016 Y150.089 E14.60142
G1 X78.057 Y149.836 E14.60995
G1 X78.527 Y147.481 E14.68982
G1 X78.584 Y147.238 E14.69812
G1 X79.262 Y144.79 E14.78261
G1 X79.337 Y144.556 E14.79078
G1 X80.183 Y142.184 E14.87454
G1 X80.278 Y141.944 E14.88313
G1 X81.29 Y139.669 E14.96594
G1 X81.399 Y139.447 E14.97417
G1 X82.512 Y137.366 E15.05266
G1 X82.642 Y137.143 E15.06125
G1 X84.011 Y134.994 E15.14599
G1 X84.148 Y134.796 E15.154
G1 X85.609 Y132.826 E15.23558
G1 X85.771 Y132.624 E15.24419
G1 X87.453 Y130.683 E15.32961
G1 X87.624 Y130.499 E15.33797
G1 X89.287 Y128.845 E15.41598
G1 X89.47 Y128.676 E15.42426
G1 X91.443 Y126.982 E15.51076
G1 X91.647 Y126.821 E15.5194
G0 F6000 X91.883 Y127.143
G1 F900 X93.843 Y125.705 E15.60025
G1 X94.017 Y125.587 E15.60725
G1 X96.141 Y124.247 E15.69077
G1 X96.332 Y124.136 E15.69812
G1 X98.513 Y122.975 E15.7803
G1 X98.721 Y122.874 E15.78799
G1 X100.957 Y121.896 E15.86916
G1 X101.162 Y121.816 E15.87648
G1 X103.475 Y121.001 E15.95805
G1 X103.684 Y120.935 E15.96534
G1 X106.149 Y120.264 E16.05031
G1 X106.368 Y120.213 E16.05779
G1 X108.772 Y119.749 E16.13922
G1 X108.989 Y119.716 E16.14652
G1 X111.441 Y119.426 E16.22864
G1 X111.66 Y119.408 E16.23595
G1 X114.145 Y119.298 E16.31868
G1 X114.373 Y119.296 E16.32627
G1 X116.877 Y119.375 E16.40959
G1 X117.097 Y119.391 E16.41693
G1 X119.534 Y119.648 E16.49843
G1 X119.751 Y119.679 E16.50572
G1 X122.199 Y120.12 E16.58845
G1 X122.413 Y120.166 E16.59573
G1 X124.827 Y120.786 E16.67863
G1 X125.042 Y120.85 E16.68609
G1 X127.341 Y121.627 E16.76681
G1 X127.547 Y121.705 E16.77413
G1 X129.879 Y122.69 E16.85833
G1 X130.077 Y122.783 E16.86561
G1 X132.214 Y123.875 E16.94542
G1 X132.431 Y124.007 E16.95387
G1 X132.435 Y124.001 E16.95411
G1 X134.599 Y125.324 E17.03847
G1 X134.777 Y125.443 E17.04559
G1 X136.75 Y126.852 E17.12623
G1 X136.931 Y126.991 E17.13382
G1 X138.814 Y128.565 E17.21545
G1 X138.974 Y128.709 E17.22261
G1 X140.8 Y130.473 E17.30705
G1 X140.96 Y130.639 E17.31472
G1 X142.612 Y132.5 E17.39749
G1 X142.762 Y132.68 E17.40528
G1 X144.287 Y134.674 E17.48877
G1 X144.418 Y134.859 E17.49631
G1 X145.727 Y136.869 E17.57609
G1 X145.837 Y137.051 E17.58317
G1 X147.034 Y139.21 E17.66527
G1 X147.134 Y139.407 E17.67262
G1 X148.209 Y141.735 E17.75791
G1 X148.295 Y141.942 E17.76536
G1 X149.128 Y144.168 E17.84441
G1 X149.198 Y144.379 E17.85181
G1 X149.899 Y146.781 E17.93503
G1 X149.952 Y146.989 E17.94217
G1 X150.474 Y149.41 E18.02454
G1 X150.515 Y149.645 E18.03248
G1 X150.84 Y152.077 E18.11409
G1 X150.86 Y152.279 E18.12084
G1 X151.023 Y154.777 E18.2041
G1 X151.029 Y155.009 E18.21182
G1 X150.999 Y157.44 E18.29268
G1 X150.988 Y157.66 E18.3
G1 X150.772 Y160.171 E18.38383
G1 X150.746 Y160.386 E18.39103
G1 X150.358 Y162.823 E18.47311
G1 X150.314 Y163.044 E18.4806
G1 X149.739 Y165.465 E18.56337
G1 X149.681 Y165.674 E18.57058
G1 X148.948 Y168 E18.65169
G1 X148.871 Y168.215 E18.65929
G1 X147.925 Y170.572 E18.74376
G1 X147.837 Y170.77 E18.75097
G1 X146.748 Y173.003 E18.8336
G1 X146.64 Y173.205 E18.84122
G1 X145.927 Y174.419 E18.88804
G1 X145.749 Y174.7 E18.89911
G1 X145.404 Y175.315 E18.92256
G1 X145.259 Y175.549 E18.93172
G1 X143.873 Y177.561 E19.01298
G1 X143.743 Y177.736 E19.02023
G1 X142.214 Y179.643 E19.10153
G1 X142.067 Y179.812 E19.10898
G1 X140.378 Y181.623 E19.19134
G1 X140.22 Y181.78 E19.19875
G1 X138.365 Y183.494 E19.28275
G1 X138.197 Y183.638 E19.29011
G1 X136.287 Y185.158 E19.3713
G1 X136.11 Y185.289 E19.37862
G1 X134.063 Y186.686 E19.46105
G1 X133.872 Y186.806 E19.46855
G1 X131.695 Y188.063 E19.55216
G1 X131.503 Y188.165 E19.5594
G1 X129.284 Y189.24 E19.6414
G1 X129.077 Y189.331 E19.64892
G1 X126.757 Y190.246 E19.73187
G1 X126.556 Y190.317 E19.73896
G1 X124.209 Y191.055 E19.82079
G1 X123.989 Y191.115 E19.82838
G1 X121.577 Y191.676 E19.91074
G1 X121.316 Y191.718 E19.91953
G1 X118.992 Y192.084 E19.99778
G1 X118.771 Y192.11 E20.00519
G1 X116.144 Y192.322 E20.09284
G1 X115.942 Y192.332 E20.09957
G1 X115.616 Y192.336 E20.11041
G1 X113.488 Y192.349 E20.18119
G1 X113.264 Y192.342 E20.18865
G1 X110.783 Y192.171 E20.27136
G1 X110.574 Y192.149 E20.27835
G1 X108.114 Y191.805 E20.36097
G1 X107.886 Y191.764 E20.36867
G1 X105.493 Y191.239 E20.45016
G1 X105.279 Y191.184 E20.45751
G1 X102.936 Y190.486 E20.53882
G1 X102.724 Y190.414 E20.54626
G1 X100.388 Y189.523 E20.62942
G1 X100.187 Y189.438 E20.63668
G1 X97.958 Y188.396 E20.71852
G1 X97.764 Y188.296 E20.72578
G1 X95.538 Y187.051 E20.81061
G1 X95.345 Y186.934 E20.81811
G1 X93.3 Y185.579 E20.89971
G1 X93.12 Y185.45 E20.90707
G1 X91.227 Y183.984 E20.98671
G1 X91.002 Y183.795 E20.99648
G1 X89.108 Y182.09 E21.08124
G1 X88.948 Y181.935 E21.08865
G1 X87.272 Y180.185 E21.16924
G1 X87.13 Y180.026 E21.17633
G1 X85.566 Y178.141 E21.2578
G1 X85.424 Y177.955 E21.26558
G1 X83.98 Y175.909 E21.34887
G1 X83.861 Y175.726 E21.35613
G1 X82.57 Y173.581 E21.4394
G1 X82.46 Y173.383 E21.44693
G1 X81.371 Y171.219 E21.52751
G1 X81.282 Y171.025 E21.53461
G1 X80.317 Y168.711 E21.618
G1 X80.24 Y168.506 E21.62528
G1 X79.481 Y166.232 E21.70501
G1 X79.415 Y165.971 E21.71397
G1 X78.812 Y163.603 E21.79524
G1 X78.765 Y163.385 E21.80266
G1 X78.318 Y160.831 E21.8889
G1 X78.287 Y160.549 E21.89833
G1 X78.047 Y158.148 E21.97859
G1 X78.033 Y157.934 E21.98572
