;FLAVOR:Marlin
;TIME:1543
;Filament used: 0.903507m
;Layer height: 0.16
;MINX:103.7
;MINY:147.631
;MINZ:0.2
;MAXX:131.21
;MAXY:187.203
;MAXZ:12.36
;Generated with Cura_SteamEngine 4.13.0
M140 S75
M105
M190 S75
M104 S245
M105
M109 S245
M82 ;absolute extrusion mode
; Ender 3 Custom Start G-code
G92 E0 ; Reset Extruder
G28 ; Home all axes
G1 Z2.0 F3000 ; Move Z Axis up little to prevent scratching of Heat Bed
G1 X0.1 Y20 Z0.3 F5000.0 ; Move to start position
G1 X0.1 Y200.0 Z0.3 F1500.0 E15 ; Draw the first line
G1 X0.4 Y200.0 Z0.3 F5000.0 ; Move to side a little
G1 X0.4 Y20 Z0.3 F1500.0 E30 ; Draw the second line
G92 E0 ; Reset Extruder
G1 Z2.0 F3000 ; Move Z Axis up little to prevent scratching of Heat Bed
G1 X5 Y20 Z0.3 F5000.0 ; Move over to prevent blob squish
G92 E0
G92 E0
G1 F1200 E-6
;LAYER_COUNT:68
;LAYER:0
M107
M204 S500
M205 X16 Y16
G0 F6000 X112.859 Y149.158 Z0.2
;TYPE:SKIRT
G1 F1200 E0
G1 F900 X113.389 Y148.797 E0.02133
G1 X113.982 Y148.463 E0.04397
G1 X114.578 Y148.192 E0.06574
G1 X115.219 Y147.965 E0.08836
G1 X115.84 Y147.803 E0.1097
G1 X116.505 Y147.688 E0.13215
G1 X117.147 Y147.632 E0.15358
G1 X117.825 Y147.631 E0.17613
G1 X118.084 Y147.639 E0.18475
G1 X118.491 Y147.687 E0.19838
G1 X119.142 Y147.799 E0.22035
G1 X119.755 Y147.958 E0.24142
G1 X120.411 Y148.188 E0.26454
G1 X121.017 Y148.462 E0.28666
G1 X121.609 Y148.795 E0.30925
G1 X122.144 Y149.159 E0.33077
G1 X122.675 Y149.591 E0.35354
G1 X123.131 Y150.03 E0.37459
G1 X123.575 Y150.535 E0.39696
G1 X123.955 Y151.048 E0.41819
G1 X124.3 Y151.607 E0.44004
G1 X124.588 Y152.176 E0.46125
G1 X124.844 Y152.808 E0.48393
G1 X125.036 Y153.432 E0.50564
G1 X125.18 Y154.098 E0.52831
G1 X125.263 Y154.739 E0.54981
G1 X125.281 Y155.168 E0.56409
G1 X125.33 Y155.251 E0.56729
G1 X125.57 Y155.747 E0.58562
G1 X125.684 Y156.077 E0.59723
G1 X125.722 Y156.206 E0.6017
G1 X127.345 Y156.206 E0.65569
G1 X127.895 Y156.246 E0.67403
G1 X128.433 Y156.365 E0.69235
G1 X128.948 Y156.561 E0.71068
G1 X129.429 Y156.829 E0.72899
G1 X130.032 Y157.319 E0.75484
G1 X130.097 Y157.384 E0.75789
G1 X130.457 Y157.801 E0.77622
G1 X130.754 Y158.265 E0.79454
G1 X130.98 Y158.768 E0.81288
G1 X131.131 Y159.298 E0.83121
G1 X131.21 Y160.071 E0.85706
G1 X131.21 Y161.396 E0.90113
G1 X131.17 Y161.946 E0.91947
G1 X131.113 Y162.25 E0.92975
G1 X130.913 Y163.117 E0.95935
G1 X130.75 Y163.644 E0.9777
G1 X130.629 Y163.921 E0.98775
G1 X130.516 Y164.154 E0.99636
G1 X130.24 Y164.631 E1.01469
G1 X130.073 Y164.856 E1.02401
G1 X129.773 Y165.472 E1.0468
G1 X129.496 Y165.949 E1.06515
G1 X129.324 Y166.182 E1.07478
G1 X128.619 Y167.618 E1.12799
G1 X129.135 Y168.261 E1.15541
G1 X129.448 Y168.715 E1.17375
G1 X129.59 Y168.98 E1.18375
G1 X130.537 Y170.929 E1.25582
G1 X130.741 Y171.441 E1.27415
G1 X130.825 Y171.748 E1.28474
G1 X131.026 Y172.633 E1.31492
G1 X131.108 Y173.178 E1.33325
G1 X131.12 Y173.475 E1.34314
G1 X131.12 Y174.723 E1.38465
G1 X131.08 Y175.273 E1.40299
G1 X130.961 Y175.811 E1.42131
G1 X130.765 Y176.326 E1.43964
G1 X130.497 Y176.807 E1.45795
G1 X130.007 Y177.41 E1.4838
G1 X129.577 Y177.783 E1.50273
G1 X129.113 Y178.08 E1.52105
G1 X128.61 Y178.306 E1.53939
G1 X128.08 Y178.457 E1.55772
G1 X127.307 Y178.536 E1.58357
G1 X125.724 Y178.536 E1.63622
G1 X125.604 Y178.816 E1.64635
G1 X125.405 Y179.33 E1.66468
G1 X125.294 Y179.526 E1.67218
G1 X125.292 Y179.742 E1.67936
G1 X125.264 Y180.08 E1.69064
G1 X125.18 Y180.734 E1.71257
G1 X125.051 Y181.342 E1.73324
G1 X124.856 Y181.992 E1.75581
G1 X124.609 Y182.611 E1.77798
G1 X124.306 Y183.212 E1.80037
G1 X123.975 Y183.751 E1.8214
G1 X123.568 Y184.305 E1.84427
G1 X123.379 Y184.542 E1.85435
G1 X123.115 Y184.821 E1.86713
G1 X122.632 Y185.281 E1.88931
G1 X122.135 Y185.68 E1.91051
G1 X121.567 Y186.063 E1.93329
G1 X121.014 Y186.372 E1.95436
G1 X120.415 Y186.644 E1.97624
G1 X119.805 Y186.861 E1.99778
G1 X119.143 Y187.034 E2.02054
G1 X118.946 Y187.079 E2.02726
G1 X118.474 Y187.148 E2.04312
G1 X117.804 Y187.203 E2.06548
G1 X117.176 Y187.203 E2.08637
G1 X116.519 Y187.148 E2.1083
G1 X116.193 Y187.106 E2.11923
G1 X115.856 Y187.034 E2.13069
G1 X115.195 Y186.861 E2.15342
G1 X114.583 Y186.644 E2.17501
G1 X113.983 Y186.371 E2.19694
G1 X113.433 Y186.063 E2.21791
G1 X112.865 Y185.68 E2.24069
G1 X112.368 Y185.281 E2.26189
G1 X111.885 Y184.821 E2.28407
G1 X111.452 Y184.33 E2.30585
G1 X111.042 Y183.776 E2.32877
G1 X110.924 Y183.608 E2.3356
G1 X110.691 Y183.206 E2.35105
G1 X110.389 Y182.605 E2.37342
G1 X110.147 Y182 E2.3951
G1 X109.956 Y181.369 E2.41702
G1 X109.871 Y181.032 E2.42858
G1 X109.82 Y180.731 E2.43874
G1 X109.734 Y180.058 E2.4613
G1 X109.716 Y179.626 E2.47568
G1 X109.611 Y179.443 E2.4827
G1 X109.249 Y178.716 E2.50971
G1 X107.617 Y178.716 E2.56399
G1 X107.067 Y178.676 E2.58234
G1 X106.529 Y178.557 E2.60066
G1 X106.014 Y178.361 E2.61899
G1 X105.533 Y178.093 E2.6373
G1 X104.93 Y177.603 E2.66315
G1 X104.813 Y177.486 E2.66865
G1 X104.453 Y177.069 E2.68697
G1 X104.156 Y176.605 E2.7053
G1 X103.93 Y176.102 E2.72364
G1 X103.779 Y175.572 E2.74197
G1 X103.7 Y174.799 E2.76781
G1 X103.7 Y172.155 E2.85575
G1 X103.74 Y171.605 E2.87409
G1 X103.859 Y171.067 E2.89242
G1 X104.055 Y170.552 E2.91075
G1 X104.323 Y170.071 E2.92906
G1 X104.809 Y169.472 E2.95471
G1 X106.67 Y167.606 E3.04237
G1 X106.67 Y167.226 E3.05501
G1 X104.809 Y165.36 E3.14266
G1 X104.45 Y164.943 E3.16096
G1 X104.154 Y164.478 E3.1793
G1 X103.929 Y163.975 E3.19762
G1 X103.778 Y163.445 E3.21595
G1 X103.7 Y162.677 E3.24163
G1 X103.7 Y160.033 E3.32957
G1 X103.74 Y159.483 E3.34791
G1 X103.859 Y158.945 E3.36623
G1 X104.055 Y158.43 E3.38456
G1 X104.323 Y157.949 E3.40288
G1 X104.813 Y157.346 E3.42872
G1 X104.93 Y157.229 E3.43422
G1 X105.347 Y156.869 E3.45254
G1 X105.811 Y156.572 E3.47087
G1 X106.314 Y156.346 E3.48921
G1 X106.844 Y156.195 E3.50754
G1 X107.617 Y156.116 E3.53338
G1 X109.256 Y156.116 E3.5879
G1 X109.599 Y155.419 E3.61373
G1 X109.713 Y155.223 E3.62127
G1 X109.728 Y154.86 E3.63336
G1 X109.746 Y154.594 E3.64223
G1 X109.82 Y154.096 E3.65897
G1 X109.964 Y153.432 E3.68157
G1 X110.156 Y152.811 E3.70319
G1 X110.413 Y152.176 E3.72597
G1 X110.704 Y151.601 E3.74741
G1 X111.057 Y151.031 E3.76971
G1 X111.439 Y150.518 E3.79098
G1 X111.874 Y150.025 E3.81285
G1 X112.328 Y149.589 E3.83378
G1 X112.859 Y149.158 E3.85653
G0 F6000 X113.111 Y149.468
G1 F900 X113.585 Y149.146 E3.87559
G1 X114.178 Y148.812 E3.89823
G1 X114.712 Y148.569 E3.91774
G1 X115.353 Y148.342 E3.94036
G1 X115.909 Y148.197 E3.95947
G1 X116.574 Y148.082 E3.98191
G1 X117.148 Y148.032 E4.00108
G1 X117.826 Y148.031 E4.02363
G1 X118.059 Y148.039 E4.03138
G1 X118.423 Y148.081 E4.04357
G1 X119.074 Y148.193 E4.06554
G1 X119.623 Y148.335 E4.0844
G1 X120.279 Y148.565 E4.10752
G1 X120.821 Y148.811 E4.12732
G1 X121.413 Y149.144 E4.14991
G1 X121.892 Y149.47 E4.16918
G1 X122.423 Y149.902 E4.19195
G1 X122.83 Y150.294 E4.21074
G1 X123.274 Y150.799 E4.23311
G1 X123.614 Y151.258 E4.25211
G1 X123.959 Y151.817 E4.27395
G1 X124.217 Y152.327 E4.29296
G1 X124.473 Y152.959 E4.31564
G1 X124.645 Y153.516 E4.33503
G1 X124.789 Y154.182 E4.3577
G1 X124.863 Y154.756 E4.37695
G1 X124.886 Y155.295 E4.39489
G1 X124.983 Y155.451 E4.401
G1 X125.209 Y155.921 E4.41834
G1 X125.3 Y156.19 E4.42779
G1 X125.405 Y156.546 E4.44013
G1 X125.44 Y156.606 E4.44244
G1 X127.345 Y156.606 E4.5058
G1 X127.865 Y156.646 E4.52315
G1 X128.372 Y156.765 E4.54047
G1 X128.855 Y156.96 E4.5578
G1 X129.303 Y157.226 E4.57513
G1 X129.749 Y157.602 E4.59453
G1 X129.814 Y157.667 E4.59759
G1 X130.153 Y158.063 E4.61492
G1 X130.428 Y158.505 E4.63224
G1 X130.632 Y158.985 E4.64958
G1 X130.76 Y159.49 E4.66691
G1 X130.81 Y160.071 E4.68631
G1 X130.81 Y161.396 E4.73038
G1 X130.723 Y162.16 E4.75595
G1 X130.523 Y163.027 E4.78555
G1 X130.269 Y163.747 E4.81094
G1 X130.156 Y163.98 E4.81955
G1 X129.74 Y164.634 E4.84533
G1 X129.73 Y164.646 E4.84585
G1 X129.413 Y165.297 E4.86993
G1 X129.007 Y165.937 E4.89514
G1 X128.985 Y165.965 E4.89633
G1 X128.147 Y167.671 E4.95955
G1 X128.823 Y168.512 E4.99543
G1 X129.23 Y169.155 E5.02074
G1 X130.177 Y171.104 E5.09281
G1 X130.435 Y171.837 E5.11866
G1 X130.636 Y172.722 E5.14885
G1 X130.72 Y173.475 E5.17405
G1 X130.72 Y174.723 E5.21555
G1 X130.68 Y175.243 E5.2329
G1 X130.561 Y175.75 E5.25022
G1 X130.366 Y176.233 E5.26755
G1 X130.1 Y176.681 E5.28488
G1 X129.724 Y177.127 E5.30428
G1 X129.315 Y177.479 E5.32223
G1 X128.873 Y177.754 E5.33954
G1 X128.393 Y177.958 E5.35689
G1 X127.888 Y178.086 E5.37421
G1 X127.307 Y178.136 E5.39361
G1 X125.492 Y178.136 E5.45398
G1 X125.281 Y178.504 E5.46809
G1 X125.221 Y178.699 E5.47487
G1 X125.031 Y179.184 E5.4922
G1 X124.893 Y179.421 E5.50132
G1 X124.894 Y179.675 E5.50977
G1 X124.892 Y179.727 E5.5115
G1 X124.867 Y180.029 E5.52158
G1 X124.783 Y180.683 E5.54351
G1 X124.668 Y181.227 E5.562
G1 X124.473 Y181.877 E5.58457
G1 X124.252 Y182.431 E5.60441
G1 X123.949 Y183.032 E5.62679
G1 X123.653 Y183.514 E5.64561
G1 X123.246 Y184.068 E5.66847
G1 X123.075 Y184.282 E5.67758
G1 X122.839 Y184.531 E5.68899
G1 X122.356 Y184.991 E5.71118
G1 X121.912 Y185.348 E5.73013
G1 X121.344 Y185.731 E5.75291
G1 X120.849 Y186.008 E5.77178
G1 X120.25 Y186.28 E5.79366
G1 X119.704 Y186.474 E5.81293
G1 X119.042 Y186.647 E5.83569
G1 X118.863 Y186.688 E5.8418
G1 X118.441 Y186.75 E5.85598
G1 X117.771 Y186.805 E5.87834
G1 X117.209 Y186.804 E5.89703
G1 X116.552 Y186.749 E5.91896
G1 X116.259 Y186.712 E5.92879
G1 X115.957 Y186.647 E5.93906
G1 X115.296 Y186.474 E5.96179
G1 X114.749 Y186.28 E5.98109
G1 X114.149 Y186.007 E6.00301
G1 X113.656 Y185.731 E6.02181
G1 X113.088 Y185.348 E6.04459
G1 X112.644 Y184.991 E6.06354
G1 X112.161 Y184.531 E6.08573
G1 X111.773 Y184.092 E6.10521
G1 X111.363 Y183.538 E6.12814
G1 X111.257 Y183.386 E6.1343
G1 X111.048 Y183.027 E6.14812
G1 X110.746 Y182.426 E6.17049
G1 X110.53 Y181.884 E6.18989
G1 X110.339 Y181.253 E6.21182
G1 X110.262 Y180.949 E6.22225
G1 X110.216 Y180.68 E6.23133
G1 X110.13 Y180.007 E6.25389
G1 X110.11 Y179.503 E6.27067
G1 X109.969 Y179.265 E6.27987
G1 X109.496 Y178.316 E6.31514
G1 X107.617 Y178.316 E6.37763
G1 X107.097 Y178.276 E6.39498
G1 X106.59 Y178.157 E6.4123
G1 X106.107 Y177.962 E6.42962
G1 X105.659 Y177.696 E6.44695
G1 X105.213 Y177.32 E6.46636
G1 X105.096 Y177.203 E6.47186
G1 X104.757 Y176.807 E6.4892
G1 X104.482 Y176.365 E6.50651
G1 X104.278 Y175.885 E6.52386
G1 X104.15 Y175.38 E6.54119
G1 X104.1 Y174.799 E6.56058
G1 X104.1 Y172.155 E6.64852
G1 X104.14 Y171.635 E6.66587
G1 X104.259 Y171.128 E6.68319
G1 X104.454 Y170.645 E6.70051
G1 X104.72 Y170.197 E6.71784
G1 X105.093 Y169.754 E6.7371
G1 X107.07 Y167.772 E6.83021
G1 X107.07 Y167.06 E6.85389
G1 X105.093 Y165.078 E6.947
G1 X104.754 Y164.682 E6.96434
G1 X104.48 Y164.239 E6.98167
G1 X104.277 Y163.759 E6.999
G1 X104.149 Y163.253 E7.01636
G1 X104.1 Y162.677 E7.03559
G1 X104.1 Y160.033 E7.12353
G1 X104.14 Y159.513 E7.14087
G1 X104.259 Y159.006 E7.1582
G1 X104.454 Y158.523 E7.17552
G1 X104.72 Y158.075 E7.19285
G1 X105.096 Y157.629 E7.21225
G1 X105.213 Y157.512 E7.21775
G1 X105.609 Y157.173 E7.23509
G1 X106.051 Y156.898 E7.25241
G1 X106.531 Y156.694 E7.26975
G1 X107.036 Y156.566 E7.28708
G1 X107.617 Y156.516 E7.30648
G1 X109.504 Y156.516 E7.36924
G1 X109.957 Y155.596 E7.40335
G1 X110.109 Y155.339 E7.41328
G1 X110.128 Y154.876 E7.42869
G1 X110.145 Y154.626 E7.43702
G1 X110.211 Y154.18 E7.45202
G1 X110.355 Y153.516 E7.47462
G1 X110.526 Y152.961 E7.49393
G1 X110.783 Y152.326 E7.51672
G1 X111.044 Y151.812 E7.53589
G1 X111.397 Y151.242 E7.55819
G1 X111.739 Y150.782 E7.57726
G1 X112.174 Y150.289 E7.59912
G1 X112.58 Y149.899 E7.61785
G1 X113.111 Y149.468 E7.64059
G0 F6000 X113.363 Y149.779
G1 F900 X113.782 Y149.494 E7.65745
G1 X114.375 Y149.16 E7.68008
G1 X114.846 Y148.946 E7.69729
G1 X115.487 Y148.719 E7.71991
G1 X115.977 Y148.591 E7.73675
G1 X116.642 Y148.476 E7.7592
G1 X117.149 Y148.432 E7.77613
G1 X117.827 Y148.431 E7.79868
G1 X118.034 Y148.438 E7.80556
G1 X118.356 Y148.475 E7.81634
G1 X119.007 Y148.587 E7.83832
G1 X119.491 Y148.713 E7.85495
G1 X120.147 Y148.943 E7.87807
G1 X120.625 Y149.159 E7.89552
G1 X121.217 Y149.492 E7.91811
G1 X121.639 Y149.78 E7.9351
G1 X122.17 Y150.212 E7.95787
G1 X122.53 Y150.558 E7.97448
G1 X122.974 Y151.063 E7.99684
G1 X123.274 Y151.468 E8.0136
G1 X123.619 Y152.027 E8.03545
G1 X123.847 Y152.477 E8.05223
G1 X124.103 Y153.109 E8.07491
G1 X124.254 Y153.601 E8.09203
G1 X124.398 Y154.267 E8.11469
G1 X124.463 Y154.773 E8.13166
G1 X124.491 Y155.424 E8.15333
G1 X124.637 Y155.651 E8.16231
G1 X124.917 Y156.303 E8.18591
G1 X125.036 Y156.708 E8.19995
G1 X125.209 Y157.006 E8.21141
G1 X127.345 Y157.006 E8.28245
G1 X127.833 Y157.046 E8.29874
G1 X128.308 Y157.165 E8.31503
G1 X128.757 Y157.359 E8.33129
G1 X129.169 Y157.624 E8.34759
G1 X129.466 Y157.885 E8.36074
G1 X129.531 Y157.95 E8.36379
G1 X129.848 Y158.323 E8.38008
G1 X130.1 Y158.743 E8.39637
G1 X130.28 Y159.198 E8.41264
G1 X130.384 Y159.676 E8.42891
G1 X130.41 Y160.071 E8.44208
G1 X130.41 Y161.396 E8.48615
G1 X130.333 Y162.07 E8.50871
G1 X130.133 Y162.937 E8.5383
G1 X129.909 Y163.572 E8.5607
G1 X129.796 Y163.805 E8.56931
G1 X129.429 Y164.383 E8.59208
G1 X129.392 Y164.429 E8.59405
G1 X129.054 Y165.122 E8.61969
G1 X128.695 Y165.686 E8.64193
G1 X128.647 Y165.746 E8.64449
G1 X127.676 Y167.723 E8.71774
G1 X128.511 Y168.762 E8.76208
G1 X128.87 Y169.33 E8.78443
G1 X129.817 Y171.279 E8.8565
G1 X130.044 Y171.926 E8.8793
G1 X130.245 Y172.811 E8.90949
G1 X130.32 Y173.475 E8.93171
G1 X130.32 Y174.723 E8.97322
G1 X130.28 Y175.211 E8.98951
G1 X130.161 Y175.686 E9.00579
G1 X129.967 Y176.135 E9.02206
G1 X129.702 Y176.547 E9.03835
G1 X129.428 Y176.857 E9.05212
G1 X129.055 Y177.174 E9.0684
G1 X128.635 Y177.426 E9.08469
G1 X128.18 Y177.606 E9.10096
G1 X127.702 Y177.71 E9.11723
G1 X127.307 Y177.736 E9.1304
G1 X125.261 Y177.736 E9.19845
G1 X124.912 Y178.342 E9.22171
G1 X124.839 Y178.582 E9.23005
G1 X124.658 Y179.037 E9.24634
G1 X124.49 Y179.315 E9.25714
G1 X124.494 Y179.4 E9.25997
G1 X124.495 Y179.659 E9.26859
G1 X124.493 Y179.711 E9.27032
G1 X124.471 Y179.978 E9.27923
G1 X124.387 Y180.632 E9.30116
G1 X124.284 Y181.112 E9.31749
G1 X124.089 Y181.762 E9.34006
G1 X123.895 Y182.251 E9.35756
G1 X123.592 Y182.852 E9.37994
G1 X123.331 Y183.277 E9.39653
G1 X122.924 Y183.831 E9.41939
G1 X122.772 Y184.021 E9.42749
G1 X122.563 Y184.241 E9.43758
G1 X122.08 Y184.701 E9.45976
G1 X121.688 Y185.016 E9.47649
G1 X121.12 Y185.399 E9.49928
G1 X120.683 Y185.644 E9.51594
G1 X120.084 Y185.916 E9.53782
G1 X119.603 Y186.087 E9.5548
G1 X118.941 Y186.26 E9.57756
G1 X118.781 Y186.297 E9.58302
G1 X118.408 Y186.351 E9.59555
G1 X117.738 Y186.406 E9.61791
G1 X117.243 Y186.406 E9.63438
G1 X116.586 Y186.351 E9.6563
G1 X116.325 Y186.317 E9.66506
G1 X116.058 Y186.26 E9.67414
G1 X115.397 Y186.087 E9.69686
G1 X114.915 Y185.916 E9.71387
G1 X114.315 Y185.643 E9.7358
G1 X113.88 Y185.399 E9.75239
G1 X113.312 Y185.016 E9.77517
G1 X112.92 Y184.701 E9.7919
G1 X112.437 Y184.241 E9.81408
G1 X112.095 Y183.854 E9.83126
G1 X111.685 Y183.3 E9.85419
G1 X111.59 Y183.164 E9.8597
G1 X111.405 Y182.847 E9.87191
G1 X111.103 Y182.246 E9.89428
G1 X110.913 Y181.768 E9.91139
G1 X110.722 Y181.137 E9.93332
G1 X110.653 Y180.867 E9.94259
G1 X110.613 Y180.629 E9.95061
G1 X110.527 Y179.956 E9.97318
G1 X110.506 Y179.438 E9.99042
G1 X110.509 Y179.383 E9.99225
G1 X110.327 Y179.086 E10.00384
G1 X109.744 Y177.916 E10.04732
G1 X107.617 Y177.916 E10.11806
G1 X107.129 Y177.876 E10.13435
G1 X106.654 Y177.757 E10.15063
G1 X106.205 Y177.563 E10.1669
G1 X105.793 Y177.298 E10.1832
G1 X105.496 Y177.037 E10.19635
G1 X105.379 Y176.92 E10.20185
G1 X105.062 Y176.547 E10.21813
G1 X104.81 Y176.127 E10.23442
G1 X104.63 Y175.672 E10.2507
G1 X104.526 Y175.194 E10.26697
G1 X104.5 Y174.799 E10.28013
G1 X104.5 Y172.155 E10.36807
G1 X104.54 Y171.667 E10.38436
G1 X104.659 Y171.192 E10.40064
G1 X104.853 Y170.743 E10.41691
G1 X105.118 Y170.331 E10.43321
G1 X105.376 Y170.037 E10.44621
G1 X107.47 Y167.937 E10.54485
G1 X107.47 Y166.895 E10.57951
G1 X105.376 Y164.795 E10.67815
G1 X105.06 Y164.422 E10.6944
G1 X104.808 Y164.002 E10.7107
G1 X104.629 Y163.546 E10.72699
G1 X104.526 Y163.068 E10.74325
G1 X104.5 Y162.677 E10.75629
G1 X104.5 Y160.033 E10.84423
G1 X104.54 Y159.545 E10.86051
