;FLAVOR:Marlin
;TIME:4131
;Filament used: 2.14863m
;Layer height: 0.16
;MINX:99.354
;MINY:141.862
;MINZ:0.2
;MAXX:135.646
;MAXY:178.155
;MAXZ:22.36
;Generated with Cura_SteamEngine 4.13.0
M140 S75
M105
M190 S75
M104 S245
M105
M109 S245
M82 ;absolute extrusion mode
; Ender 3 Custom Start G-code
G92 E0 ; Reset Extruder
G28 ; Home all axes
G1 Z2.0 F3000 ; Move Z Axis up little to prevent scratching of Heat Bed
G1 X0.1 Y20 Z0.3 F5000.0 ; Move to start position
G1 X0.1 Y200.0 Z0.3 F1500.0 E15 ; Draw the first line
G1 X0.4 Y200.0 Z0.3 F5000.0 ; Move to side a little
G1 X0.4 Y20 Z0.3 F1500.0 E30 ; Draw the second line
G92 E0 ; Reset Extruder
G1 Z2.0 F3000 ; Move Z Axis up little to prevent scratching of Heat Bed
G1 X5 Y20 Z0.3 F5000.0 ; Move over to prevent blob squish
G92 E0
G92 E0
G1 F1200 E-6
;LAYER_COUNT:136
;LAYER:0
M107
M204 S500
M205 X16 Y16
G0 F6000 X107.387 Y146.499 Z0.2
;TYPE:SKIRT
G1 F1200 E0
G1 F900 X108.532 Y145.717 E0.04612
G1 X108.879 Y145.506 E0.05962
G1 X110.037 Y144.885 E0.10333
G1 X110.375 Y144.725 E0.11577
G1 X111.901 Y144.091 E0.17073
G1 X112.307 Y143.948 E0.18504
G1 X113.338 Y143.651 E0.22073
G1 X113.487 Y143.612 E0.22585
G1 X114.288 Y143.416 E0.25328
G1 X114.891 Y143.319 E0.27359
G1 X116.972 Y143.154 E0.34303
G1 X117.445 Y143.146 E0.35876
G1 X119 Y143.217 E0.41053
G1 X119.384 Y143.226 E0.42331
G1 X119.657 Y143.241 E0.4324
G1 X120.298 Y143.341 E0.45398
G1 X122.263 Y143.822 E0.52127
G1 X122.676 Y143.948 E0.53563
G1 X123.843 Y144.379 E0.577
G1 X124.199 Y144.532 E0.58989
G1 X125.639 Y145.238 E0.64323
G1 X126.047 Y145.47 E0.65884
G1 X127.184 Y146.214 E0.70404
G1 X127.459 Y146.413 E0.71533
G1 X128.575 Y147.295 E0.76264
G1 X128.881 Y147.564 E0.77619
G1 X129.706 Y148.374 E0.81464
G1 X129.989 Y148.684 E0.8286
G1 X131.14 Y150.097 E0.88922
G1 X131.221 Y150.201 E0.8936
G1 X131.395 Y150.443 E0.90352
G1 X131.919 Y151.237 E0.93516
G1 X132.132 Y151.604 E0.94927
G1 X132.591 Y152.504 E0.98287
G1 X132.679 Y152.712 E0.99039
G1 X132.837 Y153.018 E1.00184
G1 X133.014 Y153.413 E1.01624
G1 X133.721 Y155.274 E1.08245
G1 X133.922 Y156.027 E1.10837
G1 X134.23 Y157.964 E1.17361
G1 X134.257 Y158.173 E1.18062
G1 X134.366 Y159.236 E1.21616
G1 X134.38 Y159.832 E1.23599
G1 X134.291 Y161.457 E1.29011
G1 X134.247 Y161.861 E1.30363
G1 X133.891 Y164.041 E1.3771
G1 X133.731 Y164.675 E1.39885
G1 X133.511 Y165.309 E1.42117
G1 X133.451 Y165.469 E1.42685
G1 X132.736 Y167.264 E1.49111
G1 X132.506 Y167.743 E1.50879
G1 X132.085 Y168.48 E1.53702
G1 X131.945 Y168.705 E1.54583
G1 X131.065 Y170.023 E1.59854
G1 X130.804 Y170.37 E1.61298
G1 X129.918 Y171.414 E1.65852
G1 X129.794 Y171.556 E1.6648
G1 X129.554 Y171.807 E1.67635
G1 X128.781 Y172.544 E1.71187
G1 X128.609 Y172.699 E1.71957
G1 X127.759 Y173.416 E1.75656
G1 X127.284 Y173.757 E1.776
G1 X125.583 Y174.792 E1.84223
G1 X125.252 Y174.972 E1.85476
G1 X124.216 Y175.469 E1.89298
G1 X123.946 Y175.588 E1.90279
G1 X123.712 Y175.677 E1.91112
G1 X122.408 Y176.128 E1.95701
G1 X122.155 Y176.206 E1.96582
G1 X120.968 Y176.526 E2.00671
G1 X120.445 Y176.628 E2.02443
G1 X118.332 Y176.889 E2.09524
G1 X117.549 Y176.905 E2.12129
G1 X115.221 Y176.71 E2.19899
G1 X114.834 Y176.657 E2.21198
G1 X113.694 Y176.442 E2.25057
G1 X113.245 Y176.329 E2.26597
G1 X111.894 Y175.899 E2.31312
G1 X111.547 Y175.769 E2.32545
G1 X110.132 Y175.161 E2.37667
G1 X109.84 Y175.021 E2.38744
G1 X109.701 Y174.946 E2.39269
G1 X108.567 Y174.316 E2.43584
G1 X108.214 Y174.094 E2.44971
G1 X107.279 Y173.431 E2.48783
G1 X106.918 Y173.14 E2.50326
G1 X105.646 Y171.981 E2.56049
G1 X105.402 Y171.738 E2.57194
G1 X104.512 Y170.766 E2.61578
G1 X104.258 Y170.457 E2.62908
G1 X103.547 Y169.494 E2.6689
G1 X103.311 Y169.133 E2.68324
G1 X102.522 Y167.763 E2.73582
G1 X102.332 Y167.387 E2.74983
G1 X101.882 Y166.356 E2.78725
G1 X101.753 Y166.017 E2.79931
G1 X101.248 Y164.472 E2.85338
G1 X101.145 Y164.09 E2.86654
G1 X100.94 Y163.137 E2.89896
G1 X100.908 Y162.834 E2.90909
G1 X100.812 Y162.327 E2.92625
G1 X100.648 Y160.655 E2.98213
G1 X100.63 Y160.27 E2.99495
G1 X100.633 Y159.884 E3.00779
G1 X100.664 Y158.965 E3.03837
G1 X100.687 Y158.661 E3.04851
G1 X100.907 Y156.739 E3.11286
G1 X101.078 Y155.967 E3.13916
G1 X101.667 Y154.203 E3.20101
G1 X101.818 Y153.82 E3.2147
G1 X102.584 Y152.154 E3.27569
G1 X102.766 Y151.806 E3.28875
G1 X103.241 Y151.003 E3.31978
G1 X103.546 Y150.563 E3.33759
G1 X103.785 Y150.214 E3.35166
G1 X104.413 Y149.378 E3.38644
G1 X104.577 Y149.173 E3.39517
G1 X104.718 Y149.013 E3.40226
G1 X105.64 Y148.025 E3.44721
G1 X105.904 Y147.768 E3.45946
G1 X107.016 Y146.787 E3.50878
G1 X107.387 Y146.499 E3.5244
G0 F6000 X107.612 Y146.829
G1 F900 X108.757 Y146.047 E3.57052
G1 X109.068 Y145.859 E3.58261
G1 X110.226 Y145.238 E3.62631
G1 X110.529 Y145.094 E3.63747
G1 X112.055 Y144.46 E3.69243
G1 X112.418 Y144.333 E3.70522
G1 X113.449 Y144.036 E3.74091
G1 X113.582 Y144 E3.74549
G1 X114.383 Y143.804 E3.77292
G1 X114.922 Y143.718 E3.79107
G1 X117.003 Y143.553 E3.8605
G1 X117.427 Y143.546 E3.87461
G1 X118.973 Y143.616 E3.92608
G1 X119.374 Y143.626 E3.93942
G1 X119.629 Y143.64 E3.94792
G1 X120.202 Y143.73 E3.96721
G1 X122.167 Y144.211 E4.03449
G1 X122.537 Y144.324 E4.04736
G1 X123.704 Y144.755 E4.08874
G1 X124.023 Y144.891 E4.10027
G1 X125.463 Y145.597 E4.15361
G1 X125.828 Y145.805 E4.16759
G1 X126.965 Y146.549 E4.21278
G1 X127.211 Y146.727 E4.22288
G1 X128.327 Y147.609 E4.27019
G1 X128.601 Y147.85 E4.28233
G1 X129.426 Y148.66 E4.32078
G1 X129.679 Y148.937 E4.33326
G1 X130.777 Y150.283 E4.39103
G1 X130.905 Y150.447 E4.39795
G1 X131.061 Y150.663 E4.40681
G1 X131.585 Y151.457 E4.43846
G1 X131.776 Y151.785 E4.45108
G1 X132.235 Y152.685 E4.48468
G1 X132.316 Y152.881 E4.49174
G1 X132.482 Y153.201 E4.50373
G1 X132.64 Y153.556 E4.51665
G1 X133.347 Y155.417 E4.58286
G1 X133.527 Y156.09 E4.60603
G1 X133.835 Y158.027 E4.67127
G1 X133.859 Y158.214 E4.67754
G1 X133.968 Y159.277 E4.71308
G1 X133.981 Y159.81 E4.73081
G1 X133.892 Y161.435 E4.78494
G1 X133.853 Y161.797 E4.79705
G1 X133.497 Y163.977 E4.87052
G1 X133.353 Y164.544 E4.88998
G1 X133.133 Y165.178 E4.9123
G1 X133.08 Y165.321 E4.91737
G1 X132.365 Y167.116 E4.98163
G1 X132.158 Y167.544 E4.99745
G1 X131.737 Y168.281 E5.02568
G1 X131.613 Y168.483 E5.03356
G1 X130.733 Y169.801 E5.08627
G1 X130.499 Y170.111 E5.09919
G1 X129.617 Y171.151 E5.14454
G1 X129.493 Y171.293 E5.15081
G1 X129.278 Y171.518 E5.16116
G1 X128.505 Y172.255 E5.19669
G1 X128.351 Y172.393 E5.20356
G1 X127.501 Y173.11 E5.24055
G1 X127.076 Y173.416 E5.25797
G1 X125.375 Y174.451 E5.32419
G1 X125.079 Y174.612 E5.3354
G1 X124.043 Y175.109 E5.37362
G1 X123.791 Y175.219 E5.38276
G1 X123.581 Y175.299 E5.39024
G1 X122.277 Y175.75 E5.43613
G1 X122.051 Y175.82 E5.444
G1 X120.864 Y176.14 E5.48489
G1 X120.396 Y176.231 E5.50075
G1 X118.283 Y176.492 E5.57156
G1 X117.582 Y176.506 E5.59488
G1 X115.254 Y176.311 E5.67258
G1 X114.908 Y176.264 E5.68419
G1 X113.768 Y176.049 E5.72278
G1 X113.367 Y175.948 E5.73653
G1 X112.016 Y175.518 E5.78369
G1 X111.705 Y175.402 E5.79473
G1 X110.29 Y174.794 E5.84595
G1 X110.028 Y174.668 E5.85562
G1 X109.895 Y174.596 E5.86065
G1 X108.761 Y173.966 E5.9038
G1 X108.445 Y173.767 E5.91622
G1 X107.51 Y173.104 E5.95434
G1 X107.187 Y172.844 E5.96813
G1 X105.915 Y171.685 E6.02537
G1 X105.697 Y171.468 E6.0356
G1 X104.807 Y170.496 E6.07943
G1 X104.58 Y170.219 E6.09134
G1 X103.869 Y169.256 E6.13116
G1 X103.658 Y168.934 E6.14396
G1 X102.869 Y167.564 E6.19654
G1 X102.699 Y167.227 E6.2091
G1 X102.249 Y166.196 E6.24651
G1 X102.133 Y165.892 E6.25733
G1 X101.628 Y164.347 E6.3114
G1 X101.536 Y164.006 E6.32314
G1 X101.331 Y163.053 E6.35557
G1 X101.301 Y162.767 E6.36513
G1 X101.21 Y162.288 E6.38135
G1 X101.046 Y160.616 E6.43723
G1 X101.03 Y160.272 E6.44868
G1 X101.033 Y159.897 E6.46115
G1 X101.064 Y158.978 E6.49174
G1 X101.084 Y158.706 E6.50081
G1 X101.304 Y156.784 E6.56515
G1 X101.457 Y156.094 E6.58866
G1 X102.046 Y154.33 E6.65051
G1 X102.182 Y153.987 E6.66278
G1 X102.948 Y152.321 E6.72377
G1 X103.111 Y152.01 E6.73545
G1 X103.586 Y151.207 E6.76648
G1 X103.858 Y150.813 E6.78241
G1 X104.105 Y150.454 E6.7969
G1 X104.733 Y149.618 E6.83168
G1 X105.01 Y149.286 E6.84606
G1 X105.932 Y148.298 E6.891
G1 X106.169 Y148.068 E6.90199
G1 X107.281 Y147.087 E6.95131
G1 X107.612 Y146.829 E6.96527
G0 F6000 X107.838 Y147.16
G1 F900 X108.983 Y146.378 E7.01138
G1 X109.257 Y146.211 E7.02206
G1 X110.415 Y145.59 E7.06576
G1 X110.682 Y145.464 E7.07558
G1 X112.208 Y144.83 E7.13054
G1 X112.529 Y144.717 E7.14186
G1 X113.56 Y144.42 E7.17755
G1 X113.677 Y144.389 E7.18157
G1 X114.478 Y144.193 E7.209
G1 X114.954 Y144.116 E7.22504
G1 X117.035 Y143.951 E7.29447
G1 X117.408 Y143.945 E7.30688
G1 X118.989 Y144.017 E7.35951
G1 X119.365 Y144.026 E7.37202
G1 X119.601 Y144.039 E7.37989
G1 X120.107 Y144.118 E7.39692
G1 X122.072 Y144.599 E7.4642
G1 X122.398 Y144.699 E7.47555
G1 X123.565 Y145.13 E7.51692
G1 X123.847 Y145.25 E7.52712
G1 X125.287 Y145.956 E7.58046
G1 X125.609 Y146.14 E7.59279
G1 X126.746 Y146.884 E7.63799
G1 X126.963 Y147.04 E7.64687
G1 X128.079 Y147.922 E7.69419
G1 X128.321 Y148.135 E7.70491
G1 X129.146 Y148.945 E7.74336
G1 X129.369 Y149.19 E7.75438
G1 X130.509 Y150.589 E7.8144
G1 X130.727 Y150.884 E7.82661
G1 X131.251 Y151.678 E7.85825
G1 X131.42 Y151.967 E7.86938
G1 X131.879 Y152.867 E7.90298
G1 X131.956 Y153.053 E7.90968
G1 X132.127 Y153.385 E7.9221
G1 X132.266 Y153.698 E7.93349
G1 X132.973 Y155.559 E7.9997
G1 X133.132 Y156.153 E8.02016
G1 X133.44 Y158.09 E8.08539
G1 X133.461 Y158.255 E8.09092
G1 X133.57 Y159.318 E8.12646
G1 X133.582 Y159.788 E8.1421
G1 X133.493 Y161.413 E8.19623
G1 X133.458 Y161.733 E8.20694
G1 X133.102 Y163.913 E8.2804
G1 X132.975 Y164.412 E8.29753
G1 X132.755 Y165.046 E8.31985
G1 X132.708 Y165.173 E8.32435
G1 X131.993 Y166.968 E8.38862
G1 X131.811 Y167.346 E8.40257
G1 X131.39 Y168.083 E8.4308
G1 X131.28 Y168.261 E8.43776
G1 X130.4 Y169.579 E8.49047
G1 X130.194 Y169.852 E8.50185
G1 X129.316 Y170.888 E8.54701
G1 X129.192 Y171.03 E8.55328
G1 X129.002 Y171.228 E8.56241
G1 X128.229 Y171.965 E8.59793
G1 X128.093 Y172.087 E8.60401
G1 X127.243 Y172.804 E8.641
G1 X126.868 Y173.074 E8.65637
G1 X125.167 Y174.109 E8.72259
G1 X124.906 Y174.251 E8.73247
G1 X123.87 Y174.748 E8.77069
G1 X123.635 Y174.85 E8.77921
G1 X123.451 Y174.921 E8.78577
G1 X122.147 Y175.372 E8.83166
G1 X121.947 Y175.434 E8.83863
G1 X120.76 Y175.754 E8.87952
G1 X120.347 Y175.834 E8.89351
G1 X118.234 Y176.095 E8.96432
G1 X117.616 Y176.108 E8.98488
G1 X115.288 Y175.913 E9.06258
G1 X114.982 Y175.871 E9.07285
G1 X113.842 Y175.656 E9.11144
G1 X113.488 Y175.567 E9.12358
G1 X112.137 Y175.137 E9.17074
G1 X111.863 Y175.034 E9.18047
G1 X110.448 Y174.426 E9.2317
G1 X110.217 Y174.315 E9.24022
G1 X110.089 Y174.246 E9.24506
G1 X108.955 Y173.616 E9.2882
G1 X108.677 Y173.441 E9.29913
G1 X107.742 Y172.778 E9.33725
G1 X107.456 Y172.549 E9.34944
G1 X106.184 Y171.39 E9.40667
G1 X105.992 Y171.198 E9.4157
G1 X105.102 Y170.226 E9.45954
G1 X104.902 Y169.982 E9.47003
G1 X104.191 Y169.019 E9.50984
G1 X104.004 Y168.734 E9.52118
G1 X103.215 Y167.364 E9.57376
G1 X103.065 Y167.067 E9.58483
G1 X102.615 Y166.036 E9.62225
G1 X102.513 Y165.768 E9.63178
G1 X102.008 Y164.223 E9.68585
G1 X101.927 Y163.922 E9.69621
G1 X101.722 Y162.969 E9.72864
G1 X101.693 Y162.699 E9.73767
G1 X101.608 Y162.249 E9.7529
G1 X101.444 Y160.577 E9.80878
G1 X101.43 Y160.273 E9.8189
G1 X101.433 Y159.911 E9.83094
G1 X101.464 Y158.992 E9.86152
G1 X101.481 Y158.752 E9.86953
G1 X101.701 Y156.83 E9.93387
G1 X101.836 Y156.221 E9.95462
G1 X102.425 Y154.457 E10.01647
G1 X102.545 Y154.154 E10.02731
G1 X103.311 Y152.488 E10.0883
G1 X103.455 Y152.214 E10.09859
G1 X103.93 Y151.411 E10.12962
G1 X104.17 Y151.063 E10.14368
G1 X104.424 Y150.694 E10.15858
G1 X105.052 Y149.858 E10.19336
G1 X105.303 Y149.559 E10.20635
G1 X106.225 Y148.571 E10.25129
G1 X106.433 Y148.368 E10.26096
G1 X107.545 Y147.387 E10.31028
G1 X107.838 Y147.16 E10.32261
G0 F6000 X108.064 Y147.49
G1 F900 X109.209 Y146.708 E10.36872
G1 X109.446 Y146.564 E10.37795
G1 X110.604 Y145.943 E10.42165
G1 X110.835 Y145.833 E10.43016
G1 X112.361 Y145.199 E10.48512
G1 X112.639 Y145.102 E10.49492
G1 X113.67 Y144.805 E10.5306
G1 X113.772 Y144.778 E10.53411
G1 X114.573 Y144.582 E10.56154
G1 X114.985 Y144.515 E10.57542
G1 X117.066 Y144.35 E10.64485
G1 X117.39 Y144.345 E10.65563
G1 X118.962 Y144.417 E10.70797
G1 X119.355 Y144.426 E10.72104
G1 X119.574 Y144.438 E10.72834
G1 X120.012 Y144.507 E10.74309
G1 X121.977 Y144.988 E10.81037
G1 X122.26 Y145.074 E10.82021
G1 X123.427 Y145.505 E10.86159
G1 X123.671 Y145.609 E10.87041
G1 X125.111 Y146.315 E10.92375
G1 X125.39 Y146.474 E10.93443
G1 X126.527 Y147.218 E10.97963
G1 X126.715 Y147.354 E10.98734
G1 X127.831 Y148.236 E11.03465
G1 X128.041 Y148.421 E11.04396
G1 X128.866 Y149.231 E11.08242
G1 X129.059 Y149.443 E11.09195
G1 X130.193 Y150.834 E11.15164
G1 X130.393 Y151.104 E11.16282
G1 X130.917 Y151.898 E11.19446
G1 X131.063 Y152.149 E11.20412
G1 X131.522 Y153.049 E11.23772
G1 X131.564 Y153.167 E11.24189
G1 X131.772 Y153.569 E11.25694
G1 X131.893 Y153.84 E11.26681
G1 X132.6 Y155.701 E11.33302
G1 X132.737 Y156.216 E11.35075
G1 X133.045 Y158.153 E11.41598
G1 X133.063 Y158.296 E11.42078
G1 X133.172 Y159.359 E11.45632
G1 X133.182 Y159.766 E11.46986
G1 X133.093 Y161.391 E11.52399
G1 X133.063 Y161.668 E11.53325
G1 X132.707 Y163.848 E11.60672
G1 X132.597 Y164.281 E11.62158
G1 X132.377 Y164.915 E11.6439
G1 X132.336 Y165.025 E11.64781
G1 X131.621 Y166.82 E11.71207
G1 X131.464 Y167.148 E11.72416
G1 X131.043 Y167.885 E11.75239
G1 X130.947 Y168.039 E11.75843
G1 X130.067 Y169.357 E11.81114
G1 X129.889 Y169.594 E11.821
G1 X129.014 Y170.625 E11.86597
G1 X128.726 Y170.939 E11.88015
G1 X127.953 Y171.676 E11.91567
G1 X127.835 Y171.781 E11.92092
G1 X126.985 Y172.498 E11.95791
G1 X126.66 Y172.732 E11.97123
G1 X124.959 Y173.767 E12.03745
G1 X124.733 Y173.89 E12.04601
G1 X123.697 Y174.387 E12.08423
G1 X123.32 Y174.543 E12.0978
G1 X122.016 Y174.994 E12.14369
G1 X121.843 Y175.047 E12.14971
G1 X120.656 Y175.367 E12.1906
G1 X120.298 Y175.437 E12.20273
G1 X118.185 Y175.698 E12.27354
G1 X117.649 Y175.709 E12.29138
G1 X115.321 Y175.514 E12.36908
G1 X115.056 Y175.478 E12.37797
G1 X113.916 Y175.263 E12.41656
G1 X113.609 Y175.186 E12.42708
G1 X112.258 Y174.756 E12.47424
G1 X112.021 Y174.667 E12.48266
G1 X110.606 Y174.059 E12.53388
G1 X110.32 Y173.917 E12.5445
G1 X109.149 Y173.267 E12.58905
G1 X108.908 Y173.115 E12.59853
G1 X107.973 Y172.452 E12.63665
G1 X107.726 Y172.253 E12.6472
G1 X106.454 Y171.094 E12.70443
G1 X106.287 Y170.928 E12.71226
G1 X105.397 Y169.956 E12.7561
G1 X105.223 Y169.744 E12.76522
G1 X104.512 Y168.781 E12.80503
G1 X104.351 Y168.535 E12.81481
G1 X103.562 Y167.165 E12.8674
G1 X103.432 Y166.907 E12.877
G1 X102.982 Y165.876 E12.91442
G1 X102.894 Y165.644 E12.92267
G1 X102.389 Y164.099 E12.97673
G1 X102.318 Y163.838 E12.98573
G1 X102.113 Y162.885 E13.01815
G1 X102.086 Y162.633 E13.02658
G1 X102.006 Y162.21 E13.0409
G1 X101.842 Y160.538 E13.09678
G1 X101.83 Y160.274 E13.10557
G1 X101.832 Y159.924 E13.11721
G1 X101.863 Y159.005 E13.14779
G1 X101.879 Y158.797 E13.15473
G1 X102.099 Y156.875 E13.21908
G1 X102.216 Y156.348 E13.23703
G1 X102.805 Y154.584 E13.29889
G1 X102.909 Y154.321 E13.30829
G1 X103.675 Y152.655 E13.36928
G1 X103.799 Y152.417 E13.37821
G1 X104.274 Y151.614 E13.40924
G1 X104.482 Y151.313 E13.42141
G1 X104.744 Y150.934 E13.43673
G1 X105.372 Y150.098 E13.47151
G1 X105.595 Y149.832 E13.48305
G1 X106.517 Y148.844 E13.528
G1 X106.698 Y148.668 E13.5364
G1 X107.81 Y147.687 E13.58572
G1 X108.064 Y147.49 E13.59641
G0 F6000 X108.289 Y147.82
G1 F900 X109.434 Y147.038 E13.64252
G1 X109.635 Y146.916 E13.65034
G1 X110.793 Y146.295 E13.69405
G1 X110.989 Y146.202 E13.70126
G1 X112.515 Y145.568 E13.75623
G1 X112.75 Y145.486 E13.7645
G1 X113.781 Y145.189 E13.80019
G1 X113.867 Y145.166 E13.80315
G1 X114.668 Y144.97 E13.83058
G1 X115.017 Y144.914 E13.84233
G1 X117.098 Y144.749 E13.91177
G1 X117.372 Y144.744 E13.92088
G1 X118.975 Y144.817 E13.97425
G1 X119.445 Y144.83 E13.98989
G1 X119.546 Y144.837 E13.99326
G1 X119.917 Y144.895 E14.00575
G1 X121.882 Y145.376 E14.07303
G1 X122.121 Y145.449 E14.08134
