;FLAVOR:Marlin
;TIME:607
;Filament used: 0.174524m
;Layer height: 0.16
;MINX:74.131
;MINY:155.644
;MINZ:0.2
;MAXX:156.37
;MAXY:178.228
;MAXZ:10
;Generated with Cura_SteamEngine 4.13.0
M140 S75
M105
M190 S75
M104 S245
M105
M109 S245
M82 ;absolute extrusion mode
; Ender 3 Custom Start G-code
G92 E0 ; Reset Extruder
G28 ; Home all axes
G1 Z2.0 F3000 ; Move Z Axis up little to prevent scratching of Heat Bed
G1 X0.1 Y20 Z0.3 F5000.0 ; Move to start position
G1 X0.1 Y200.0 Z0.3 F1500.0 E15 ; Draw the first line
G1 X0.4 Y200.0 Z0.3 F5000.0 ; Move to side a little
G1 X0.4 Y20 Z0.3 F1500.0 E30 ; Draw the second line
G92 E0 ; Reset Extruder
G1 Z2.0 F3000 ; Move Z Axis up little to prevent scratching of Heat Bed
G1 X5 Y20 Z0.3 F5000.0 ; Move over to prevent blob squish
G92 E0
G92 E0
G1 F1200 E-6
;LAYER_COUNT:27
;LAYER:0
M107
M204 S500
M205 X16 Y16
G0 F6000 X78.301 Y156.345 Z0.2
;TYPE:SKIRT
G1 F1200 E0
G1 F900 X78.745 Y156.152 E0.0161
G1 X79.252 Y155.973 E0.03399
G1 X79.721 Y155.844 E0.05016
G1 X80.214 Y155.743 E0.0669
G1 X80.682 Y155.679 E0.08261
G1 X81.205 Y155.644 E0.10005
G1 X81.686 Y155.645 E0.11604
G1 X82.199 Y155.681 E0.13315
G1 X82.654 Y155.744 E0.14843
G1 X83.16 Y155.849 E0.16561
G1 X83.641 Y155.984 E0.18223
G1 X84.123 Y156.155 E0.19924
G1 X84.553 Y156.341 E0.21482
G1 X85.013 Y156.579 E0.23205
G1 X85.414 Y156.822 E0.24764
G1 X85.85 Y157.13 E0.2654
G1 X86.228 Y157.439 E0.28164
G1 X86.606 Y157.793 E0.29886
G1 X86.938 Y158.15 E0.31508
G1 X87.265 Y158.554 E0.33236
G1 X87.522 Y158.92 E0.34724
G1 X87.783 Y159.351 E0.364
G1 X88.016 Y159.799 E0.38079
G1 X88.227 Y160.285 E0.39842
G1 X88.383 Y160.726 E0.41397
G1 X88.523 Y161.226 E0.43124
G1 X88.62 Y161.697 E0.44724
G1 X88.689 Y162.201 E0.46416
G1 X88.722 Y162.676 E0.47999
G1 X88.731 Y162.939 E0.48875
G1 X88.731 Y170.932 E0.75459
G1 X88.721 Y171.204 E0.76365
G1 X88.686 Y171.691 E0.77989
G1 X88.616 Y172.193 E0.79675
G1 X88.518 Y172.664 E0.81275
G1 X88.377 Y173.166 E0.83009
G1 X88.224 Y173.595 E0.84524
G1 X88.02 Y174.064 E0.86225
G1 X87.793 Y174.503 E0.87869
G1 X87.53 Y174.939 E0.89562
G1 X87.263 Y175.32 E0.9111
G1 X86.925 Y175.736 E0.92892
G1 X86.586 Y176.098 E0.94542
G1 X86.202 Y176.456 E0.96288
G1 X85.836 Y176.752 E0.97854
G1 X85.42 Y177.044 E0.99544
G1 X85.007 Y177.295 E1.01152
G1 X84.543 Y177.535 E1.02889
G1 X84.111 Y177.722 E1.04455
G1 X83.611 Y177.898 E1.06218
G1 X83.143 Y178.027 E1.07832
G1 X82.648 Y178.129 E1.09513
G1 X82.18 Y178.193 E1.11084
G1 X81.657 Y178.228 E1.12828
G1 X81.176 Y178.227 E1.14428
G1 X80.663 Y178.191 E1.16138
G1 X80.208 Y178.128 E1.17666
G1 X79.7 Y178.022 E1.19392
G1 X79.22 Y177.887 E1.2105
G1 X78.745 Y177.719 E1.22726
G1 X78.325 Y177.538 E1.24247
G1 X77.847 Y177.29 E1.26038
G1 X77.425 Y177.032 E1.27683
G1 X77.006 Y176.735 E1.29391
G1 X76.638 Y176.435 E1.30971
G1 X76.267 Y176.09 E1.32656
G1 X75.934 Y175.735 E1.34275
G1 X75.586 Y175.305 E1.36114
G1 X75.321 Y174.924 E1.37658
G1 X75.063 Y174.494 E1.39326
G1 X74.839 Y174.059 E1.40953
G1 X74.638 Y173.595 E1.42635
G1 X74.485 Y173.166 E1.4415
G1 X74.344 Y172.666 E1.45878
G1 X74.243 Y172.182 E1.47522
G1 X74.172 Y171.663 E1.49265
G1 X74.14 Y171.191 E1.50838
G1 X74.131 Y170.934 E1.51693
G1 X74.131 Y162.939 E1.78285
G1 X74.14 Y162.674 E1.79167
G1 X74.174 Y162.187 E1.8079
G1 X74.247 Y161.669 E1.8253
G1 X74.346 Y161.199 E1.84128
G1 X74.487 Y160.7 E1.85853
G1 X74.645 Y160.259 E1.87411
G1 X74.847 Y159.795 E1.89094
G1 X75.07 Y159.364 E1.90708
G1 X75.346 Y158.911 E1.92472
G1 X75.612 Y158.536 E1.94001
G1 X75.926 Y158.15 E1.95656
G1 X76.263 Y157.787 E1.97304
G1 X76.651 Y157.424 E1.99071
G1 X77.02 Y157.124 E2.00653
G1 X77.446 Y156.823 E2.02388
G1 X77.845 Y156.581 E2.0394
G1 X78.301 Y156.345 E2.05647
G0 F6000 X78.461 Y156.712
G1 F900 X78.905 Y156.519 E2.07258
G1 X79.358 Y156.359 E2.08856
G1 X79.827 Y156.23 E2.10473
G1 X80.268 Y156.139 E2.11971
G1 X80.736 Y156.075 E2.13542
G1 X81.204 Y156.044 E2.15102
G1 X81.685 Y156.045 E2.16702
G1 X82.144 Y156.077 E2.18232
G1 X82.599 Y156.14 E2.1976
G1 X83.052 Y156.234 E2.21299
G1 X83.533 Y156.369 E2.2296
G1 X83.964 Y156.522 E2.24482
G1 X84.394 Y156.708 E2.2604
G1 X84.806 Y156.921 E2.27582
G1 X85.207 Y157.164 E2.29142
G1 X85.597 Y157.44 E2.30731
G1 X85.975 Y157.749 E2.32355
G1 X86.313 Y158.066 E2.33896
G1 X86.645 Y158.423 E2.35518
G1 X86.938 Y158.784 E2.37064
G1 X87.195 Y159.15 E2.38552
G1 X87.428 Y159.535 E2.40048
G1 X87.661 Y159.983 E2.41728
G1 X87.85 Y160.418 E2.43305
G1 X88.006 Y160.859 E2.44861
G1 X88.131 Y161.307 E2.46408
G1 X88.228 Y161.778 E2.48008
G1 X88.29 Y162.228 E2.49518
G1 X88.323 Y162.703 E2.51102
G1 X88.331 Y162.939 E2.51887
G1 X88.331 Y170.932 E2.78472
G1 X88.322 Y171.176 E2.79284
G1 X88.287 Y171.663 E2.80908
G1 X88.225 Y172.112 E2.82416
G1 X88.127 Y172.583 E2.84016
G1 X88 Y173.032 E2.85568
G1 X87.847 Y173.461 E2.87083
G1 X87.665 Y173.881 E2.88605
G1 X87.438 Y174.32 E2.90249
G1 X87.202 Y174.709 E2.91762
G1 X86.935 Y175.09 E2.9331
G1 X86.633 Y175.463 E2.94906
G1 X86.294 Y175.825 E2.96556
G1 X85.95 Y176.145 E2.98118
G1 X85.584 Y176.441 E2.99684
G1 X85.212 Y176.702 E3.01195
G1 X84.799 Y176.953 E3.02803
G1 X84.384 Y177.168 E3.04357
G1 X83.952 Y177.355 E3.05923
G1 X83.504 Y177.513 E3.07503
G1 X83.036 Y177.642 E3.09117
G1 X82.594 Y177.733 E3.10618
G1 X82.126 Y177.797 E3.12189
G1 X81.658 Y177.828 E3.13749
G1 X81.177 Y177.827 E3.15349
G1 X80.718 Y177.795 E3.1688
G1 X80.263 Y177.732 E3.18407
G1 X79.808 Y177.637 E3.19953
G1 X79.328 Y177.502 E3.21612
G1 X78.903 Y177.351 E3.23112
G1 X78.483 Y177.17 E3.24633
G1 X78.056 Y176.949 E3.26232
G1 X77.634 Y176.691 E3.27877
G1 X77.259 Y176.425 E3.29406
G1 X76.891 Y176.125 E3.30986
G1 X76.559 Y175.816 E3.32494
G1 X76.226 Y175.461 E3.34113
G1 X75.915 Y175.076 E3.35759
G1 X75.65 Y174.695 E3.37303
G1 X75.418 Y174.311 E3.38795
G1 X75.194 Y173.876 E3.40422
G1 X75.015 Y173.461 E3.41926
G1 X74.862 Y173.032 E3.4344
G1 X74.736 Y172.585 E3.44985
G1 X74.635 Y172.101 E3.4663
G1 X74.571 Y171.636 E3.48191
G1 X74.539 Y171.164 E3.49764
G1 X74.531 Y170.934 E3.5053
G1 X74.531 Y162.939 E3.77121
G1 X74.539 Y162.702 E3.7791
G1 X74.573 Y162.215 E3.79534
G1 X74.638 Y161.751 E3.81092
G1 X74.737 Y161.281 E3.82689
G1 X74.863 Y160.835 E3.84231
G1 X75.021 Y160.394 E3.85789
G1 X75.202 Y159.979 E3.87295
G1 X75.425 Y159.548 E3.88909
G1 X75.672 Y159.143 E3.90487
G1 X75.938 Y158.768 E3.92016
G1 X76.219 Y158.422 E3.93498
G1 X76.556 Y158.059 E3.95146
G1 X76.903 Y157.734 E3.96727
G1 X77.272 Y157.434 E3.98309
G1 X77.654 Y157.165 E3.99863
G1 X78.053 Y156.923 E4.01415
G1 X78.461 Y156.712 E4.02943
G0 F6000 X78.62 Y157.079
G1 F900 X79.064 Y156.886 E4.04553
G1 X79.464 Y156.744 E4.05965
G1 X79.933 Y156.615 E4.07582
G1 X80.323 Y156.536 E4.08906
G1 X80.791 Y156.472 E4.10477
G1 X81.203 Y156.444 E4.1185
G1 X81.684 Y156.445 E4.1345
G1 X82.089 Y156.473 E4.148
G1 X82.544 Y156.536 E4.16328
G1 X82.944 Y156.62 E4.17688
G1 X83.425 Y156.755 E4.19349
G1 X83.805 Y156.89 E4.20691
G1 X84.235 Y157.076 E4.22249
G1 X84.599 Y157.263 E4.2361
G1 X85 Y157.506 E4.25169
G1 X85.344 Y157.749 E4.2657
G1 X85.722 Y158.058 E4.28194
G1 X86.02 Y158.338 E4.29554
G1 X86.352 Y158.695 E4.31176
G1 X86.61 Y159.014 E4.3254
G1 X86.867 Y159.38 E4.34028
G1 X87.074 Y159.72 E4.35352
G1 X87.307 Y160.168 E4.37031
G1 X87.473 Y160.552 E4.38422
G1 X87.629 Y160.993 E4.39978
G1 X87.739 Y161.388 E4.41342
G1 X87.836 Y161.859 E4.42942
G1 X87.891 Y162.256 E4.44275
G1 X87.924 Y162.731 E4.45858
G1 X87.931 Y162.939 E4.4655
G1 X87.931 Y170.932 E4.73135
G1 X87.923 Y171.147 E4.73851
G1 X87.888 Y171.634 E4.75475
G1 X87.833 Y172.03 E4.76805
G1 X87.735 Y172.501 E4.78405
G1 X87.624 Y172.898 E4.79776
G1 X87.471 Y173.327 E4.81291
G1 X87.31 Y173.697 E4.82633
G1 X87.083 Y174.136 E4.84276
G1 X86.875 Y174.48 E4.85613
G1 X86.608 Y174.861 E4.87161
G1 X86.341 Y175.19 E4.8857
G1 X86.002 Y175.552 E4.9022
G1 X85.698 Y175.834 E4.91599
G1 X85.332 Y176.13 E4.93164
G1 X85.004 Y176.361 E4.94499
G1 X84.591 Y176.612 E4.96106
G1 X84.225 Y176.801 E4.97476
G1 X83.793 Y176.988 E4.99042
G1 X83.398 Y177.127 E5.00435
G1 X82.93 Y177.256 E5.02049
G1 X82.539 Y177.336 E5.03377
G1 X82.071 Y177.4 E5.04948
G1 X81.659 Y177.428 E5.06321
G1 X81.178 Y177.427 E5.07921
G1 X80.773 Y177.399 E5.09271
G1 X80.318 Y177.336 E5.10799
G1 X79.917 Y177.252 E5.12162
G1 X79.437 Y177.117 E5.1382
G1 X79.062 Y176.984 E5.15144
G1 X78.642 Y176.803 E5.16665
G1 X78.264 Y176.608 E5.18079
G1 X77.842 Y176.35 E5.19724
G1 X77.511 Y176.115 E5.21075
G1 X77.143 Y175.815 E5.22654
G1 X76.851 Y175.542 E5.23983
G1 X76.518 Y175.187 E5.25602
G1 X76.243 Y174.848 E5.27054
G1 X75.978 Y174.467 E5.28598
G1 X75.774 Y174.127 E5.29916
G1 X75.55 Y173.692 E5.31544
G1 X75.391 Y173.327 E5.32868
G1 X75.238 Y172.898 E5.34383
G1 X75.127 Y172.503 E5.35748
G1 X75.026 Y172.019 E5.37392
G1 X74.97 Y171.609 E5.38768
G1 X74.938 Y171.137 E5.40342
G1 X74.931 Y170.934 E5.41017
G1 X74.931 Y162.939 E5.67609
G1 X74.938 Y162.73 E5.68304
G1 X74.972 Y162.243 E5.69928
G1 X75.029 Y161.834 E5.71302
G1 X75.128 Y161.364 E5.72899
G1 X75.24 Y160.97 E5.74262
G1 X75.398 Y160.529 E5.7582
G1 X75.558 Y160.162 E5.77151
G1 X75.781 Y159.731 E5.78765
G1 X75.998 Y159.374 E5.80155
G1 X76.264 Y158.999 E5.81684
G1 X76.512 Y158.694 E5.82991
G1 X76.849 Y158.331 E5.84639
G1 X77.156 Y158.044 E5.86037
G1 X77.525 Y157.744 E5.87618
G1 X77.861 Y157.507 E5.88986
G1 X78.26 Y157.265 E5.90538
G1 X78.62 Y157.079 E5.91886
G0 F6000 X78.78 Y157.446
G1 F900 X79.224 Y157.253 E5.93496
G1 X79.57 Y157.13 E5.94717
G1 X80.039 Y157.001 E5.96335
G1 X80.377 Y156.932 E5.97483
G1 X80.845 Y156.868 E5.99054
G1 X81.202 Y156.844 E6.00244
G1 X81.683 Y156.845 E6.01843
G1 X82.035 Y156.87 E6.03017
G1 X82.49 Y156.933 E6.04545
G1 X82.836 Y157.005 E6.0572
G1 X83.317 Y157.14 E6.07382
G1 X83.646 Y157.257 E6.08543
G1 X84.076 Y157.443 E6.10102
G1 X84.391 Y157.605 E6.1128
G1 X84.792 Y157.848 E6.12839
G1 X85.091 Y158.059 E6.14056
G1 X85.469 Y158.368 E6.1568
G1 X85.727 Y158.61 E6.16857
G1 X86.059 Y158.967 E6.18478
G1 X86.283 Y159.244 E6.19663
G1 X86.54 Y159.61 E6.21151
G1 X86.719 Y159.904 E6.22295
G1 X86.952 Y160.352 E6.23975
G1 X87.096 Y160.685 E6.25182
G1 X87.252 Y161.126 E6.26738
G1 X87.348 Y161.469 E6.27922
G1 X87.445 Y161.94 E6.29522
G1 X87.492 Y162.284 E6.30676
G1 X87.525 Y162.759 E6.3226
G1 X87.531 Y162.939 E6.32859
G1 X87.531 Y170.932 E6.59444
G1 X87.524 Y171.118 E6.60063
G1 X87.489 Y171.605 E6.61687
G1 X87.441 Y171.949 E6.62842
G1 X87.343 Y172.42 E6.64442
G1 X87.247 Y172.763 E6.65627
G1 X87.094 Y173.192 E6.67142
G1 X86.955 Y173.513 E6.68305
G1 X86.728 Y173.952 E6.69949
G1 X86.547 Y174.25 E6.71109
G1 X86.28 Y174.631 E6.72656
G1 X86.049 Y174.916 E6.73876
G1 X85.71 Y175.278 E6.75526
G1 X85.447 Y175.523 E6.76721
G1 X85.081 Y175.819 E6.78287
G1 X84.796 Y176.019 E6.79445
G1 X84.383 Y176.27 E6.81052
G1 X84.066 Y176.434 E6.82239
G1 X83.634 Y176.621 E6.83805
G1 X83.292 Y176.742 E6.85012
G1 X82.824 Y176.871 E6.86626
G1 X82.485 Y176.94 E6.87777
G1 X82.017 Y177.004 E6.89348
G1 X81.66 Y177.028 E6.90538
G1 X81.179 Y177.027 E6.92138
G1 X80.827 Y177.002 E6.93312
G1 X80.372 Y176.939 E6.94839
G1 X80.025 Y176.867 E6.96018
G1 X79.545 Y176.732 E6.97677
G1 X79.22 Y176.617 E6.98823
G1 X78.8 Y176.436 E7.00344
G1 X78.473 Y176.266 E7.0157
G1 X78.051 Y176.008 E7.03215
G1 X77.764 Y175.805 E7.04384
G1 X77.396 Y175.505 E7.05964
G1 X77.143 Y175.269 E7.07114
G1 X76.81 Y174.914 E7.08733
G1 X76.572 Y174.62 E7.09991
G1 X76.307 Y174.239 E7.11535
G1 X76.129 Y173.944 E7.12681
G1 X75.905 Y173.509 E7.14308
G1 X75.768 Y173.192 E7.15457
G1 X75.615 Y172.763 E7.16972
G1 X75.519 Y172.421 E7.18153
G1 X75.418 Y171.937 E7.19798
G1 X75.369 Y171.582 E7.2099
G1 X75.337 Y171.11 E7.22563
G1 X75.331 Y170.934 E7.23149
G1 X75.331 Y162.939 E7.4974
G1 X75.337 Y162.758 E7.50343
G1 X75.371 Y162.271 E7.51966
G1 X75.421 Y161.916 E7.53159
G1 X75.52 Y161.446 E7.54756
G1 X75.616 Y161.105 E7.55934
G1 X75.774 Y160.664 E7.57493
G1 X75.913 Y160.346 E7.58647
G1 X76.136 Y159.915 E7.60261
G1 X76.324 Y159.606 E7.61464
G1 X76.59 Y159.231 E7.62993
G1 X76.806 Y158.966 E7.6413
G1 X77.143 Y158.603 E7.65778
G1 X77.408 Y158.355 E7.66985
G1 X77.777 Y158.055 E7.68566
G1 X78.069 Y157.849 E7.69755
G1 X78.468 Y157.607 E7.71307
G1 X78.78 Y157.446 E7.72475
G0 F6000 X78.939 Y157.812
G1 F900 X79.383 Y157.619 E7.74085
G1 X79.677 Y157.516 E7.75121
G1 X80.146 Y157.387 E7.76739
G1 X80.431 Y157.328 E7.77707
G1 X80.899 Y157.264 E7.79278
G1 X81.202 Y157.244 E7.80288
G1 X81.683 Y157.245 E7.81888
G1 X81.98 Y157.266 E7.82878
G1 X82.435 Y157.329 E7.84406
G1 X82.727 Y157.39 E7.85398
G1 X83.208 Y157.525 E7.8706
G1 X83.487 Y157.624 E7.88044
G1 X83.917 Y157.81 E7.89603
G1 X84.184 Y157.948 E7.90602
G1 X84.585 Y158.191 E7.92162
G1 X84.837 Y158.369 E7.93188
G1 X85.215 Y158.678 E7.94812
G1 X85.434 Y158.883 E7.9581
G1 X85.766 Y159.24 E7.97431
G1 X85.955 Y159.474 E7.98431
G1 X86.212 Y159.84 E7.99919
G1 X86.364 Y160.089 E8.00889
G1 X86.597 Y160.537 E8.02569
G1 X86.719 Y160.818 E8.03588
G1 X86.875 Y161.259 E8.05144
G1 X86.956 Y161.549 E8.06145
G1 X87.053 Y162.02 E8.07744
G1 X87.093 Y162.312 E8.08725
G1 X87.126 Y162.787 E8.10308
G1 X87.131 Y162.939 E8.10814
G1 X87.131 Y170.932 E8.37399
G1 X87.125 Y171.09 E8.37925
G1 X87.09 Y171.577 E8.39549
G1 X87.05 Y171.867 E8.40522
G1 X86.952 Y172.338 E8.42123
G1 X86.87 Y172.629 E8.43128
G1 X86.717 Y173.058 E8.44643
G1 X86.599 Y173.329 E8.45626
G1 X86.372 Y173.768 E8.4727
G1 X86.22 Y174.021 E8.48252
G1 X85.953 Y174.402 E8.49799
G1 X85.757 Y174.643 E8.50832
G1 X85.418 Y175.005 E8.52482
G1 X85.195 Y175.212 E8.53494
G1 X84.829 Y175.508 E8.55059
G1 X84.589 Y175.677 E8.56036
G1 X84.176 Y175.928 E8.57643
G1 X83.907 Y176.067 E8.5865
G1 X83.475 Y176.254 E8.60216
G1 X83.186 Y176.356 E8.61235
G1 X82.718 Y176.485 E8.6285
G1 X82.431 Y176.544 E8.63824
G1 X81.963 Y176.608 E8.65395
G1 X81.66 Y176.628 E8.66405
G1 X81.179 Y176.627 E8.68005
G1 X80.882 Y176.606 E8.68995
G1 X80.427 Y176.543 E8.70523
G1 X80.133 Y176.482 E8.71522
G1 X79.653 Y176.347 E8.7318
G1 X79.378 Y176.249 E8.74151
G1 X78.958 Y176.068 E8.75672
G1 X78.681 Y175.925 E8.76709
G1 X78.259 Y175.667 E8.78354
G1 X78.017 Y175.495 E8.79342
G1 X77.649 Y175.195 E8.80921
G1 X77.434 Y174.995 E8.81898
G1 X77.101 Y174.64 E8.83517
G1 X76.9 Y174.391 E8.84581
G1 X76.635 Y174.01 E8.86124
G1 X76.485 Y173.761 E8.87091
G1 X76.261 Y173.326 E8.88719
G1 X76.145 Y173.058 E8.8969
G1 X75.992 Y172.629 E8.91205
G1 X75.91 Y172.339 E8.92207
G1 X75.809 Y171.855 E8.93852
G1 X75.768 Y171.555 E8.94859
G1 X75.736 Y171.083 E8.96432
G1 X75.731 Y170.934 E8.96928
G1 X75.731 Y162.939 E9.2352
G1 X75.736 Y162.786 E9.24029
G1 X75.77 Y162.299 E9.25652
G1 X75.812 Y161.999 E9.2666
G1 X75.911 Y161.529 E9.28257
G1 X75.993 Y161.24 E9.29257
G1 X76.151 Y160.799 E9.30815
G1 X76.268 Y160.53 E9.3179
G1 X76.491 Y160.099 E9.33404
G1 X76.651 Y159.837 E9.34425
G1 X76.917 Y159.462 E9.35955
G1 X77.099 Y159.238 E9.36915
G1 X77.436 Y158.875 E9.38562
G1 X77.66 Y158.665 E9.39583
G1 X78.029 Y158.365 E9.41165
G1 X78.276 Y158.191 E9.4217
G1 X78.675 Y157.949 E9.43722
G1 X78.939 Y157.812 E9.44711
G0 F6000 X79.098 Y158.179
G1 F900 X79.542 Y157.986 E9.46321
G1 X79.783 Y157.901 E9.47171
G1 X80.252 Y157.772 E9.48789
G1 X80.485 Y157.725 E9.4958
G1 X80.953 Y157.661 E9.51151
G1 X81.201 Y157.644 E9.51978
G1 X81.682 Y157.645 E9.53577
G1 X81.925 Y157.662 E9.54388
G1 X82.38 Y157.725 E9.55915
G1 X82.619 Y157.775 E9.56728
G1 X83.1 Y157.91 E9.58389
G1 X83.329 Y157.991 E9.59197
G1 X83.759 Y158.177 E9.60755
G1 X83.977 Y158.29 E9.61572
G1 X84.378 Y158.533 E9.63132
G1 X84.584 Y158.678 E9.63969
G1 X84.962 Y158.987 E9.65593
G1 X85.141 Y159.155 E9.6641
G1 X85.473 Y159.512 E9.68031
G1 X85.628 Y159.704 E9.68852
G1 X85.885 Y160.07 E9.70339
G1 X86.009 Y160.273 E9.71131
G1 X86.242 Y160.721 E9.7281
G1 X86.342 Y160.952 E9.73647
G1 X86.498 Y161.393 E9.75203
G1 X86.564 Y161.63 E9.76021
G1 X86.661 Y162.101 E9.77621
G1 X86.694 Y162.339 E9.7842
G1 X86.727 Y162.814 E9.80004
G1 X86.731 Y162.939 E9.8042
G1 X86.731 Y170.932 E10.07005
G1 X86.726 Y171.061 E10.07434
G1 X86.691 Y171.548 E10.09058
G1 X86.658 Y171.786 E10.09857
G1 X86.56 Y172.257 E10.11457
G1 X86.493 Y172.495 E10.12279
G1 X86.34 Y172.924 E10.13794
G1 X86.244 Y173.146 E10.14599
G1 X86.017 Y173.585 E10.16243
G1 X85.892 Y173.791 E10.17044
