;FLAVOR:Marlin
;TIME:668
;Filament used: 0.322359m
;Layer height: 0.16
;MINX:105.705
;MINY:142.651
;MINZ:0.2
;MAXX:129.299
;MAXY:166.242
;MAXZ:6.92
;Generated with Cura_SteamEngine 4.13.0
M140 S75
M105
M190 S75
M104 S245
M105
M109 S245
M82 ;absolute extrusion mode
; Ender 3 Custom Start G-code
G92 E0 ; Reset Extruder
G28 ; Home all axes
G1 Z2.0 F3000 ; Move Z Axis up little to prevent scratching of Heat Bed
G1 X0.1 Y20 Z0.3 F5000.0 ; Move to start position
G1 X0.1 Y200.0 Z0.3 F1500.0 E15 ; Draw the first line
G1 X0.4 Y200.0 Z0.3 F5000.0 ; Move to side a little
G1 X0.4 Y20 Z0.3 F1500.0 E30 ; Draw the second line
G92 E0 ; Reset Extruder
G1 Z2.0 F3000 ; Move Z Axis up little to prevent scratching of Heat Bed
G1 X5 Y20 Z0.3 F5000.0 ; Move over to prevent blob squish
G92 E0
G92 E0
G1 F1200 E-6
;LAYER_COUNT:39
;LAYER:0
M107
M204 S500
M205 X16 Y16
G0 F6000 X110.624 Y144.86 Z0.2
;TYPE:SKIRT
G1 F1200 E0
G1 F900 X110.957 Y144.629 E0.01348
G1 X111.687 Y144.18 E0.04198
G1 X112.04 Y143.988 E0.05535
G1 X112.8 Y143.625 E0.08336
G1 X113.182 Y143.468 E0.0971
G1 X113.99 Y143.185 E0.12557
G1 X114.364 Y143.075 E0.13854
G1 X115.19 Y142.878 E0.16678
G1 X115.595 Y142.804 E0.18048
G1 X116.44 Y142.697 E0.20881
G1 X116.842 Y142.668 E0.22221
G1 X117.699 Y142.651 E0.25072
G1 X118.106 Y142.664 E0.26427
G1 X118.951 Y142.738 E0.29248
G1 X119.35 Y142.795 E0.30588
G1 X120.187 Y142.959 E0.33425
G1 X120.577 Y143.057 E0.34763
G1 X121.377 Y143.304 E0.37547
G1 X121.761 Y143.446 E0.38909
G1 X122.561 Y143.791 E0.41807
G1 X122.916 Y143.966 E0.43123
G1 X123.65 Y144.378 E0.45923
G1 X123.999 Y144.6 E0.47298
G1 X124.692 Y145.095 E0.50131
G1 X125.008 Y145.347 E0.51475
G1 X125.647 Y145.915 E0.54319
G1 X125.93 Y146.195 E0.55643
G1 X126.508 Y146.829 E0.58496
G1 X126.767 Y147.146 E0.59858
G1 X127.265 Y147.827 E0.62664
G1 X127.485 Y148.164 E0.64003
G1 X127.906 Y148.89 E0.66794
G1 X128.088 Y149.245 E0.68121
G1 X128.442 Y150.037 E0.71006
G1 X128.592 Y150.428 E0.72399
G1 X128.85 Y151.233 E0.75211
G1 X128.949 Y151.608 E0.76501
G1 X129.124 Y152.437 E0.79319
G1 X129.187 Y152.846 E0.80695
G1 X129.272 Y153.7 E0.83549
G1 X129.29 Y153.994 E0.84529
G1 X129.299 Y154.413 E0.85923
G1 X129.298 Y154.62 E0.86612
G1 X129.284 Y155.046 E0.88029
G1 X129.261 Y155.359 E0.89073
G1 X129.161 Y156.22 E0.91956
G1 X129.095 Y156.608 E0.93265
G1 X128.911 Y157.434 E0.9608
G1 X128.802 Y157.825 E0.9743
G1 X128.533 Y158.621 E1.00224
G1 X128.381 Y159 E1.01582
G1 X128.019 Y159.782 E1.04449
G1 X127.83 Y160.14 E1.05795
G1 X127.39 Y160.874 E1.08641
G1 X127.17 Y161.201 E1.09952
G1 X126.67 Y161.867 E1.12722
G1 X126.404 Y162.184 E1.14098
G1 X125.81 Y162.818 E1.16988
G1 X125.518 Y163.098 E1.18334
G1 X124.873 Y163.654 E1.21166
G1 X124.555 Y163.901 E1.22505
G1 X123.873 Y164.373 E1.25264
G1 X123.529 Y164.585 E1.26608
G1 X122.764 Y165.002 E1.29506
G1 X122.399 Y165.176 E1.3085
G1 X121.619 Y165.499 E1.33658
G1 X121.234 Y165.635 E1.35016
G1 X120.412 Y165.876 E1.37866
G1 X120.023 Y165.968 E1.39195
G1 X119.176 Y166.122 E1.42058
G1 X118.772 Y166.173 E1.43413
G1 X117.934 Y166.234 E1.46207
G1 X117.525 Y166.242 E1.47568
G1 X116.669 Y166.212 E1.50417
G1 X116.275 Y166.177 E1.51732
G1 X115.433 Y166.059 E1.5456
G1 X115.029 Y165.98 E1.55929
G1 X114.206 Y165.772 E1.58753
G1 X113.826 Y165.655 E1.60075
G1 X113.021 Y165.359 E1.62928
G1 X112.642 Y165.195 E1.64301
G1 X111.883 Y164.818 E1.6712
G1 X111.533 Y164.621 E1.68456
G1 X110.813 Y164.163 E1.71294
G1 X110.485 Y163.929 E1.72634
G1 X109.815 Y163.395 E1.75484
G1 X109.517 Y163.131 E1.76808
G1 X108.928 Y162.551 E1.79557
G1 X108.649 Y162.244 E1.80937
G1 X108.093 Y161.562 E1.83864
G1 X107.859 Y161.243 E1.8518
G1 X107.4 Y160.542 E1.87966
G1 X107.191 Y160.181 E1.89354
G1 X106.806 Y159.423 E1.92182
G1 X106.646 Y159.063 E1.93492
G1 X106.335 Y158.252 E1.96381
G1 X106.209 Y157.86 E1.9775
G1 X105.997 Y157.056 E2.00516
G1 X105.916 Y156.668 E2.01834
G1 X105.784 Y155.815 E2.04705
G1 X105.743 Y155.405 E2.06075
G1 X105.705 Y154.559 E2.08892
G1 X105.708 Y154.158 E2.10226
G1 X105.76 Y153.301 E2.13081
G1 X105.805 Y152.904 E2.1441
G1 X105.943 Y152.079 E2.17192
G1 X106.034 Y151.675 E2.1857
G1 X106.268 Y150.845 E2.21438
G1 X106.395 Y150.469 E2.22758
G1 X106.707 Y149.686 E2.25561
G1 X106.874 Y149.324 E2.26887
G1 X107.267 Y148.577 E2.29695
G1 X107.48 Y148.221 E2.31075
G1 X107.965 Y147.502 E2.33959
G1 X108.198 Y147.192 E2.35249
G1 X108.739 Y146.544 E2.38057
G1 X109.027 Y146.235 E2.39462
G1 X109.645 Y145.643 E2.42308
G1 X109.95 Y145.381 E2.43645
G1 X110.624 Y144.86 E2.46479
G0 F6000 X110.869 Y145.176
G1 F900 X111.167 Y144.97 E2.47684
G1 X111.897 Y144.521 E2.50534
G1 X112.213 Y144.349 E2.51731
G1 X112.973 Y143.986 E2.54532
G1 X113.314 Y143.845 E2.55759
G1 X114.122 Y143.562 E2.58607
G1 X114.457 Y143.464 E2.59768
G1 X115.283 Y143.267 E2.62592
G1 X115.645 Y143.201 E2.63816
G1 X116.49 Y143.094 E2.66649
G1 X116.85 Y143.068 E2.67849
G1 X117.707 Y143.051 E2.707
G1 X118.071 Y143.063 E2.71912
G1 X118.916 Y143.137 E2.74733
G1 X119.273 Y143.187 E2.75932
G1 X120.11 Y143.351 E2.78769
G1 X120.459 Y143.439 E2.79966
G1 X121.259 Y143.686 E2.82751
G1 X121.602 Y143.813 E2.83967
G1 X122.402 Y144.158 E2.86865
G1 X122.72 Y144.315 E2.88044
G1 X123.454 Y144.727 E2.90844
G1 X123.766 Y144.925 E2.92073
G1 X124.459 Y145.42 E2.94905
G1 X124.742 Y145.646 E2.9611
G1 X125.381 Y146.214 E2.98954
G1 X125.635 Y146.464 E3.00139
G1 X126.213 Y147.098 E3.02992
G1 X126.444 Y147.382 E3.0421
G1 X126.942 Y148.063 E3.07016
G1 X127.139 Y148.364 E3.08213
G1 X127.56 Y149.09 E3.11004
G1 X127.723 Y149.409 E3.12195
G1 X128.077 Y150.201 E3.15081
G1 X128.211 Y150.55 E3.16324
G1 X128.469 Y151.355 E3.19136
G1 X128.558 Y151.691 E3.20292
G1 X128.733 Y152.52 E3.2311
G1 X128.789 Y152.885 E3.24338
G1 X128.874 Y153.739 E3.27192
G1 X128.89 Y154.003 E3.28072
G1 X128.899 Y154.422 E3.29466
G1 X128.898 Y154.607 E3.30081
G1 X128.884 Y155.033 E3.31499
G1 X128.863 Y155.313 E3.32433
G1 X128.763 Y156.174 E3.35316
G1 X128.705 Y156.521 E3.36486
G1 X128.521 Y157.347 E3.39301
G1 X128.423 Y157.697 E3.4051
G1 X128.154 Y158.493 E3.43304
G1 X128.018 Y158.832 E3.44519
G1 X127.656 Y159.614 E3.47385
G1 X127.487 Y159.934 E3.48589
G1 X127.047 Y160.668 E3.51435
G1 X126.85 Y160.961 E3.52609
G1 X126.35 Y161.627 E3.55379
G1 X126.112 Y161.911 E3.56612
G1 X125.518 Y162.545 E3.59501
G1 X125.257 Y162.795 E3.60703
G1 X124.612 Y163.351 E3.63536
G1 X124.327 Y163.572 E3.64735
G1 X123.645 Y164.044 E3.67494
G1 X123.337 Y164.233 E3.68696
G1 X122.572 Y164.65 E3.71594
G1 X122.246 Y164.806 E3.72796
G1 X121.466 Y165.129 E3.75604
G1 X121.122 Y165.251 E3.76818
G1 X120.3 Y165.492 E3.79667
G1 X119.951 Y165.574 E3.80859
G1 X119.104 Y165.728 E3.83722
G1 X118.743 Y165.774 E3.84933
G1 X117.905 Y165.835 E3.87727
G1 X117.539 Y165.842 E3.88945
G1 X116.683 Y165.812 E3.91794
G1 X116.33 Y165.781 E3.92972
G1 X115.488 Y165.663 E3.958
G1 X115.127 Y165.592 E3.97024
G1 X114.304 Y165.384 E3.99847
G1 X113.964 Y165.279 E4.01031
G1 X113.159 Y164.983 E4.03883
G1 X112.82 Y164.837 E4.05111
G1 X112.061 Y164.46 E4.0793
G1 X111.748 Y164.284 E4.09124
G1 X111.028 Y163.826 E4.11962
G1 X110.734 Y163.616 E4.13164
G1 X110.064 Y163.082 E4.16014
G1 X109.797 Y162.846 E4.17199
G1 X109.208 Y162.266 E4.19948
G1 X108.959 Y161.991 E4.21182
G1 X108.403 Y161.309 E4.24109
G1 X108.194 Y161.024 E4.25284
G1 X107.735 Y160.323 E4.28071
G1 X107.548 Y160 E4.29312
G1 X107.163 Y159.242 E4.3214
G1 X107.019 Y158.919 E4.33316
G1 X106.708 Y158.108 E4.36205
G1 X106.595 Y157.758 E4.37429
G1 X106.383 Y156.954 E4.40194
G1 X106.311 Y156.607 E4.41373
G1 X106.179 Y155.754 E4.44244
G1 X106.142 Y155.387 E4.4547
G1 X106.104 Y154.541 E4.48287
G1 X106.107 Y154.182 E4.49481
G1 X106.159 Y153.325 E4.52337
G1 X106.2 Y152.97 E4.53525
G1 X106.338 Y152.145 E4.56307
G1 X106.419 Y151.783 E4.57541
G1 X106.653 Y150.953 E4.60409
G1 X106.767 Y150.617 E4.6159
G1 X107.079 Y149.834 E4.64393
G1 X107.228 Y149.51 E4.65579
G1 X107.621 Y148.763 E4.68386
G1 X107.811 Y148.445 E4.69619
G1 X108.296 Y147.726 E4.72503
G1 X108.505 Y147.448 E4.7366
G1 X109.046 Y146.8 E4.76468
G1 X109.304 Y146.524 E4.77724
G1 X109.922 Y145.932 E4.80571
G1 X110.195 Y145.697 E4.81769
G1 X110.869 Y145.176 E4.84602
G0 F6000 X111.113 Y145.492
G1 F900 X111.376 Y145.311 E4.85664
G1 X112.106 Y144.862 E4.88514
G1 X112.385 Y144.71 E4.89571
G1 X113.145 Y144.347 E4.92372
G1 X113.446 Y144.223 E4.93455
G1 X114.254 Y143.94 E4.96303
G1 X114.55 Y143.853 E4.97329
G1 X115.376 Y143.656 E5.00153
G1 X115.695 Y143.598 E5.01232
G1 X116.54 Y143.491 E5.04065
G1 X116.858 Y143.468 E5.05125
G1 X117.715 Y143.451 E5.07976
G1 X118.036 Y143.461 E5.09044
G1 X118.881 Y143.535 E5.11865
G1 X119.196 Y143.58 E5.12924
G1 X120.033 Y143.744 E5.1576
G1 X120.341 Y143.822 E5.16817
G1 X121.141 Y144.069 E5.19602
G1 X121.444 Y144.18 E5.20675
G1 X122.244 Y144.525 E5.23573
G1 X122.524 Y144.664 E5.24613
G1 X123.258 Y145.076 E5.27412
G1 X123.534 Y145.251 E5.28499
G1 X124.227 Y145.746 E5.31332
G1 X124.476 Y145.945 E5.32392
G1 X125.115 Y146.513 E5.35235
G1 X125.339 Y146.734 E5.36282
G1 X125.917 Y147.368 E5.39136
G1 X126.122 Y147.618 E5.40211
G1 X126.62 Y148.299 E5.43017
G1 X126.793 Y148.565 E5.44072
G1 X127.214 Y149.291 E5.46864
G1 X127.358 Y149.572 E5.47914
G1 X127.712 Y150.364 E5.50799
G1 X127.83 Y150.672 E5.51896
G1 X128.088 Y151.477 E5.54708
G1 X128.166 Y151.773 E5.55726
G1 X128.341 Y152.602 E5.58544
G1 X128.391 Y152.925 E5.59631
G1 X128.476 Y153.779 E5.62485
G1 X128.49 Y154.012 E5.63262
G1 X128.499 Y154.431 E5.64656
G1 X128.498 Y154.594 E5.65198
G1 X128.484 Y155.02 E5.66616
G1 X128.466 Y155.267 E5.67439
G1 X128.366 Y156.128 E5.70322
G1 X128.314 Y156.434 E5.71355
G1 X128.13 Y157.26 E5.74169
G1 X128.044 Y157.568 E5.75233
G1 X127.775 Y158.364 E5.78027
G1 X127.655 Y158.664 E5.79102
G1 X127.293 Y159.446 E5.81968
G1 X127.144 Y159.728 E5.83029
G1 X126.704 Y160.462 E5.85875
G1 X126.53 Y160.721 E5.86913
G1 X126.03 Y161.387 E5.89683
G1 X125.82 Y161.637 E5.90769
G1 X125.226 Y162.271 E5.93658
G1 X124.996 Y162.492 E5.94719
G1 X124.351 Y163.048 E5.97552
G1 X124.099 Y163.243 E5.98611
G1 X123.417 Y163.715 E6.0137
G1 X123.146 Y163.882 E6.02429
G1 X122.381 Y164.299 E6.05327
G1 X122.093 Y164.437 E6.06389
G1 X121.313 Y164.76 E6.09197
G1 X121.009 Y164.867 E6.10269
G1 X120.187 Y165.108 E6.13118
G1 X119.88 Y165.181 E6.14167
G1 X119.033 Y165.335 E6.17031
G1 X118.714 Y165.375 E6.181
G1 X117.876 Y165.436 E6.20895
G1 X117.553 Y165.442 E6.21969
G1 X116.697 Y165.412 E6.24818
G1 X116.386 Y165.385 E6.25856
G1 X115.544 Y165.267 E6.28684
G1 X115.225 Y165.205 E6.29765
G1 X114.402 Y164.997 E6.32588
G1 X114.102 Y164.904 E6.33633
G1 X113.297 Y164.608 E6.36486
G1 X112.997 Y164.479 E6.37572
G1 X112.238 Y164.102 E6.4039
G1 X111.963 Y163.946 E6.41442
G1 X111.243 Y163.488 E6.4428
G1 X110.983 Y163.303 E6.45341
G1 X110.313 Y162.769 E6.48191
G1 X110.078 Y162.561 E6.49235
G1 X109.489 Y161.981 E6.51984
G1 X109.269 Y161.739 E6.53072
G1 X108.713 Y161.057 E6.55999
G1 X108.528 Y160.804 E6.57041
G1 X108.069 Y160.103 E6.59828
G1 X107.904 Y159.819 E6.6092
G1 X107.519 Y159.061 E6.63748
G1 X107.393 Y158.776 E6.64785
G1 X107.082 Y157.965 E6.67674
G1 X106.982 Y157.656 E6.68754
G1 X106.77 Y156.852 E6.71519
G1 X106.706 Y156.546 E6.72559
G1 X106.574 Y155.693 E6.7543
G1 X106.542 Y155.369 E6.76513
G1 X106.504 Y154.523 E6.79329
G1 X106.507 Y154.206 E6.80384
G1 X106.559 Y153.349 E6.83239
G1 X106.594 Y153.036 E6.84287
G1 X106.732 Y152.211 E6.87069
G1 X106.804 Y151.892 E6.88157
G1 X107.038 Y151.062 E6.91025
G1 X107.138 Y150.766 E6.92064
G1 X107.45 Y149.983 E6.94867
G1 X107.582 Y149.696 E6.95918
G1 X107.975 Y148.949 E6.98726
G1 X108.143 Y148.668 E6.99814
G1 X108.628 Y147.949 E7.02699
G1 X108.812 Y147.704 E7.03718
G1 X109.353 Y147.056 E7.06526
G1 X109.581 Y146.813 E7.07634
G1 X110.199 Y146.221 E7.10481
G1 X110.439 Y146.013 E7.11537
G1 X111.113 Y145.492 E7.1437
G0 F6000 X111.358 Y145.809
G1 F900 X111.586 Y145.651 E7.15293
G1 X112.316 Y145.202 E7.18143
G1 X112.557 Y145.071 E7.19056
G1 X113.317 Y144.708 E7.21857
G1 X113.579 Y144.6 E7.228
G1 X114.387 Y144.317 E7.25647
G1 X114.643 Y144.242 E7.26534
G1 X115.469 Y144.045 E7.29359
G1 X115.745 Y143.995 E7.30292
G1 X116.59 Y143.888 E7.33124
G1 X116.865 Y143.868 E7.34042
G1 X117.722 Y143.851 E7.36892
G1 X118.001 Y143.86 E7.37821
G1 X118.846 Y143.934 E7.40642
G1 X119.119 Y143.973 E7.41559
G1 X119.956 Y144.137 E7.44396
G1 X120.223 Y144.204 E7.45312
G1 X121.023 Y144.451 E7.48096
G1 X121.286 Y144.548 E7.49029
G1 X122.086 Y144.893 E7.51927
G1 X122.329 Y145.013 E7.52828
G1 X123.063 Y145.425 E7.55628
G1 X123.301 Y145.576 E7.56565
G1 X123.994 Y146.071 E7.59398
G1 X124.21 Y146.244 E7.60318
G1 X124.849 Y146.812 E7.63162
G1 X125.043 Y147.003 E7.64067
G1 X125.621 Y147.637 E7.66921
G1 X125.799 Y147.854 E7.67854
G1 X126.297 Y148.535 E7.7066
G1 X126.447 Y148.766 E7.71576
G1 X126.868 Y149.492 E7.74367
G1 X126.993 Y149.735 E7.75276
G1 X127.347 Y150.527 E7.78162
G1 X127.449 Y150.794 E7.79112
G1 X127.707 Y151.599 E7.81924
G1 X127.775 Y151.856 E7.82808
G1 X127.95 Y152.685 E7.85626
G1 X127.993 Y152.964 E7.86565
G1 X128.078 Y153.818 E7.8942
G1 X128.09 Y154.02 E7.90093
G1 X128.099 Y154.439 E7.91486
G1 X128.099 Y154.58 E7.91955
G1 X128.085 Y155.006 E7.93373
G1 X128.069 Y155.221 E7.9409
G1 X127.969 Y156.082 E7.96973
G1 X127.924 Y156.347 E7.97867
G1 X127.74 Y157.173 E8.00682
G1 X127.665 Y157.44 E8.01604
G1 X127.396 Y158.236 E8.04399
G1 X127.292 Y158.496 E8.0533
G1 X126.93 Y159.278 E8.08196
G1 X126.801 Y159.523 E8.09117
G1 X126.361 Y160.257 E8.11963
G1 X126.21 Y160.481 E8.12862
G1 X125.71 Y161.147 E8.15632
G1 X125.528 Y161.364 E8.16574
G1 X124.934 Y161.998 E8.19463
G1 X124.735 Y162.189 E8.20381
G1 X124.09 Y162.745 E8.23213
G1 X123.872 Y162.914 E8.24131
G1 X123.19 Y163.386 E8.26889
G1 X122.954 Y163.531 E8.2781
G1 X122.189 Y163.948 E8.30708
G1 X121.94 Y164.067 E8.31626
G1 X121.16 Y164.39 E8.34434
G1 X120.896 Y164.483 E8.35365
G1 X120.074 Y164.724 E8.38214
G1 X119.808 Y164.787 E8.39123
G1 X118.961 Y164.941 E8.41987
G1 X118.685 Y164.976 E8.42912
G1 X117.847 Y165.037 E8.45707
G1 X117.567 Y165.042 E8.46638
G1 X116.711 Y165.012 E8.49487
G1 X116.441 Y164.989 E8.50388
G1 X115.599 Y164.871 E8.53216
G1 X115.323 Y164.817 E8.54151
G1 X114.5 Y164.609 E8.56975
G1 X114.24 Y164.528 E8.57881
G1 X113.435 Y164.232 E8.60733
G1 X113.175 Y164.121 E8.61674
G1 X112.416 Y163.744 E8.64492
G1 X112.178 Y163.609 E8.65402
G1 X111.458 Y163.151 E8.6824
G1 X111.232 Y162.99 E8.69163
G1 X110.562 Y162.456 E8.72013
G1 X110.359 Y162.276 E8.72915
G1 X109.77 Y161.696 E8.75665
G1 X109.579 Y161.486 E8.76609
G1 X109.023 Y160.804 E8.79536
G1 X108.863 Y160.585 E8.80438
G1 X108.404 Y159.884 E8.83225
G1 X108.261 Y159.637 E8.84174
G1 X107.876 Y158.879 E8.87001
G1 X107.766 Y158.633 E8.87898
G1 X107.455 Y157.822 E8.90787
G1 X107.369 Y157.554 E8.91723
G1 X107.157 Y156.75 E8.94488
G1 X107.102 Y156.485 E8.95389
G1 X106.97 Y155.632 E8.98259
G1 X106.942 Y155.351 E8.99199
G1 X106.904 Y154.505 E9.02015
G1 X106.906 Y154.231 E9.02927
G1 X106.958 Y153.374 E9.05782
G1 X106.989 Y153.102 E9.06693
G1 X107.127 Y152.277 E9.09475
G1 X107.189 Y152 E9.10419
G1 X107.423 Y151.17 E9.13287
G1 X107.51 Y150.914 E9.14186
G1 X107.822 Y150.131 E9.1699
G1 X107.936 Y149.882 E9.17901
G1 X108.329 Y149.135 E9.20708
G1 X108.475 Y148.892 E9.21651
G1 X108.96 Y148.173 E9.24536
G1 X109.119 Y147.961 E9.25417
G1 X109.66 Y147.313 E9.28225
G1 X109.857 Y147.101 E9.29187
G1 X110.475 Y146.509 E9.32034
G1 X110.684 Y146.33 E9.32949
G1 X111.358 Y145.809 E9.35782
G0 F6000 X111.603 Y146.125
G1 F900 X111.795 Y145.992 E9.36559
G1 X112.525 Y145.543 E9.3941
G1 X112.73 Y145.432 E9.40185
G1 X113.49 Y145.069 E9.42986
G1 X113.711 Y144.978 E9.43781
G1 X114.519 Y144.695 E9.46629
G1 X114.736 Y144.631 E9.47381
G1 X115.562 Y144.434 E9.50205
G1 X115.796 Y144.391 E9.50997
G1 X116.641 Y144.284 E9.5383
G1 X116.873 Y144.267 E9.54603
G1 X117.73 Y144.25 E9.57454
G1 X117.966 Y144.258 E9.5824
G1 X118.811 Y144.332 E9.61061
G1 X119.042 Y144.365 E9.61837
G1 X119.879 Y144.529 E9.64674
G1 X120.105 Y144.586 E9.65449
G1 X120.905 Y144.833 E9.68234
G1 X121.127 Y144.915 E9.69021
G1 X121.927 Y145.26 E9.71919
G1 X122.133 Y145.362 E9.72683
G1 X122.867 Y145.774 E9.75483
G1 X123.069 Y145.902 E9.76278
G1 X123.762 Y146.397 E9.79111
